(Exported by FreeCAD)
(Post Processor: grbl_post)
(Output Time:2022-03-25 15:04:01.400265)
(Begin preamble)
G17 G90
G21
(Begin operation: Fixture)
(Path: Fixture)
G54
(Finish operation: Fixture)
(Begin operation: 3.175mm_ball_end001)
(Path: 3.175mm_ball_end001)
(3.175mm_ball_end001)
(Begin toolchange)
( M6 T1.0 )
M3 S1000.0
(Finish operation: 3.175mm_ball_end001)
(Begin operation: Helix)
(Path: Helix)
(Helix)
(helix cut operation)
G0 Z3.000
G0 X17.794 Y17.000
G0 Z2.000
G1 Z0.000 F200.00
G2 X16.206 Y17.000 Z-0.500 I-0.794 J0.000 F200.00
G2 X17.794 Y17.000 Z-1.000 I0.794 J0.000 F200.00
G2 X16.206 Y17.000 Z-1.500 I-0.794 J0.000 F200.00
G2 X17.794 Y17.000 Z-2.000 I0.794 J0.000 F200.00
G2 X16.206 Y17.000 Z-2.500 I-0.794 J0.000 F200.00
G2 X17.794 Y17.000 Z-3.000 I0.794 J0.000 F200.00
G2 X16.206 Y17.000 Z-3.500 I-0.794 J0.000 F200.00
G2 X17.794 Y17.000 Z-4.000 I0.794 J0.000 F200.00
G2 X16.206 Y17.000 Z-4.500 I-0.794 J0.000 F200.00
G2 X17.794 Y17.000 Z-5.000 I0.794 J0.000 F200.00
G2 X16.206 Y17.000 Z-5.500 I-0.794 J0.000 F200.00
G2 X17.794 Y17.000 Z-6.000 I0.794 J0.000 F200.00
G2 X16.206 Y17.000 Z-6.500 I-0.794 J0.000 F200.00
G2 X17.794 Y17.000 Z-7.000 I0.794 J0.000 F200.00
G2 X16.206 Y17.000 Z-7.500 I-0.794 J0.000 F200.00
G2 X17.794 Y17.000 Z-8.000 I0.794 J0.000 F200.00
G2 X16.206 Y17.000 Z-8.500 I-0.794 J0.000 F200.00
G2 X17.794 Y17.000 Z-9.000 I0.794 J0.000 F200.00
G2 X16.206 Y17.000 Z-9.500 I-0.794 J0.000 F200.00
G2 X17.794 Y17.000 Z-10.000 I0.794 J0.000 F200.00
G2 X16.206 Y17.000 Z-10.500 I-0.794 J0.000 F200.00
G2 X17.794 Y17.000 Z-11.000 I0.794 J0.000 F200.00
G2 X16.206 Y17.000 Z-11.500 I-0.794 J0.000 F200.00
G2 X17.794 Y17.000 Z-12.000 I0.794 J0.000 F200.00
G2 X16.206 Y17.000 Z-12.500 I-0.794 J0.000 F200.00
G2 X17.794 Y17.000 Z-13.000 I0.794 J0.000 F200.00
G2 X16.206 Y17.000 Z-13.500 I-0.794 J0.000 F200.00
G2 X17.794 Y17.000 Z-14.000 I0.794 J0.000 F200.00
G2 X16.206 Y17.000 Z-14.500 I-0.794 J0.000 F200.00
G2 X17.794 Y17.000 Z-15.000 I0.794 J0.000 F200.00
G2 X16.206 Y17.000 Z-15.500 I-0.794 J0.000 F200.00
G2 X17.794 Y17.000 Z-16.000 I0.794 J0.000 F200.00
G2 X16.206 Y17.000 Z-16.500 I-0.794 J0.000 F200.00
G2 X17.794 Y17.000 Z-17.000 I0.794 J0.000 F200.00
G2 X16.206 Y17.000 Z-17.500 I-0.794 J0.000 F200.00
G2 X17.794 Y17.000 Z-18.000 I0.794 J0.000 F200.00
G2 X16.206 Y17.000 Z-18.500 I-0.794 J0.000 F200.00
G2 X17.794 Y17.000 Z-19.000 I0.794 J0.000 F200.00
G2 X16.206 Y17.000 Z-19.500 I-0.794 J0.000 F200.00
G2 X17.794 Y17.000 Z-20.000 I0.794 J0.000 F200.00
G2 X16.206 Y17.000 Z-20.000 I-0.794 J0.000 F200.00
G2 X17.794 Y17.000 Z-20.000 I0.794 J0.000 F200.00
G0 Z2.000
G0 X18.663 Y17.000
G0 Z2.000
G1 Z0.000 F200.00
G2 X15.338 Y17.000 Z-0.500 I-1.663 J0.000 F200.00
G2 X18.663 Y17.000 Z-1.000 I1.663 J0.000 F200.00
G2 X15.338 Y17.000 Z-1.500 I-1.663 J0.000 F200.00
G2 X18.663 Y17.000 Z-2.000 I1.663 J0.000 F200.00
G2 X15.338 Y17.000 Z-2.500 I-1.663 J0.000 F200.00
G2 X18.663 Y17.000 Z-3.000 I1.663 J0.000 F200.00
G2 X15.338 Y17.000 Z-3.500 I-1.663 J0.000 F200.00
G2 X18.663 Y17.000 Z-4.000 I1.663 J0.000 F200.00
G2 X15.338 Y17.000 Z-4.500 I-1.663 J0.000 F200.00
G2 X18.663 Y17.000 Z-5.000 I1.663 J0.000 F200.00
G2 X15.338 Y17.000 Z-5.500 I-1.663 J0.000 F200.00
G2 X18.663 Y17.000 Z-6.000 I1.663 J0.000 F200.00
G2 X15.338 Y17.000 Z-6.500 I-1.663 J0.000 F200.00
G2 X18.663 Y17.000 Z-7.000 I1.663 J0.000 F200.00
G2 X15.338 Y17.000 Z-7.500 I-1.663 J0.000 F200.00
G2 X18.663 Y17.000 Z-8.000 I1.663 J0.000 F200.00
G2 X15.338 Y17.000 Z-8.500 I-1.663 J0.000 F200.00
G2 X18.663 Y17.000 Z-9.000 I1.663 J0.000 F200.00
G2 X15.338 Y17.000 Z-9.500 I-1.663 J0.000 F200.00
G2 X18.663 Y17.000 Z-10.000 I1.663 J0.000 F200.00
G2 X15.338 Y17.000 Z-10.500 I-1.663 J0.000 F200.00
G2 X18.663 Y17.000 Z-11.000 I1.663 J0.000 F200.00
G2 X15.338 Y17.000 Z-11.500 I-1.663 J0.000 F200.00
G2 X18.663 Y17.000 Z-12.000 I1.663 J0.000 F200.00
G2 X15.338 Y17.000 Z-12.500 I-1.663 J0.000 F200.00
G2 X18.663 Y17.000 Z-13.000 I1.663 J0.000 F200.00
G2 X15.338 Y17.000 Z-13.500 I-1.663 J0.000 F200.00
G2 X18.663 Y17.000 Z-14.000 I1.663 J0.000 F200.00
G2 X15.338 Y17.000 Z-14.500 I-1.663 J0.000 F200.00
G2 X18.663 Y17.000 Z-15.000 I1.663 J0.000 F200.00
G2 X15.338 Y17.000 Z-15.500 I-1.663 J0.000 F200.00
G2 X18.663 Y17.000 Z-16.000 I1.663 J0.000 F200.00
G2 X15.338 Y17.000 Z-16.500 I-1.663 J0.000 F200.00
G2 X18.663 Y17.000 Z-17.000 I1.663 J0.000 F200.00
G2 X15.338 Y17.000 Z-17.500 I-1.663 J0.000 F200.00
G2 X18.663 Y17.000 Z-18.000 I1.663 J0.000 F200.00
G2 X15.338 Y17.000 Z-18.500 I-1.663 J0.000 F200.00
G2 X18.663 Y17.000 Z-19.000 I1.663 J0.000 F200.00
G2 X15.338 Y17.000 Z-19.500 I-1.663 J0.000 F200.00
G2 X18.663 Y17.000 Z-20.000 I1.663 J0.000 F200.00
G2 X15.338 Y17.000 Z-20.000 I-1.663 J0.000 F200.00
G2 X18.663 Y17.000 Z-20.000 I1.663 J0.000 F200.00
G0 Z2.000
G0 Z3.000
(Finish operation: Helix)
(Begin operation: Adaptive)
(Path: Adaptive)
(Adaptive)
(Helix to depth: -1.000000)
G0 Z3.000
G0 X35.270 Y35.894 Z3.000
G0 X35.270 Y35.894 Z2.000
G1 X35.270 Y35.894 Z0.000 F200.00
G1 X35.270 Y35.894 Z0.000 F200.00
G1 X35.050 Y35.962 Z-0.020 F200.00
G1 X34.820 Y35.986 Z-0.041 F200.00
G1 X34.590 Y35.965 Z-0.061 F200.00
G1 X34.369 Y35.899 Z-0.082 F200.00
G1 X34.165 Y35.792 Z-0.102 F200.00
G1 X33.985 Y35.646 Z-0.122 F200.00
G1 X33.838 Y35.469 Z-0.143 F200.00
G1 X33.728 Y35.266 Z-0.163 F200.00
G1 X33.660 Y35.046 Z-0.184 F200.00
G1 X33.636 Y34.816 Z-0.204 F200.00
G1 X33.657 Y34.586 Z-0.224 F200.00
G1 X33.722 Y34.365 Z-0.245 F200.00
G1 X33.830 Y34.161 Z-0.265 F200.00
G1 X33.975 Y33.981 Z-0.286 F200.00
G1 X34.153 Y33.834 Z-0.306 F200.00
G1 X34.356 Y33.724 Z-0.326 F200.00
G1 X34.576 Y33.656 Z-0.347 F200.00
G1 X34.805 Y33.632 Z-0.367 F200.00
G1 X35.035 Y33.653 Z-0.388 F200.00
G1 X35.257 Y33.718 Z-0.408 F200.00
G1 X35.461 Y33.826 Z-0.428 F200.00
G1 X35.640 Y33.971 Z-0.449 F200.00
G1 X35.788 Y34.149 Z-0.469 F200.00
G1 X35.898 Y34.352 Z-0.489 F200.00
G1 X35.966 Y34.572 Z-0.510 F200.00
G1 X35.990 Y34.801 Z-0.530 F200.00
G1 X35.969 Y35.031 Z-0.551 F200.00
G1 X35.903 Y35.253 Z-0.571 F200.00
G1 X35.796 Y35.457 Z-0.591 F200.00
G1 X35.650 Y35.636 Z-0.612 F200.00
G1 X35.473 Y35.784 Z-0.632 F200.00
G1 X35.270 Y35.894 Z-0.653 F200.00
G1 X35.050 Y35.962 Z-0.673 F200.00
G1 X34.820 Y35.986 Z-0.693 F200.00
G1 X34.590 Y35.965 Z-0.714 F200.00
G1 X34.369 Y35.899 Z-0.734 F200.00
G1 X34.165 Y35.792 Z-0.755 F200.00
G1 X33.985 Y35.646 Z-0.775 F200.00
G1 X33.838 Y35.469 Z-0.795 F200.00
G1 X33.728 Y35.266 Z-0.816 F200.00
G1 X33.660 Y35.046 Z-0.836 F200.00
G1 X33.636 Y34.816 Z-0.857 F200.00
G1 X33.657 Y34.586 Z-0.877 F200.00
G1 X33.722 Y34.365 Z-0.897 F200.00
G1 X33.830 Y34.161 Z-0.918 F200.00
G1 X33.975 Y33.981 Z-0.938 F200.00
G1 X34.153 Y33.834 Z-0.959 F200.00
G1 X34.356 Y33.724 Z-0.979 F200.00
G1 X34.576 Y33.656 Z-0.999 F200.00
G1 X34.805 Y33.632 Z-1.000 F200.00
G1 X35.035 Y33.653 Z-1.000 F200.00
G1 X35.257 Y33.718 Z-1.000 F200.00
G1 X35.461 Y33.826 Z-1.000 F200.00
G1 X35.640 Y33.971 Z-1.000 F200.00
G1 X35.788 Y34.149 Z-1.000 F200.00
G1 X35.898 Y34.352 Z-1.000 F200.00
G1 X35.966 Y34.572 Z-1.000 F200.00
G1 X35.990 Y34.801 Z-1.000 F200.00
G1 X35.969 Y35.031 Z-1.000 F200.00
G1 X35.903 Y35.253 Z-1.000 F200.00
G1 X35.796 Y35.457 Z-1.000 F200.00
G1 X35.650 Y35.636 Z-1.000 F200.00
G1 X35.473 Y35.784 Z-1.000 F200.00
G1 X35.270 Y35.894 Z-1.000 F200.00
G1 X35.050 Y35.962 Z-1.000 F200.00
G1 X34.820 Y35.986 Z-1.000 F200.00
G1 X34.590 Y35.965 Z-1.000 F200.00
G1 X34.369 Y35.899 Z-1.000 F200.00
G1 X34.165 Y35.792 Z-1.000 F200.00
G1 X33.985 Y35.646 Z-1.000 F200.00
G1 X33.838 Y35.469 Z-1.000 F200.00
G1 X33.728 Y35.266 Z-1.000 F200.00
G1 X33.660 Y35.046 Z-1.000 F200.00
G1 X33.636 Y34.816 Z-1.000 F200.00
G1 X33.657 Y34.586 Z-1.000 F200.00
G1 X33.722 Y34.365 Z-1.000 F200.00
G1 X33.830 Y34.161 Z-1.000 F200.00
G1 X33.975 Y33.981 Z-1.000 F200.00
G1 X34.153 Y33.834 Z-1.000 F200.00
G1 X34.356 Y33.724 Z-1.000 F200.00
G1 X34.576 Y33.656 Z-1.000 F200.00
(Adaptive - depth: -1.000000)
G1 X34.813 Y33.622 F200.00
G1 X34.857 Y33.574 F200.00
G1 X35.032 Y33.510 F200.00
G1 X35.211 Y33.498 F200.00
G1 X35.331 Y33.510 F200.00
G1 X35.693 Y33.657 F200.00
G1 X35.861 Y33.785 F200.00
G1 X35.960 Y33.888 F200.00
G1 X36.052 Y34.004 F200.00
G1 X36.159 Y34.191 F200.00
G1 X36.251 Y34.418 F200.00
G1 X36.295 Y34.649 F200.00
G1 X36.303 Y34.841 F200.00
G1 X36.287 Y35.032 F200.00
G1 X36.235 Y35.251 F200.00
G1 X36.151 Y35.466 F200.00
G1 X36.040 Y35.653 F200.00
G1 X35.912 Y35.813 F200.00
G1 X35.757 Y35.960 F200.00
G1 X35.566 Y36.092 F200.00
G1 X35.375 Y36.191 F200.00
G1 X35.163 Y36.263 F200.00
G1 X34.944 Y36.303 F200.00
G1 X34.725 Y36.307 F200.00
G1 X34.530 Y36.283 F200.00
G1 X34.319 Y36.223 F200.00
G1 X34.124 Y36.135 F200.00
G1 X33.944 Y36.028 F200.00
G1 X33.757 Y35.873 F200.00
G1 X33.610 Y35.709 F200.00
G1 X33.490 Y35.522 F200.00
G1 X33.406 Y35.343 F200.00
G1 X33.347 Y35.135 F200.00
G1 X33.315 Y34.928 F200.00
G1 X33.311 Y34.689 F200.00
G1 X33.347 Y34.454 F200.00
G1 X33.402 Y34.255 F200.00
G1 X33.502 Y34.048 F200.00
G1 X33.614 Y33.880 F200.00
G1 X33.753 Y33.725 F200.00
G1 X33.912 Y33.586 F200.00
G1 X34.108 Y33.450 F200.00
G1 X34.339 Y33.319 F200.00
G1 X34.685 Y33.183 F200.00
G1 X34.984 Y33.135 F200.00
G1 X35.375 Y33.175 F200.00
G1 X35.729 Y33.299 F200.00
G1 X35.896 Y33.394 F200.00
G1 X36.028 Y33.486 F200.00
G1 X36.183 Y33.633 F200.00
G1 X36.331 Y33.813 F200.00
G1 X36.458 Y34.024 F200.00
G1 X36.550 Y34.235 F200.00
G1 X36.614 Y34.462 F200.00
G1 X36.641 Y34.701 F200.00
G1 X36.645 Y34.912 F200.00
G1 X36.614 Y35.159 F200.00
G1 X36.554 Y35.386 F200.00
G1 X36.458 Y35.622 F200.00
G1 X36.335 Y35.837 F200.00
G1 X36.179 Y36.024 F200.00
G1 X36.032 Y36.167 F200.00
G1 X35.849 Y36.311 F200.00
G1 X35.618 Y36.450 F200.00
G1 X35.367 Y36.562 F200.00
G1 X35.112 Y36.622 F200.00
G1 X34.908 Y36.641 F200.00
G1 X34.701 Y36.641 F200.00
G1 X34.450 Y36.606 F200.00
G1 X34.203 Y36.538 F200.00
G1 X33.964 Y36.442 F200.00
G1 X33.749 Y36.311 F200.00
G1 X33.574 Y36.175 F200.00
G1 X33.406 Y36.004 F200.00
G1 X33.263 Y35.817 F200.00
G1 X33.135 Y35.598 F200.00
G1 X33.040 Y35.371 F200.00
G1 X32.980 Y35.131 F200.00
G1 X32.952 Y34.904 F200.00
G1 X32.948 Y34.665 F200.00
G1 X32.984 Y34.402 F200.00
G1 X33.044 Y34.167 F200.00
G1 X33.143 Y33.940 F200.00
G1 X33.255 Y33.749 F200.00
G1 X33.398 Y33.562 F200.00
G1 X33.558 Y33.386 F200.00
G1 X33.785 Y33.191 F200.00
G1 X34.032 Y33.028 F200.00
G1 X34.275 Y32.900 F200.00
G1 X34.554 Y32.817 F200.00
G1 X34.757 Y32.773 F200.00
G1 X35.004 Y32.757 F200.00
G1 X35.247 Y32.769 F200.00
G1 X35.506 Y32.817 F200.00
G1 X35.749 Y32.892 F200.00
G1 X35.976 Y33.004 F200.00
G1 X36.159 Y33.124 F200.00
G1 X36.347 Y33.275 F200.00
G1 X36.530 Y33.466 F200.00
G1 X36.701 Y33.693 F200.00
G1 X36.821 Y33.924 F200.00
G1 X36.904 Y34.127 F200.00
G1 X36.972 Y34.371 F200.00
G1 X37.012 Y34.641 F200.00
G1 X37.020 Y34.916 F200.00
G1 X36.992 Y35.183 F200.00
G1 X36.940 Y35.422 F200.00
G1 X36.853 Y35.669 F200.00
G1 X36.737 Y35.900 F200.00
G1 X36.598 Y36.112 F200.00
G1 X36.430 Y36.307 F200.00
G1 X36.239 Y36.482 F200.00
G1 X36.032 Y36.637 F200.00
G1 X35.785 Y36.777 F200.00
G1 X35.538 Y36.880 F200.00
G1 X35.275 Y36.956 F200.00
G1 X35.000 Y37.000 F200.00
G1 X34.729 Y37.012 F200.00
G1 X34.458 Y36.992 F200.00
G1 X34.191 Y36.932 F200.00
G1 X33.972 Y36.857 F200.00
G1 X33.737 Y36.749 F200.00
G1 X33.498 Y36.594 F200.00
G1 X33.299 Y36.430 F200.00
G1 X33.112 Y36.239 F200.00
G1 X32.948 Y36.024 F200.00
G1 X32.813 Y35.797 F200.00
G1 X32.705 Y35.554 F200.00
G1 X32.629 Y35.299 F200.00
G1 X32.582 Y35.036 F200.00
G1 X32.566 Y34.773 F200.00
G1 X32.578 Y34.510 F200.00
G1 X32.625 Y34.227 F200.00
G1 X32.701 Y33.964 F200.00
G1 X32.809 Y33.709 F200.00
G1 X32.944 Y33.470 F200.00
G1 X33.108 Y33.247 F200.00
G1 X33.295 Y33.044 F200.00
G1 X33.502 Y32.865 F200.00
G1 X33.729 Y32.709 F200.00
G1 X33.972 Y32.582 F200.00
G1 X34.227 Y32.482 F200.00
G1 X34.490 Y32.406 F200.00
G1 X34.805 Y32.359 F200.00
G1 X35.088 Y32.343 F200.00
G1 X35.378 Y32.375 F200.00
G1 X35.606 Y32.422 F200.00
G1 X35.861 Y32.510 F200.00
G1 X36.100 Y32.614 F200.00
G1 X36.367 Y32.773 F200.00
G1 X36.590 Y32.944 F200.00
G1 X36.785 Y33.143 F200.00
G1 X36.936 Y33.335 F200.00
G1 X37.084 Y33.558 F200.00
G1 X37.215 Y33.833 F200.00
G1 X37.307 Y34.092 F200.00
G1 X37.371 Y34.367 F200.00
G1 X37.406 Y34.649 F200.00
G1 X37.410 Y34.956 F200.00
G1 X37.382 Y35.247 F200.00
G1 X37.311 Y35.538 F200.00
G1 X37.231 Y35.769 F200.00
G1 X37.112 Y36.016 F200.00
G1 X36.968 Y36.247 F200.00
G1 X36.785 Y36.490 F200.00
G1 X36.566 Y36.721 F200.00
G1 X36.331 Y36.904 F200.00
G1 X36.116 Y37.044 F200.00
G1 X35.857 Y37.171 F200.00
G1 X35.594 Y37.271 F200.00
G1 X35.279 Y37.355 F200.00
G1 X34.984 Y37.398 F200.00
G1 X34.689 Y37.402 F200.00
G1 X34.434 Y37.378 F200.00
G1 X34.159 Y37.323 F200.00
G1 X33.892 Y37.243 F200.00
G1 X33.590 Y37.112 F200.00
G1 X33.335 Y36.968 F200.00
G1 X33.096 Y36.785 F200.00
G1 X32.912 Y36.614 F200.00
G1 X32.729 Y36.398 F200.00
G1 X32.566 Y36.171 F200.00
G1 X32.410 Y35.884 F200.00
G1 X32.299 Y35.614 F200.00
G1 X32.211 Y35.331 F200.00
G1 X32.155 Y35.032 F200.00
G1 X32.143 Y34.737 F200.00
G1 X32.155 Y34.482 F200.00
G1 X32.195 Y34.199 F200.00
G1 X32.275 Y33.884 F200.00
G1 X32.386 Y33.590 F200.00
G1 X32.510 Y33.339 F200.00
G1 X32.673 Y33.084 F200.00
G1 X32.861 Y32.853 F200.00
G1 X33.068 Y32.641 F200.00
G1 X33.299 Y32.454 F200.00
G1 X33.550 Y32.291 F200.00
G1 X33.817 Y32.155 F200.00
G1 X34.454 Y31.936 F200.00
G1 X34.932 Y31.876 F200.00
G1 X35.470 Y31.912 F200.00
G1 X36.004 Y32.064 F200.00
G1 X36.171 Y32.135 F200.00
G1 X36.514 Y32.327 F200.00
G1 X36.825 Y32.566 F200.00
G1 X37.036 Y32.769 F200.00
G1 X37.207 Y32.976 F200.00
G1 X37.367 Y33.207 F200.00
G1 X37.526 Y33.486 F200.00
G1 X37.661 Y33.801 F200.00
G1 X37.757 Y34.100 F200.00
G1 X37.817 Y34.418 F200.00
G1 X37.845 Y34.697 F200.00
G1 X37.841 Y35.000 F200.00
G1 X37.805 Y35.303 F200.00
G1 X37.741 Y35.594 F200.00
G1 X37.645 Y35.880 F200.00
G1 X37.518 Y36.155 F200.00
G1 X37.363 Y36.414 F200.00
G1 X36.841 Y36.968 F200.00
G1 X36.371 Y37.307 F200.00
G1 X35.857 Y37.590 F200.00
G1 X35.482 Y37.717 F200.00
G1 X35.159 Y37.781 F200.00
G1 X34.908 Y37.805 F200.00
G1 X34.653 Y37.805 F200.00
G1 X34.339 Y37.777 F200.00
G1 X34.004 Y37.713 F200.00
G1 X33.689 Y37.622 F200.00
G1 X33.390 Y37.482 F200.00
G1 X33.171 Y37.359 F200.00
G1 X32.928 Y37.191 F200.00
G1 X32.677 Y36.972 F200.00
G1 X32.450 Y36.733 F200.00
G1 X32.251 Y36.482 F200.00
G1 X31.940 Y35.900 F200.00
G1 X31.777 Y35.398 F200.00
G1 X31.693 Y34.888 F200.00
G1 X31.697 Y34.315 F200.00
G1 X31.781 Y33.869 F200.00
G1 X31.976 Y33.315 F200.00
G1 X32.155 Y32.972 F200.00
G1 X32.394 Y32.657 F200.00
G1 X32.665 Y32.371 F200.00
G1 X32.928 Y32.147 F200.00
G1 X33.546 Y31.737 F200.00
G1 X33.777 Y31.637 F200.00
G1 X33.837 Y31.622 F200.00
G1 X35.988 Y31.633 F200.00
G1 X36.227 Y31.681 F200.00
G1 X36.669 Y31.884 F200.00
G1 X37.024 Y32.131 F200.00
G1 X37.311 Y32.394 F200.00
G1 X37.566 Y32.689 F200.00
G1 X37.785 Y33.008 F200.00
G1 X37.928 Y33.271 F200.00
G1 X38.048 Y33.546 F200.00
G1 X38.151 Y33.853 F200.00
G1 X38.235 Y34.199 F200.00
G1 X38.287 Y34.562 F200.00
G1 X38.287 Y34.908 F200.00
G1 X38.267 Y35.179 F200.00
G1 X38.211 Y35.498 F200.00
G1 X38.127 Y35.801 F200.00
G1 X38.004 Y36.120 F200.00
G1 X37.697 Y36.594 F200.00
G1 X37.657 Y36.641 F200.00
G1 X37.554 Y36.721 F200.00
G1 X37.167 Y36.956 F200.00
G1 X36.653 Y37.518 F200.00
G1 X36.219 Y37.801 F200.00
G1 X35.749 Y38.036 F200.00
G1 X35.371 Y38.147 F200.00
G1 X35.048 Y38.199 F200.00
G1 X34.801 Y38.219 F200.00
G1 X34.526 Y38.219 F200.00
G1 X34.167 Y38.183 F200.00
G1 X33.813 Y38.112 F200.00
G1 X33.502 Y38.008 F200.00
G1 X33.247 Y37.896 F200.00
G1 X32.968 Y37.745 F200.00
G1 X32.677 Y37.550 F200.00
G1 X32.402 Y37.327 F200.00
G1 X32.163 Y37.080 F200.00
G1 X31.749 Y36.522 F200.00
G1 X31.657 Y36.343 F200.00
G1 X31.618 Y36.215 F200.00
G1 X31.618 Y35.323 F200.00
G1 X31.618 Y35.323 F200.00
G1 X31.629 Y35.303 F200.00
G0 X31.645 Y35.295
G1 X31.657 Y35.295 F200.00
G1 X31.657 Y35.303 F200.00
G1 X31.661 Y35.303 F200.00
G1 X31.645 Y35.315 F200.00
G1 X31.618 Y35.283 F200.00
G1 X31.618 Y35.283 F200.00
G1 X31.625 Y33.307 F200.00
G1 X31.681 Y32.988 F200.00
G1 X31.880 Y32.590 F200.00
G1 X32.143 Y32.223 F200.00
G1 X32.697 Y31.681 F200.00
G1 X32.805 Y31.625 F200.00
G1 X32.865 Y31.618 F200.00
G1 X32.865 Y31.618 F200.00
G1 X32.988 Y31.637 F200.00
G1 X33.044 Y31.665 F200.00
G1 X33.060 Y31.685 F200.00
G0 X33.064 Y31.705
G0 X33.016 Y31.793
G0 X31.829 Y33.151
G1 X31.801 Y33.179 F200.00
G1 X31.725 Y33.251 F200.00
G1 X31.705 Y33.255 F200.00
G1 X31.665 Y33.231 F200.00
G1 X31.622 Y33.120 F200.00
G1 X31.618 Y33.060 F200.00
G1 X31.618 Y33.060 F200.00
G1 X31.625 Y32.550 F200.00
G1 X31.669 Y32.295 F200.00
G1 X31.741 Y32.120 F200.00
G1 X31.952 Y31.797 F200.00
G1 X32.080 Y31.657 F200.00
G1 X32.135 Y31.625 F200.00
G1 X32.131 Y31.625 F200.00
G1 X32.255 Y31.645 F200.00
G1 X32.311 Y31.673 F200.00
G1 X32.327 Y31.693 F200.00
G0 X32.335 Y31.713
G0 X32.267 Y31.841
G0 X31.809 Y32.446
G1 X31.789 Y32.478 F200.00
G1 X31.721 Y32.550 F200.00
G1 X31.701 Y32.554 F200.00
G1 X31.665 Y32.534 F200.00
G1 X31.622 Y32.422 F200.00
G1 X31.618 Y32.363 F200.00
G1 X31.618 Y32.363 F200.00
G1 X31.625 Y31.916 F200.00
G1 X31.661 Y31.725 F200.00
G1 X31.685 Y31.665 F200.00
G1 X31.729 Y31.622 F200.00
G1 X31.729 Y31.622 F200.00
G1 X31.741 Y31.629 F200.00
G1 X31.745 Y31.641 F200.00
G1 X31.673 Y31.729 F200.00
G1 X31.637 Y31.745 F200.00
G1 X31.618 Y31.729 F200.00
G1 X31.618 Y31.729 F200.00
G1 X31.637 Y31.669 F200.00
G1 X31.685 Y31.629 F200.00
G1 X31.685 Y31.629 F200.00
G1 X31.904 Y31.633 F200.00
G0 X31.932 Y31.645
G0 X32.315 Y31.964
G0 X33.414 Y32.060
G0 X33.924 Y31.968
G0 X35.343 Y31.960
G0 X35.689 Y31.793
G1 X35.717 Y31.777 F200.00
G1 X35.801 Y31.729 F200.00
G1 X35.980 Y31.637 F200.00
G1 X36.116 Y31.618 F200.00
G1 X36.116 Y31.618 F200.00
G1 X36.713 Y31.625 F200.00
G1 X36.952 Y31.669 F200.00
G1 X37.068 Y31.717 F200.00
G1 X37.474 Y31.988 F200.00
G1 X37.657 Y32.155 F200.00
G1 X37.920 Y32.446 F200.00
G1 X38.151 Y32.761 F200.00
G1 X38.347 Y33.100 F200.00
G1 X38.470 Y33.386 F200.00
G1 X38.562 Y33.653 F200.00
G1 X38.649 Y33.972 F200.00
G1 X38.717 Y34.359 F200.00
G1 X38.737 Y34.749 F200.00
G1 X38.729 Y35.060 F200.00
G1 X38.689 Y35.390 F200.00
G1 X38.614 Y35.725 F200.00
G1 X38.502 Y36.036 F200.00
G1 X38.386 Y36.291 F200.00
G1 X38.199 Y36.546 F200.00
G1 X38.143 Y36.582 F200.00
G1 X38.080 Y36.590 F200.00
G1 X38.080 Y36.590 F200.00
G1 X37.944 Y36.570 F200.00
G1 X37.857 Y36.522 F200.00
G0 X37.837 Y36.498
G0 X37.789 Y36.382
G0 X36.669 Y31.900
G1 X36.657 Y31.857 F200.00
G1 X36.641 Y31.741 F200.00
G1 X36.665 Y31.689 F200.00
G1 X36.745 Y31.637 F200.00
G1 X36.876 Y31.618 F200.00
G1 X36.876 Y31.618 F200.00
G1 X37.295 Y31.625 F200.00
G1 X37.534 Y31.669 F200.00
G1 X37.645 Y31.717 F200.00
G1 X37.904 Y31.888 F200.00
G1 X38.179 Y32.135 F200.00
G1 X38.438 Y32.430 F200.00
G1 X38.657 Y32.753 F200.00
G1 X38.841 Y33.100 F200.00
G1 X38.956 Y33.378 F200.00
G1 X39.048 Y33.673 F200.00
G1 X39.124 Y33.992 F200.00
G1 X39.183 Y34.378 F200.00
G1 X39.207 Y34.769 F200.00
G1 X39.183 Y35.147 F200.00
G1 X39.143 Y35.446 F200.00
G1 X39.064 Y35.793 F200.00
G1 X38.952 Y36.116 F200.00
G1 X38.745 Y36.434 F200.00
G1 X38.661 Y36.526 F200.00
G1 X38.610 Y36.562 F200.00
G1 X38.550 Y36.586 F200.00
G1 X38.422 Y36.586 F200.00
G1 X38.422 Y36.586 F200.00
G1 X38.287 Y36.558 F200.00
G1 X38.203 Y36.502 F200.00
G0 X38.183 Y36.478
G0 X38.143 Y36.363
G0 X37.291 Y31.904
G1 X37.283 Y31.857 F200.00
G1 X37.271 Y31.745 F200.00
G1 X37.295 Y31.689 F200.00
G1 X37.378 Y31.637 F200.00
G1 X37.510 Y31.618 F200.00
G1 X37.510 Y31.618 F200.00
G1 X37.809 Y31.622 F200.00
G1 X38.048 Y31.665 F200.00
G1 X38.215 Y31.737 F200.00
G1 X38.602 Y32.036 F200.00
G1 X38.729 Y32.167 F200.00
G1 X38.976 Y32.470 F200.00
G1 X39.183 Y32.805 F200.00
G1 X39.331 Y33.112 F200.00
G1 X39.442 Y33.394 F200.00
G1 X39.538 Y33.709 F200.00
G1 X39.618 Y34.088 F200.00
G1 X39.661 Y34.470 F200.00
G1 X39.677 Y34.833 F200.00
G1 X39.661 Y35.207 F200.00
G1 X39.594 Y35.578 F200.00
G1 X39.510 Y35.861 F200.00
G1 X39.406 Y36.131 F200.00
G1 X39.235 Y36.398 F200.00
G1 X39.108 Y36.542 F200.00
G1 X39.052 Y36.574 F200.00
G1 X38.988 Y36.586 F200.00
G1 X38.606 Y36.586 F200.00
G1 X38.606 Y36.586 F200.00
G1 X38.470 Y36.558 F200.00
G1 X38.386 Y36.502 F200.00
G0 X38.367 Y36.478
G0 X38.335 Y36.363
G0 X37.781 Y31.904
G1 X37.777 Y31.857 F200.00
G1 X37.773 Y31.745 F200.00
G1 X37.801 Y31.689 F200.00
G1 X37.880 Y31.637 F200.00
G1 X38.016 Y31.618 F200.00
G1 X38.016 Y31.618 F200.00
G1 X38.375 Y31.625 F200.00
G1 X38.554 Y31.657 F200.00
G1 X38.669 Y31.701 F200.00
G1 X39.104 Y32.040 F200.00
G1 X39.191 Y32.127 F200.00
G1 X39.438 Y32.430 F200.00
G1 X39.645 Y32.761 F200.00
G1 X39.789 Y33.048 F200.00
G1 X39.904 Y33.327 F200.00
G1 X40.012 Y33.677 F200.00
G1 X40.084 Y34.040 F200.00
G1 X40.131 Y34.382 F200.00
G1 X40.147 Y34.773 F200.00
G1 X40.131 Y35.139 F200.00
G1 X40.072 Y35.506 F200.00
G1 X40.000 Y35.801 F200.00
G1 X39.876 Y36.124 F200.00
G1 X39.665 Y36.442 F200.00
G1 X39.574 Y36.534 F200.00
G1 X39.518 Y36.566 F200.00
G1 X39.458 Y36.586 F200.00
G1 X39.076 Y36.586 F200.00
G1 X39.076 Y36.586 F200.00
G1 X38.940 Y36.558 F200.00
G1 X38.857 Y36.502 F200.00
G0 X38.837 Y36.478
G0 X38.805 Y36.363
G0 X38.291 Y31.904
G1 X38.287 Y31.857 F200.00
G1 X38.283 Y31.745 F200.00
G1 X38.311 Y31.689 F200.00
G1 X38.390 Y31.637 F200.00
G1 X38.526 Y31.618 F200.00
G1 X38.526 Y31.618 F200.00
G1 X38.884 Y31.625 F200.00
G1 X39.064 Y31.661 F200.00
G1 X39.179 Y31.705 F200.00
G1 X39.526 Y31.964 F200.00
G1 X39.693 Y32.139 F200.00
G1 X39.940 Y32.446 F200.00
G1 X40.143 Y32.781 F200.00
G1 X40.291 Y33.092 F200.00
G1 X40.390 Y33.367 F200.00
G1 X40.474 Y33.653 F200.00
G1 X40.558 Y34.036 F200.00
G1 X40.602 Y34.426 F200.00
G1 X40.618 Y34.797 F200.00
G1 X40.590 Y35.187 F200.00
G1 X40.542 Y35.510 F200.00
G1 X40.442 Y35.861 F200.00
G1 X40.331 Y36.124 F200.00
G1 X40.167 Y36.390 F200.00
G1 X40.040 Y36.530 F200.00
G1 X39.984 Y36.566 F200.00
G1 X39.924 Y36.586 F200.00
G1 X39.542 Y36.586 F200.00
G1 X39.542 Y36.586 F200.00
G1 X39.406 Y36.558 F200.00
G1 X39.323 Y36.502 F200.00
G0 X39.303 Y36.478
G0 X39.271 Y36.363
G0 X38.797 Y31.904
G1 X38.793 Y31.861 F200.00
G1 X38.789 Y31.745 F200.00
G1 X38.817 Y31.689 F200.00
G1 X38.896 Y31.637 F200.00
G1 X39.032 Y31.618 F200.00
G1 X39.032 Y31.618 F200.00
G1 X39.331 Y31.622 F200.00
G1 X39.570 Y31.665 F200.00
G1 X39.685 Y31.709 F200.00
G1 X40.020 Y31.972 F200.00
G1 X40.191 Y32.147 F200.00
G1 X40.426 Y32.462 F200.00
G1 X40.629 Y32.797 F200.00
G1 X40.789 Y33.147 F200.00
G1 X40.884 Y33.434 F200.00
G1 X40.964 Y33.717 F200.00
G1 X41.040 Y34.104 F200.00
G1 X41.076 Y34.494 F200.00
G1 X41.084 Y34.857 F200.00
G1 X41.060 Y35.247 F200.00
G1 X40.984 Y35.633 F200.00
G1 X40.892 Y35.908 F200.00
G1 X40.793 Y36.147 F200.00
G1 X40.622 Y36.410 F200.00
G1 X40.494 Y36.550 F200.00
G1 X40.438 Y36.578 F200.00
G1 X39.992 Y36.586 F200.00
G1 X39.992 Y36.586 F200.00
G1 X39.857 Y36.558 F200.00
G1 X39.773 Y36.502 F200.00
G0 X39.757 Y36.478
G0 X39.725 Y36.363
G0 X39.299 Y31.904
G1 X39.295 Y31.861 F200.00
G1 X39.295 Y31.745 F200.00
G1 X39.323 Y31.689 F200.00
G1 X39.402 Y31.637 F200.00
G1 X39.538 Y31.618 F200.00
G1 X39.538 Y31.618 F200.00
G1 X39.837 Y31.622 F200.00
G1 X40.076 Y31.669 F200.00
G1 X40.331 Y31.833 F200.00
G1 X40.645 Y32.124 F200.00
G1 X40.920 Y32.482 F200.00
G1 X41.116 Y32.821 F200.00
G1 X41.267 Y33.159 F200.00
G1 X41.363 Y33.454 F200.00
G1 X41.438 Y33.741 F200.00
G1 X41.510 Y34.127 F200.00
G1 X41.554 Y34.518 F200.00
G1 X41.554 Y34.908 F200.00
G1 X41.522 Y35.235 F200.00
G1 X41.466 Y35.550 F200.00
G1 X41.367 Y35.892 F200.00
G1 X41.227 Y36.199 F200.00
G1 X41.048 Y36.454 F200.00
G1 X40.956 Y36.546 F200.00
G1 X40.900 Y36.574 F200.00
G1 X40.837 Y36.586 F200.00
G1 X40.454 Y36.586 F200.00
G1 X40.454 Y36.586 F200.00
G1 X40.319 Y36.558 F200.00
G1 X40.235 Y36.502 F200.00
G0 X40.219 Y36.478
G0 X40.187 Y36.363
G0 X39.809 Y31.904
G1 X39.805 Y31.861 F200.00
G1 X39.805 Y31.745 F200.00
G1 X39.833 Y31.689 F200.00
G1 X39.912 Y31.637 F200.00
G1 X40.048 Y31.618 F200.00
G1 X40.048 Y31.618 F200.00
G1 X40.406 Y31.637 F200.00
G1 X40.582 Y31.685 F200.00
G1 X40.789 Y31.817 F200.00
G1 X41.143 Y32.155 F200.00
G1 X41.382 Y32.466 F200.00
G1 X41.582 Y32.805 F200.00
G1 X41.725 Y33.127 F200.00
G1 X41.821 Y33.398 F200.00
G1 X41.904 Y33.701 F200.00
G1 X41.980 Y34.088 F200.00
G1 X42.020 Y34.478 F200.00
G1 X42.032 Y34.853 F200.00
G1 X41.992 Y35.243 F200.00
G1 X41.940 Y35.538 F200.00
G1 X41.833 Y35.880 F200.00
G1 X41.721 Y36.147 F200.00
G1 X41.506 Y36.458 F200.00
G1 X41.414 Y36.550 F200.00
G1 X41.355 Y36.578 F200.00
G1 X40.908 Y36.586 F200.00
G1 X40.908 Y36.586 F200.00
G1 X40.773 Y36.558 F200.00
G1 X40.689 Y36.502 F200.00
G0 X40.673 Y36.478
G0 X40.641 Y36.363
G0 X40.251 Y31.904
G1 X40.247 Y31.861 F200.00
G1 X40.247 Y31.745 F200.00
G1 X40.275 Y31.689 F200.00
G1 X40.355 Y31.637 F200.00
G1 X40.490 Y31.618 F200.00
G1 X40.490 Y31.618 F200.00
G1 X40.849 Y31.633 F200.00
G1 X41.028 Y31.677 F200.00
G1 X41.335 Y31.876 F200.00
G1 X41.598 Y32.127 F200.00
G1 X41.841 Y32.434 F200.00
G1 X42.044 Y32.769 F200.00
G1 X42.187 Y33.080 F200.00
G1 X42.283 Y33.355 F200.00
G1 X42.363 Y33.633 F200.00
G1 X42.446 Y34.016 F200.00
G1 X42.486 Y34.406 F200.00
G1 X42.506 Y34.781 F200.00
G1 X42.470 Y35.171 F200.00
G1 X42.422 Y35.466 F200.00
G1 X42.335 Y35.813 F200.00
G1 X42.199 Y36.135 F200.00
G1 X42.028 Y36.398 F200.00
G1 X41.896 Y36.538 F200.00
G1 X41.841 Y36.570 F200.00
G1 X41.777 Y36.586 F200.00
G1 X41.394 Y36.586 F200.00
G1 X41.394 Y36.586 F200.00
G1 X41.259 Y36.558 F200.00
G1 X41.175 Y36.502 F200.00
G0 X41.159 Y36.478
G0 X41.127 Y36.363
G0 X40.697 Y31.904
G1 X40.693 Y31.861 F200.00
G1 X40.693 Y31.745 F200.00
G1 X40.721 Y31.689 F200.00
G1 X40.801 Y31.637 F200.00
G1 X40.936 Y31.618 F200.00
G1 X40.936 Y31.618 F200.00
G1 X41.235 Y31.622 F200.00
G1 X41.474 Y31.661 F200.00
G1 X41.590 Y31.705 F200.00
G1 X41.884 Y31.928 F200.00
G1 X42.092 Y32.143 F200.00
G1 X42.331 Y32.454 F200.00
G1 X42.530 Y32.793 F200.00
G1 X42.669 Y33.104 F200.00
G1 X42.769 Y33.378 F200.00
G1 X42.857 Y33.693 F200.00
G1 X42.932 Y34.076 F200.00
G1 X42.972 Y34.466 F200.00
G1 X42.980 Y34.837 F200.00
G1 X42.944 Y35.223 F200.00
G1 X42.888 Y35.534 F200.00
G1 X42.781 Y35.873 F200.00
G1 X42.673 Y36.127 F200.00
G1 X42.502 Y36.390 F200.00
G1 X42.371 Y36.530 F200.00
G1 X42.255 Y36.586 F200.00
G1 X41.873 Y36.586 F200.00
G1 X41.873 Y36.586 F200.00
G1 X41.737 Y36.558 F200.00
G1 X41.653 Y36.502 F200.00
G0 X41.637 Y36.478
G0 X41.606 Y36.363
G0 X41.203 Y31.904
G1 X41.199 Y31.861 F200.00
G1 X41.199 Y31.745 F200.00
G1 X41.227 Y31.689 F200.00
G1 X41.307 Y31.637 F200.00
G1 X41.442 Y31.618 F200.00
G1 X41.442 Y31.618 F200.00
G1 X41.741 Y31.622 F200.00
G1 X41.980 Y31.665 F200.00
G1 X42.092 Y31.713 F200.00
G1 X42.335 Y31.900 F200.00
G1 X42.586 Y32.167 F200.00
G1 X42.821 Y32.478 F200.00
G1 X43.016 Y32.817 F200.00
G1 X43.155 Y33.127 F200.00
G1 X43.255 Y33.418 F200.00
G1 X43.335 Y33.713 F200.00
G1 X43.410 Y34.100 F200.00
G1 X43.446 Y34.490 F200.00
G1 X43.454 Y34.861 F200.00
G1 X43.410 Y35.251 F200.00
G1 X43.355 Y35.546 F200.00
G1 X43.259 Y35.884 F200.00
G1 X43.116 Y36.199 F200.00
G1 X42.964 Y36.406 F200.00
G1 X42.829 Y36.542 F200.00
G1 X42.773 Y36.570 F200.00
G1 X42.709 Y36.586 F200.00
G1 X42.327 Y36.586 F200.00
G1 X42.327 Y36.586 F200.00
G1 X42.191 Y36.558 F200.00
G1 X42.108 Y36.502 F200.00
G0 X42.092 Y36.478
G0 X42.060 Y36.363
G0 X41.709 Y31.904
G1 X41.705 Y31.861 F200.00
G1 X41.705 Y31.745 F200.00
G1 X41.733 Y31.689 F200.00
G1 X41.813 Y31.637 F200.00
G1 X41.948 Y31.618 F200.00
G1 X41.948 Y31.618 F200.00
G1 X42.307 Y31.637 F200.00
G1 X42.486 Y31.685 F200.00
G1 X42.741 Y31.853 F200.00
G1 X43.008 Y32.104 F200.00
G1 X43.291 Y32.458 F200.00
G1 X43.486 Y32.797 F200.00
G1 X43.629 Y33.120 F200.00
G1 X43.725 Y33.406 F200.00
G1 X43.801 Y33.689 F200.00
G1 X43.876 Y34.076 F200.00
G1 X43.912 Y34.466 F200.00
G1 X43.920 Y34.833 F200.00
G1 X43.884 Y35.223 F200.00
G1 X43.829 Y35.534 F200.00
G1 X43.721 Y35.880 F200.00
G1 X43.610 Y36.147 F200.00
G1 X43.390 Y36.454 F200.00
G1 X43.303 Y36.546 F200.00
G1 X43.243 Y36.574 F200.00
G1 X43.179 Y36.586 F200.00
G1 X42.797 Y36.586 F200.00
G1 X42.797 Y36.586 F200.00
G1 X42.661 Y36.558 F200.00
G1 X42.578 Y36.502 F200.00
G0 X42.562 Y36.478
G0 X42.530 Y36.363
G0 X42.155 Y31.904
G1 X42.151 Y31.861 F200.00
G1 X42.151 Y31.745 F200.00
G1 X42.179 Y31.689 F200.00
G1 X42.259 Y31.637 F200.00
G1 X42.394 Y31.618 F200.00
G1 X42.394 Y31.618 F200.00
G1 X42.693 Y31.622 F200.00
G1 X42.932 Y31.665 F200.00
G1 X43.040 Y31.713 F200.00
G1 X43.331 Y31.940 F200.00
G1 X43.542 Y32.163 F200.00
G1 X43.777 Y32.478 F200.00
G1 X43.968 Y32.821 F200.00
G1 X44.112 Y33.147 F200.00
G1 X44.207 Y33.446 F200.00
G1 X44.279 Y33.725 F200.00
G1 X44.351 Y34.112 F200.00
G1 X44.382 Y34.502 F200.00
G1 X44.390 Y34.869 F200.00
G1 X44.347 Y35.259 F200.00
G1 X44.291 Y35.558 F200.00
G1 X44.195 Y35.900 F200.00
G1 X44.044 Y36.215 F200.00
G1 X43.809 Y36.514 F200.00
G1 X43.761 Y36.554 F200.00
G1 X43.701 Y36.578 F200.00
G1 X43.255 Y36.586 F200.00
G1 X43.255 Y36.586 F200.00
G1 X43.120 Y36.558 F200.00
G1 X43.036 Y36.502 F200.00
G0 X43.020 Y36.478
G0 X42.988 Y36.363
G0 X42.657 Y31.904
G1 X42.653 Y31.861 F200.00
G1 X42.653 Y31.745 F200.00
G1 X42.685 Y31.689 F200.00
G1 X42.765 Y31.637 F200.00
G1 X42.900 Y31.618 F200.00
G1 X42.900 Y31.618 F200.00
G1 X43.259 Y31.637 F200.00
G1 X43.434 Y31.685 F200.00
G1 X43.641 Y31.817 F200.00
G1 X43.996 Y32.151 F200.00
G1 X44.235 Y32.462 F200.00
G1 X44.430 Y32.801 F200.00
G1 X44.566 Y33.104 F200.00
G1 X44.665 Y33.375 F200.00
G1 X44.761 Y33.737 F200.00
G1 X44.821 Y34.104 F200.00
G1 X44.849 Y34.442 F200.00
G1 X44.857 Y34.805 F200.00
G1 X44.825 Y35.195 F200.00
G1 X44.769 Y35.562 F200.00
G1 X44.653 Y35.928 F200.00
G1 X44.470 Y36.283 F200.00
G1 X44.267 Y36.526 F200.00
G1 X44.215 Y36.562 F200.00
G1 X44.155 Y36.586 F200.00
G1 X43.709 Y36.586 F200.00
G1 X43.709 Y36.586 F200.00
G1 X43.574 Y36.558 F200.00
G1 X43.490 Y36.502 F200.00
G0 X43.474 Y36.478
G0 X43.442 Y36.363
G0 X43.104 Y31.904
G1 X43.104 Y31.861 F200.00
G1 X43.104 Y31.745 F200.00
G1 X43.131 Y31.689 F200.00
G1 X43.211 Y31.637 F200.00
G1 X43.347 Y31.618 F200.00
G1 X43.347 Y31.618 F200.00
G1 X43.705 Y31.633 F200.00
G1 X43.884 Y31.677 F200.00
G1 X44.191 Y31.873 F200.00
G1 X44.450 Y32.127 F200.00
G1 X44.685 Y32.442 F200.00
G1 X44.888 Y32.777 F200.00
G1 X45.048 Y33.127 F200.00
G1 X45.139 Y33.410 F200.00
G1 X45.211 Y33.685 F200.00
G1 X45.279 Y34.060 F200.00
G1 X45.319 Y34.450 F200.00
G1 X45.331 Y34.841 F200.00
G1 X45.295 Y35.231 F200.00
G1 X45.231 Y35.550 F200.00
G1 X45.147 Y35.845 F200.00
G1 X45.020 Y36.163 F200.00
G1 X44.837 Y36.422 F200.00
G1 X44.749 Y36.514 F200.00
G1 X44.697 Y36.554 F200.00
G1 X44.637 Y36.578 F200.00
G1 X44.255 Y36.586 F200.00
G1 X44.255 Y36.586 F200.00
G1 X44.120 Y36.558 F200.00
G1 X44.036 Y36.502 F200.00
G0 X44.016 Y36.478
G0 X43.988 Y36.363
G0 X43.550 Y31.904
G1 X43.546 Y31.861 F200.00
G1 X43.546 Y31.745 F200.00
G1 X43.574 Y31.689 F200.00
G1 X43.653 Y31.637 F200.00
G1 X43.789 Y31.618 F200.00
G1 X43.789 Y31.618 F200.00
G1 X44.147 Y31.625 F200.00
G1 X44.327 Y31.657 F200.00
G1 X44.442 Y31.701 F200.00
G1 X44.861 Y32.056 F200.00
G1 X44.940 Y32.143 F200.00
G1 X45.175 Y32.454 F200.00
G1 X45.371 Y32.793 F200.00
G1 X45.502 Y33.092 F200.00
G1 X45.598 Y33.359 F200.00
G1 X45.689 Y33.697 F200.00
G1 X45.761 Y34.084 F200.00
G1 X45.801 Y34.470 F200.00
G1 X45.809 Y34.845 F200.00
G1 X45.765 Y35.227 F200.00
G1 X45.713 Y35.518 F200.00
G1 X45.618 Y35.853 F200.00
G1 X45.490 Y36.167 F200.00
G1 X45.347 Y36.378 F200.00
G1 X45.215 Y36.518 F200.00
G1 X45.163 Y36.554 F200.00
G1 X45.104 Y36.578 F200.00
G1 X44.721 Y36.586 F200.00
G1 X44.721 Y36.586 F200.00
G1 X44.586 Y36.558 F200.00
G1 X44.502 Y36.502 F200.00
G0 X44.486 Y36.478
G0 X44.454 Y36.363
G0 X44.056 Y31.904
G1 X44.052 Y31.861 F200.00
G1 X44.052 Y31.745 F200.00
G1 X44.080 Y31.689 F200.00
G1 X44.159 Y31.637 F200.00
G1 X44.295 Y31.618 F200.00
G1 X44.295 Y31.618 F200.00
G1 X44.653 Y31.637 F200.00
G1 X44.833 Y31.681 F200.00
G1 X45.092 Y31.845 F200.00
G1 X45.359 Y32.096 F200.00
G1 X45.641 Y32.450 F200.00
G1 X45.841 Y32.789 F200.00
G1 X45.996 Y33.139 F200.00
G1 X46.088 Y33.418 F200.00
G1 X46.163 Y33.705 F200.00
G1 X46.235 Y34.092 F200.00
G1 X46.267 Y34.482 F200.00
G1 X46.275 Y34.849 F200.00
G1 X46.235 Y35.239 F200.00
G1 X46.179 Y35.554 F200.00
G1 X46.076 Y35.900 F200.00
G1 X45.948 Y36.179 F200.00
G1 X45.765 Y36.434 F200.00
G1 X45.677 Y36.526 F200.00
G1 X45.622 Y36.562 F200.00
G1 X45.562 Y36.586 F200.00
G1 X45.116 Y36.586 F200.00
G1 X45.116 Y36.586 F200.00
G1 X44.980 Y36.558 F200.00
G1 X44.896 Y36.502 F200.00
G0 X44.880 Y36.478
G0 X44.849 Y36.363
G0 X44.502 Y31.904
G1 X44.498 Y31.861 F200.00
G1 X44.498 Y31.745 F200.00
G1 X44.526 Y31.689 F200.00
G1 X44.606 Y31.637 F200.00
G1 X44.741 Y31.618 F200.00
G1 X44.741 Y31.618 F200.00
G1 X45.159 Y31.641 F200.00
G1 X45.335 Y31.689 F200.00
G1 X45.633 Y31.896 F200.00
G1 X45.809 Y32.064 F200.00
G1 X46.124 Y32.470 F200.00
G1 X46.323 Y32.809 F200.00
G1 X46.474 Y33.155 F200.00
G1 X46.562 Y33.430 F200.00
G1 X46.637 Y33.709 F200.00
G1 X46.705 Y34.096 F200.00
G1 X46.745 Y34.486 F200.00
G1 X46.753 Y34.876 F200.00
G1 X46.705 Y35.267 F200.00
G1 X46.653 Y35.542 F200.00
G1 X46.554 Y35.888 F200.00
G1 X46.410 Y36.203 F200.00
G1 X46.215 Y36.454 F200.00
G1 X46.124 Y36.542 F200.00
G1 X46.064 Y36.570 F200.00
G1 X46.000 Y36.582 F200.00
G1 X45.618 Y36.586 F200.00
G1 X45.618 Y36.586 F200.00
G1 X45.482 Y36.558 F200.00
G1 X45.398 Y36.502 F200.00
G0 X45.382 Y36.478
G0 X45.351 Y36.363
G0 X45.004 Y31.904
G1 X45.004 Y31.861 F200.00
G1 X45.004 Y31.745 F200.00
G1 X45.032 Y31.689 F200.00
G1 X45.112 Y31.637 F200.00
G1 X45.247 Y31.618 F200.00
G1 X45.247 Y31.618 F200.00
G1 X45.606 Y31.633 F200.00
G1 X45.785 Y31.677 F200.00
G1 X46.040 Y31.841 F200.00
G1 X46.343 Y32.135 F200.00
G1 X46.582 Y32.446 F200.00
G1 X46.781 Y32.785 F200.00
G1 X46.920 Y33.100 F200.00
G1 X47.012 Y33.371 F200.00
G1 X47.092 Y33.661 F200.00
G1 X47.167 Y34.044 F200.00
G1 X47.211 Y34.434 F200.00
G1 X47.215 Y34.825 F200.00
G1 X47.195 Y35.163 F200.00
G1 X47.120 Y35.550 F200.00
G1 X47.032 Y35.829 F200.00
G1 X46.924 Y36.100 F200.00
G1 X46.753 Y36.367 F200.00
G1 X46.582 Y36.550 F200.00
G1 X46.522 Y36.578 F200.00
G1 X46.076 Y36.582 F200.00
G1 X46.076 Y36.582 F200.00
G1 X45.940 Y36.554 F200.00
G1 X45.857 Y36.498 F200.00
G0 X45.841 Y36.474
G0 X45.809 Y36.359
G0 X45.454 Y31.904
G1 X45.450 Y31.861 F200.00
G1 X45.450 Y31.745 F200.00
G1 X45.478 Y31.689 F200.00
G1 X45.558 Y31.637 F200.00
G1 X45.693 Y31.618 F200.00
G1 X45.693 Y31.618 F200.00
G1 X45.992 Y31.622 F200.00
G1 X46.231 Y31.665 F200.00
G1 X46.339 Y31.713 F200.00
G1 X46.673 Y31.980 F200.00
G1 X46.837 Y32.159 F200.00
G1 X47.072 Y32.474 F200.00
G1 X47.263 Y32.817 F200.00
G1 X47.402 Y33.127 F200.00
G1 X47.502 Y33.422 F200.00
G1 X47.582 Y33.729 F200.00
G1 X47.653 Y34.116 F200.00
G1 X47.685 Y34.506 F200.00
G1 X47.689 Y34.873 F200.00
G1 X47.645 Y35.263 F200.00
G1 X47.590 Y35.570 F200.00
G1 X47.478 Y35.908 F200.00
G1 X47.367 Y36.163 F200.00
G1 X47.183 Y36.418 F200.00
G1 X47.048 Y36.550 F200.00
G1 X46.988 Y36.578 F200.00
G1 X46.542 Y36.582 F200.00
G1 X46.542 Y36.582 F200.00
G1 X46.406 Y36.554 F200.00
G1 X46.323 Y36.498 F200.00
G0 X46.307 Y36.474
G0 X46.279 Y36.359
G0 X45.952 Y31.904
G1 X45.952 Y31.861 F200.00
G1 X45.952 Y31.745 F200.00
G1 X45.984 Y31.689 F200.00
G1 X46.064 Y31.637 F200.00
G1 X46.199 Y31.618 F200.00
G1 X46.199 Y31.618 F200.00
G1 X46.558 Y31.633 F200.00
G1 X46.737 Y31.677 F200.00
G1 X46.944 Y31.805 F200.00
G1 X47.295 Y32.143 F200.00
G1 X47.530 Y32.454 F200.00
G1 X47.729 Y32.793 F200.00
G1 X47.869 Y33.116 F200.00
G1 X47.968 Y33.378 F200.00
G1 X48.060 Y33.745 F200.00
G1 X48.120 Y34.072 F200.00
G1 X48.155 Y34.462 F200.00
G1 X48.155 Y34.825 F200.00
G1 X48.127 Y35.187 F200.00
G1 X48.064 Y35.558 F200.00
G1 X47.952 Y35.908 F200.00
G1 X47.829 Y36.171 F200.00
G1 X47.649 Y36.426 F200.00
G1 X47.562 Y36.518 F200.00
G1 X47.510 Y36.554 F200.00
G1 X47.450 Y36.578 F200.00
G1 X47.068 Y36.582 F200.00
G1 X47.068 Y36.582 F200.00
G1 X46.932 Y36.554 F200.00
G1 X46.849 Y36.498 F200.00
G0 X46.833 Y36.474
G0 X46.801 Y36.359
G0 X46.462 Y31.904
G1 X46.462 Y31.861 F200.00
G1 X46.462 Y31.745 F200.00
G1 X46.490 Y31.689 F200.00
G1 X46.570 Y31.637 F200.00
G1 X46.705 Y31.618 F200.00
G1 X46.705 Y31.618 F200.00
G1 X47.064 Y31.641 F200.00
G1 X47.239 Y31.701 F200.00
G1 X47.538 Y31.916 F200.00
G1 X47.753 Y32.127 F200.00
G1 X47.992 Y32.438 F200.00
G1 X48.191 Y32.777 F200.00
G1 X48.331 Y33.080 F200.00
G1 X48.426 Y33.359 F200.00
G1 X48.510 Y33.653 F200.00
G1 X48.586 Y34.040 F200.00
G1 X48.625 Y34.430 F200.00
G1 X48.637 Y34.801 F200.00
G1 X48.598 Y35.191 F200.00
G1 X48.546 Y35.494 F200.00
G1 X48.454 Y35.841 F200.00
G1 X48.311 Y36.159 F200.00
G1 X48.080 Y36.458 F200.00
G1 X47.988 Y36.546 F200.00
G1 X47.928 Y36.574 F200.00
G1 X47.482 Y36.582 F200.00
G1 X47.482 Y36.582 F200.00
G1 X47.347 Y36.554 F200.00
G1 X47.263 Y36.498 F200.00
G0 X47.247 Y36.474
G0 X47.219 Y36.359
G0 X46.904 Y31.904
G1 X46.904 Y31.861 F200.00
G1 X46.904 Y31.745 F200.00
G1 X46.936 Y31.689 F200.00
G1 X47.016 Y31.637 F200.00
G1 X47.151 Y31.618 F200.00
G1 X47.151 Y31.618 F200.00
G1 X47.510 Y31.637 F200.00
G1 X47.689 Y31.685 F200.00
G1 X47.896 Y31.817 F200.00
G1 X48.243 Y32.151 F200.00
G1 X48.478 Y32.462 F200.00
G1 X48.677 Y32.801 F200.00
G1 X48.817 Y33.116 F200.00
G1 X48.908 Y33.394 F200.00
G1 X48.988 Y33.689 F200.00
G1 X49.060 Y34.072 F200.00
G1 X49.092 Y34.462 F200.00
G1 X49.096 Y34.825 F200.00
G1 X49.068 Y35.211 F200.00
G1 X48.988 Y35.594 F200.00
G1 X48.896 Y35.880 F200.00
G1 X48.789 Y36.135 F200.00
G1 X48.566 Y36.442 F200.00
G1 X48.474 Y36.534 F200.00
G1 X48.359 Y36.582 F200.00
G1 X47.976 Y36.582 F200.00
G1 X47.976 Y36.582 F200.00
G1 X47.841 Y36.554 F200.00
G1 X47.757 Y36.498 F200.00
G0 X47.741 Y36.474
G0 X47.709 Y36.359
G0 X47.355 Y31.904
G1 X47.351 Y31.861 F200.00
G1 X47.351 Y31.745 F200.00
G1 X47.378 Y31.689 F200.00
G1 X47.458 Y31.637 F200.00
G1 X47.594 Y31.618 F200.00
G1 X47.594 Y31.618 F200.00
G1 X47.833 Y31.618 F200.00
G1 X48.072 Y31.661 F200.00
G1 X48.187 Y31.705 F200.00
G1 X48.574 Y32.004 F200.00
G1 X48.701 Y32.135 F200.00
G1 X48.940 Y32.446 F200.00
G1 X49.139 Y32.785 F200.00
G1 X49.271 Y33.080 F200.00
G1 X49.371 Y33.347 F200.00
G1 X49.462 Y33.689 F200.00
G1 X49.526 Y34.052 F200.00
G1 X49.562 Y34.422 F200.00
G1 X49.566 Y34.785 F200.00
G1 X49.538 Y35.151 F200.00
G1 X49.478 Y35.514 F200.00
G1 X49.371 Y35.869 F200.00
G1 X49.223 Y36.183 F200.00
G1 X49.040 Y36.438 F200.00
G1 X48.952 Y36.530 F200.00
G1 X48.896 Y36.562 F200.00
G1 X48.837 Y36.582 F200.00
G1 X48.454 Y36.582 F200.00
G1 X48.454 Y36.582 F200.00
G1 X48.319 Y36.554 F200.00
G1 X48.235 Y36.498 F200.00
G0 X48.219 Y36.474
G0 X48.187 Y36.359
G0 X47.801 Y31.904
G1 X47.797 Y31.861 F200.00
G1 X47.797 Y31.745 F200.00
G1 X47.825 Y31.689 F200.00
G1 X47.904 Y31.637 F200.00
G1 X48.040 Y31.618 F200.00
G1 X48.040 Y31.618 F200.00
G1 X48.339 Y31.622 F200.00
G1 X48.578 Y31.665 F200.00
G1 X48.693 Y31.709 F200.00
G1 X48.980 Y31.932 F200.00
G1 X49.191 Y32.155 F200.00
G1 X49.430 Y32.466 F200.00
G1 X49.625 Y32.805 F200.00
G1 X49.769 Y33.135 F200.00
G1 X49.861 Y33.414 F200.00
G1 X49.936 Y33.697 F200.00
G1 X50.004 Y34.084 F200.00
G1 X50.032 Y34.474 F200.00
G1 X50.032 Y34.829 F200.00
G1 X50.000 Y35.211 F200.00
G1 X49.932 Y35.586 F200.00
G1 X49.813 Y35.940 F200.00
G1 X49.665 Y36.239 F200.00
G1 X49.470 Y36.486 F200.00
G1 X49.422 Y36.530 F200.00
G1 X49.367 Y36.562 F200.00
G1 X49.307 Y36.582 F200.00
G1 X48.924 Y36.582 F200.00
G1 X48.924 Y36.582 F200.00
G1 X48.789 Y36.554 F200.00
G1 X48.705 Y36.498 F200.00
G0 X48.689 Y36.474
G0 X48.657 Y36.359
G0 X48.307 Y31.904
G1 X48.303 Y31.861 F200.00
G1 X48.303 Y31.745 F200.00
G1 X48.331 Y31.689 F200.00
G1 X48.410 Y31.637 F200.00
G1 X48.546 Y31.618 F200.00
G1 X48.546 Y31.618 F200.00
G1 X48.904 Y31.633 F200.00
G1 X49.084 Y31.677 F200.00
G1 X49.295 Y31.801 F200.00
G1 X49.645 Y32.135 F200.00
G1 X49.884 Y32.446 F200.00
G1 X50.084 Y32.785 F200.00
G1 X50.223 Y33.096 F200.00
G1 X50.315 Y33.371 F200.00
G1 X50.390 Y33.657 F200.00
G1 X50.462 Y34.040 F200.00
G1 X50.502 Y34.430 F200.00
G1 X50.514 Y34.821 F200.00
G1 X50.478 Y35.211 F200.00
G1 X50.410 Y35.526 F200.00
G1 X50.335 Y35.789 F200.00
G1 X50.215 Y36.092 F200.00
G1 X49.960 Y36.450 F200.00
G1 X49.865 Y36.538 F200.00
G1 X49.809 Y36.566 F200.00
G1 X49.745 Y36.582 F200.00
G1 X49.363 Y36.582 F200.00
G1 X49.363 Y36.582 F200.00
G1 X49.227 Y36.554 F200.00
G1 X49.143 Y36.498 F200.00
G0 X49.127 Y36.474
G0 X49.096 Y36.359
G0 X48.749 Y31.904
G1 X48.745 Y31.861 F200.00
G1 X48.745 Y31.745 F200.00
G1 X48.773 Y31.689 F200.00
G1 X48.853 Y31.637 F200.00
G1 X48.988 Y31.618 F200.00
G1 X48.988 Y31.618 F200.00
G1 X49.287 Y31.622 F200.00
G1 X49.526 Y31.665 F200.00
G1 X49.637 Y31.709 F200.00
G1 X49.968 Y31.976 F200.00
G1 X50.135 Y32.155 F200.00
G1 X50.375 Y32.466 F200.00
G1 X50.566 Y32.809 F200.00
G1 X50.697 Y33.112 F200.00
G1 X50.785 Y33.382 F200.00
G1 X50.865 Y33.677 F200.00
G1 X50.936 Y34.064 F200.00
G1 X50.972 Y34.454 F200.00
G1 X50.972 Y34.837 F200.00
G1 X50.948 Y35.175 F200.00
G1 X50.884 Y35.558 F200.00
G1 X50.769 Y35.912 F200.00
G1 X50.618 Y36.211 F200.00
G1 X50.422 Y36.462 F200.00
G1 X50.331 Y36.550 F200.00
G1 X50.271 Y36.578 F200.00
G1 X49.825 Y36.582 F200.00
G1 X49.825 Y36.582 F200.00
G1 X49.689 Y36.554 F200.00
G1 X49.606 Y36.498 F200.00
G0 X49.590 Y36.474
G0 X49.562 Y36.359
G0 X49.251 Y31.904
G1 X49.251 Y31.861 F200.00
G1 X49.251 Y31.745 F200.00
G1 X49.283 Y31.689 F200.00
G1 X49.363 Y31.637 F200.00
G1 X49.498 Y31.618 F200.00
G1 X49.498 Y31.618 F200.00
G1 X49.857 Y31.633 F200.00
G1 X50.036 Y31.681 F200.00
G1 X50.243 Y31.809 F200.00
G1 X50.558 Y32.104 F200.00
G1 X50.829 Y32.466 F200.00
G1 X51.024 Y32.805 F200.00
G1 X51.171 Y33.143 F200.00
G1 X51.263 Y33.434 F200.00
G1 X51.339 Y33.725 F200.00
G1 X51.410 Y34.112 F200.00
G1 X51.442 Y34.502 F200.00
G1 X51.446 Y34.873 F200.00
G1 X51.406 Y35.263 F200.00
G1 X51.335 Y35.582 F200.00
G1 X51.251 Y35.869 F200.00
G1 X51.120 Y36.179 F200.00
G1 X50.972 Y36.382 F200.00
G1 X50.841 Y36.522 F200.00
G1 X50.785 Y36.558 F200.00
G1 X50.725 Y36.582 F200.00
G1 X50.279 Y36.582 F200.00
G1 X50.279 Y36.582 F200.00
G1 X50.143 Y36.554 F200.00
G1 X50.060 Y36.498 F200.00
G0 X50.044 Y36.474
G0 X50.016 Y36.359
G0 X49.693 Y31.904
G1 X49.693 Y31.861 F200.00
G1 X49.693 Y31.745 F200.00
G1 X49.725 Y31.689 F200.00
G1 X49.805 Y31.637 F200.00
G1 X49.940 Y31.618 F200.00
G1 X49.940 Y31.618 F200.00
G1 X50.239 Y31.622 F200.00
G1 X50.478 Y31.669 F200.00
G1 X50.737 Y31.833 F200.00
G1 X51.004 Y32.084 F200.00
G1 X51.287 Y32.438 F200.00
G1 X51.482 Y32.777 F200.00
G1 X51.622 Y33.088 F200.00
G1 X51.713 Y33.363 F200.00
G1 X51.789 Y33.649 F200.00
G1 X51.865 Y34.036 F200.00
G1 X51.908 Y34.426 F200.00
G1 X51.912 Y34.817 F200.00
G1 X51.892 Y35.159 F200.00
G1 X51.821 Y35.546 F200.00
G1 X51.741 Y35.837 F200.00
G1 X51.602 Y36.151 F200.00
G1 X51.418 Y36.406 F200.00
G1 X51.283 Y36.542 F200.00
G1 X51.227 Y36.570 F200.00
G1 X51.163 Y36.582 F200.00
G1 X50.781 Y36.582 F200.00
G1 X50.781 Y36.582 F200.00
G1 X50.645 Y36.554 F200.00
G1 X50.562 Y36.498 F200.00
G0 X50.546 Y36.474
G0 X50.518 Y36.359
G0 X50.203 Y31.904
G1 X50.203 Y31.861 F200.00
G1 X50.203 Y31.745 F200.00
G1 X50.235 Y31.689 F200.00
G1 X50.315 Y31.637 F200.00
G1 X50.450 Y31.618 F200.00
G1 X50.450 Y31.618 F200.00
G1 X50.809 Y31.637 F200.00
G1 X50.988 Y31.685 F200.00
G1 X51.195 Y31.813 F200.00
G1 X51.502 Y32.108 F200.00
G1 X51.777 Y32.470 F200.00
G1 X51.968 Y32.813 F200.00
G1 X52.108 Y33.127 F200.00
G1 X52.203 Y33.426 F200.00
G1 X52.279 Y33.721 F200.00
G1 X52.351 Y34.108 F200.00
G1 X52.382 Y34.498 F200.00
G1 X52.386 Y34.865 F200.00
G1 X52.359 Y35.255 F200.00
G1 X52.271 Y35.637 F200.00
G1 X52.179 Y35.896 F200.00
G1 X51.976 Y36.287 F200.00
G1 X51.813 Y36.486 F200.00
G1 X51.765 Y36.530 F200.00
G1 X51.709 Y36.562 F200.00
G1 X51.649 Y36.582 F200.00
G1 X51.267 Y36.582 F200.00
G1 X51.267 Y36.582 F200.00
G1 X51.131 Y36.554 F200.00
G1 X51.048 Y36.498 F200.00
G0 X51.032 Y36.474
G0 X51.000 Y36.359
G0 X50.653 Y31.904
G1 X50.649 Y31.861 F200.00
G1 X50.649 Y31.745 F200.00
G1 X50.677 Y31.689 F200.00
G1 X50.757 Y31.637 F200.00
G1 X50.892 Y31.618 F200.00
G1 X50.892 Y31.618 F200.00
G1 X51.191 Y31.622 F200.00
G1 X51.371 Y31.657 F200.00
G1 X51.486 Y31.701 F200.00
G1 X51.821 Y31.960 F200.00
G1 X51.988 Y32.135 F200.00
G1 X52.227 Y32.446 F200.00
G1 X52.422 Y32.785 F200.00
G1 X52.562 Y33.104 F200.00
G1 X52.653 Y33.375 F200.00
G1 X52.733 Y33.673 F200.00
G1 X52.809 Y34.060 F200.00
G1 X52.849 Y34.450 F200.00
G1 X52.861 Y34.833 F200.00
G1 X52.825 Y35.223 F200.00
G1 X52.757 Y35.538 F200.00
G1 X52.681 Y35.801 F200.00
G1 X52.554 Y36.100 F200.00
G1 X52.335 Y36.406 F200.00
G1 X52.199 Y36.542 F200.00
G1 X52.139 Y36.570 F200.00
G1 X52.076 Y36.582 F200.00
G1 X51.693 Y36.582 F200.00
G1 X51.693 Y36.582 F200.00
G1 X51.558 Y36.554 F200.00
G1 X51.474 Y36.498 F200.00
G0 X51.458 Y36.474
G0 X51.430 Y36.359
G0 X51.151 Y31.904
G1 X51.151 Y31.861 F200.00
G1 X51.151 Y31.745 F200.00
G1 X51.183 Y31.689 F200.00
G1 X51.263 Y31.637 F200.00
G1 X51.398 Y31.618 F200.00
G1 X51.398 Y31.618 F200.00
G1 X51.757 Y31.641 F200.00
G1 X51.932 Y31.701 F200.00
G1 X52.227 Y31.912 F200.00
G1 X52.482 Y32.167 F200.00
G1 X52.717 Y32.482 F200.00
G1 X52.980 Y32.992 F200.00
G1 X53.163 Y33.586 F200.00
G1 X53.271 Y34.183 F200.00
G1 X53.267 Y35.139 F200.00
G1 X53.159 Y35.677 F200.00
G1 X52.992 Y36.084 F200.00
G1 X52.817 Y36.351 F200.00
G1 X52.649 Y36.538 F200.00
G1 X52.594 Y36.566 F200.00
G1 X52.530 Y36.582 F200.00
G1 X52.211 Y36.582 F200.00
G1 X52.211 Y36.582 F200.00
G1 X52.076 Y36.554 F200.00
G1 X51.992 Y36.498 F200.00
G0 X51.976 Y36.474
G0 X51.944 Y36.359
G0 X51.602 Y31.904
G1 X51.602 Y31.861 F200.00
G1 X51.602 Y31.745 F200.00
G1 X51.629 Y31.689 F200.00
G1 X51.709 Y31.637 F200.00
G1 X51.845 Y31.618 F200.00
G1 X51.845 Y31.618 F200.00
G1 X52.203 Y31.633 F200.00
G1 X52.382 Y31.677 F200.00
G1 X52.590 Y31.805 F200.00
G1 X52.900 Y32.100 F200.00
G1 X53.092 Y32.339 F200.00
G1 X53.307 Y32.709 F200.00
G1 X53.367 Y32.884 F200.00
G1 X53.371 Y35.813 F200.00
G1 X53.323 Y36.052 F200.00
G1 X53.227 Y36.283 F200.00
G1 X53.084 Y36.490 F200.00
G1 X53.040 Y36.538 F200.00
G1 X52.984 Y36.570 F200.00
G1 X52.920 Y36.582 F200.00
G1 X52.602 Y36.582 F200.00
G1 X52.602 Y36.582 F200.00
G1 X52.466 Y36.554 F200.00
G1 X52.382 Y36.498 F200.00
G0 X52.367 Y36.474
G0 X52.339 Y36.359
G0 X52.104 Y31.904
G1 X52.104 Y31.861 F200.00
G1 X52.104 Y31.745 F200.00
G1 X52.135 Y31.689 F200.00
G1 X52.215 Y31.637 F200.00
G1 X52.351 Y31.618 F200.00
G1 X52.351 Y31.618 F200.00
G1 X52.709 Y31.637 F200.00
G1 X52.829 Y31.665 F200.00
G1 X52.936 Y31.717 F200.00
G1 X53.263 Y31.992 F200.00
G1 X53.343 Y32.084 F200.00
G1 X53.382 Y32.199 F200.00
G1 X53.382 Y32.438 F200.00
G1 X53.382 Y32.438 F200.00
G1 X53.355 Y32.562 F200.00
G1 X53.323 Y32.614 F200.00
G1 X53.303 Y32.629 F200.00
G0 X53.287 Y32.633
G0 X53.207 Y32.570
G0 X52.657 Y31.849
G1 X52.633 Y31.821 F200.00
G1 X52.582 Y31.733 F200.00
G1 X52.582 Y31.709 F200.00
G1 X52.610 Y31.665 F200.00
G1 X52.729 Y31.622 F200.00
G1 X52.797 Y31.618 F200.00
G1 X52.797 Y31.618 F200.00
G1 X53.155 Y31.637 F200.00
G1 X53.271 Y31.673 F200.00
G1 X53.327 Y31.701 F200.00
G1 X53.371 Y31.745 F200.00
G1 X53.382 Y31.805 F200.00
G1 X53.382 Y31.805 F200.00
G1 X53.375 Y31.821 F200.00
G0 X53.367 Y31.829
G1 X53.355 Y31.825 F200.00
G1 X53.223 Y31.677 F200.00
G1 X53.215 Y31.637 F200.00
G1 X53.239 Y31.618 F200.00
G1 X53.239 Y31.618 F200.00
G1 X53.299 Y31.618 F200.00
G1 X53.351 Y31.649 F200.00
G1 X53.382 Y31.701 F200.00
G1 X53.382 Y31.701 F200.00
G1 X53.347 Y31.920 F200.00
G0 X53.331 Y31.948
G0 X53.004 Y32.303
G0 X52.988 Y33.179
G0 X52.984 Y35.251
G0 X53.167 Y35.550
G1 X53.187 Y35.574 F200.00
G1 X53.339 Y35.793 F200.00
G1 X53.382 Y35.960 F200.00
G1 X53.382 Y35.960 F200.00
G1 X53.378 Y36.259 F200.00
G1 X53.343 Y36.438 F200.00
G1 X53.319 Y36.498 F200.00
G1 X53.279 Y36.550 F200.00
G1 X53.219 Y36.578 F200.00
G1 X53.028 Y36.582 F200.00
G1 X53.028 Y36.582 F200.00
G1 X52.944 Y36.562 F200.00
G0 X52.936 Y36.554
G0 X53.195 Y36.367
G1 X53.219 Y36.351 F200.00
G1 X53.303 Y36.303 F200.00
G1 X53.343 Y36.303 F200.00
G1 X53.367 Y36.343 F200.00
G1 X53.382 Y36.402 F200.00
G1 X53.382 Y36.402 F200.00
G1 X53.382 Y36.462 F200.00
G1 X53.367 Y36.522 F200.00
G1 X53.323 Y36.566 F200.00
G1 X53.259 Y36.582 F200.00
G1 X53.259 Y36.582 F200.00
G1 X53.124 Y36.554 F200.00
G1 X53.032 Y36.506 F200.00
G0 X53.000 Y36.490
G0 X52.522 Y36.263
G0 X50.801 Y36.171
G0 X48.737 Y36.251
G0 X38.104 Y36.179
G0 X37.474 Y36.382
G0 X37.068 Y36.610
G0 X36.884 Y36.996
G1 X36.873 Y37.024 F200.00
G1 X36.769 Y37.442 F200.00
G1 X36.769 Y37.442 F200.00
G1 X36.602 Y37.785 F200.00
G1 X36.526 Y37.888 F200.00
G1 X36.335 Y38.056 F200.00
G1 X36.060 Y38.227 F200.00
G1 X35.713 Y38.414 F200.00
G1 X35.339 Y38.542 F200.00
G1 X35.052 Y38.598 F200.00
G1 X34.821 Y38.622 F200.00
G1 X34.554 Y38.629 F200.00
G1 X34.191 Y38.614 F200.00
G1 X33.801 Y38.550 F200.00
G1 X33.474 Y38.462 F200.00
G1 X33.183 Y38.359 F200.00
G1 X32.873 Y38.211 F200.00
G1 X32.590 Y38.040 F200.00
G1 X32.323 Y37.845 F200.00
G1 X31.924 Y37.486 F200.00
G1 X31.669 Y37.179 F200.00
G1 X31.637 Y37.120 F200.00
G1 X31.618 Y37.056 F200.00
G1 X31.618 Y36.928 F200.00
G1 X31.618 Y36.928 F200.00
G1 X31.637 Y36.793 F200.00
G1 X31.665 Y36.733 F200.00
G1 X31.685 Y36.713 F200.00
G0 X31.709 Y36.697
G0 X31.825 Y36.693
G0 X36.375 Y37.490
G1 X36.418 Y37.498 F200.00
G1 X36.550 Y37.530 F200.00
G1 X36.594 Y37.570 F200.00
G1 X36.629 Y37.661 F200.00
G1 X36.633 Y37.797 F200.00
G1 X36.633 Y37.797 F200.00
G1 X36.542 Y38.096 F200.00
G1 X36.474 Y38.203 F200.00
G1 X36.199 Y38.466 F200.00
G1 X36.040 Y38.578 F200.00
G1 X35.705 Y38.789 F200.00
G1 X35.335 Y38.928 F200.00
G1 X35.076 Y38.988 F200.00
G1 X34.853 Y39.028 F200.00
G1 X34.534 Y39.048 F200.00
G1 X34.203 Y39.044 F200.00
G1 X33.849 Y39.004 F200.00
G1 X33.518 Y38.936 F200.00
G1 X33.191 Y38.837 F200.00
G1 X32.873 Y38.705 F200.00
G1 X32.566 Y38.558 F200.00
G1 X32.227 Y38.351 F200.00
G1 X31.932 Y38.135 F200.00
G1 X31.657 Y37.845 F200.00
G1 X31.629 Y37.785 F200.00
G1 X31.618 Y37.721 F200.00
G1 X31.618 Y37.721 F200.00
G1 X31.637 Y37.586 F200.00
G1 X31.685 Y37.502 F200.00
G0 X31.709 Y37.490
G0 X31.825 Y37.474
G0 X36.299 Y37.773
G1 X36.343 Y37.773 F200.00
G1 X36.474 Y37.793 F200.00
G1 X36.526 Y37.829 F200.00
G1 X36.574 Y37.912 F200.00
G1 X36.594 Y38.048 F200.00
G1 X36.594 Y38.048 F200.00
G1 X36.562 Y38.287 F200.00
G1 X36.526 Y38.406 F200.00
G1 X36.382 Y38.614 F200.00
G1 X36.151 Y38.837 F200.00
G1 X35.729 Y39.143 F200.00
G1 X35.367 Y39.303 F200.00
G1 X34.904 Y39.422 F200.00
G1 X34.586 Y39.462 F200.00
G1 X34.239 Y39.474 F200.00
G1 X33.896 Y39.454 F200.00
G1 X33.562 Y39.406 F200.00
G1 X33.227 Y39.323 F200.00
G1 X32.904 Y39.211 F200.00
G1 X32.590 Y39.084 F200.00
G1 X32.235 Y38.904 F200.00
G1 X31.904 Y38.685 F200.00
G1 X31.709 Y38.506 F200.00
G1 X31.665 Y38.454 F200.00
G1 X31.633 Y38.398 F200.00
G1 X31.618 Y38.335 F200.00
G1 X31.618 Y38.271 F200.00
G1 X31.618 Y38.271 F200.00
G1 X31.637 Y38.135 F200.00
G1 X31.685 Y38.052 F200.00
G0 X31.709 Y38.036
G0 X31.829 Y38.016
G0 X36.271 Y38.100
G1 X36.315 Y38.100 F200.00
G1 X36.450 Y38.116 F200.00
G1 X36.498 Y38.147 F200.00
G1 X36.554 Y38.227 F200.00
G1 X36.582 Y38.363 F200.00
G1 X36.582 Y38.363 F200.00
G1 X36.570 Y38.542 F200.00
G1 X36.522 Y38.721 F200.00
G1 X36.394 Y38.932 F200.00
G1 X36.227 Y39.124 F200.00
G1 X36.032 Y39.291 F200.00
G1 X35.713 Y39.522 F200.00
G1 X35.359 Y39.693 F200.00
G1 X35.104 Y39.777 F200.00
G1 X34.876 Y39.825 F200.00
G1 X34.629 Y39.865 F200.00
G1 X34.235 Y39.896 F200.00
G1 X33.841 Y39.888 F200.00
G1 X33.466 Y39.837 F200.00
G1 X33.175 Y39.777 F200.00
G1 X32.829 Y39.677 F200.00
G1 X32.458 Y39.538 F200.00
G1 X32.044 Y39.335 F200.00
G1 X31.725 Y39.088 F200.00
G1 X31.677 Y39.040 F200.00
G1 X31.641 Y38.984 F200.00
G1 X31.618 Y38.920 F200.00
G1 X31.618 Y38.920 F200.00
G1 X31.637 Y38.785 F200.00
G1 X31.685 Y38.701 F200.00
G0 X31.709 Y38.685
G0 X31.825 Y38.657
G0 X36.271 Y38.430
G1 X36.315 Y38.430 F200.00
G1 X36.450 Y38.434 F200.00
G1 X36.498 Y38.466 F200.00
G1 X36.554 Y38.546 F200.00
G1 X36.582 Y38.681 F200.00
G1 X36.582 Y38.681 F200.00
G1 X36.570 Y38.920 F200.00
G1 X36.522 Y39.100 F200.00
G1 X36.347 Y39.363 F200.00
G1 X36.072 Y39.633 F200.00
G1 X35.769 Y39.884 F200.00
G1 X35.418 Y40.068 F200.00
G1 X35.187 Y40.155 F200.00
G1 X34.976 Y40.219 F200.00
G1 X34.673 Y40.279 F200.00
G1 X34.319 Y40.319 F200.00
G1 X33.952 Y40.327 F200.00
G1 X33.610 Y40.311 F200.00
G1 X33.215 Y40.255 F200.00
G1 X32.857 Y40.171 F200.00
G1 X32.506 Y40.060 F200.00
G1 X32.155 Y39.912 F200.00
G1 X31.837 Y39.721 F200.00
G1 X31.685 Y39.594 F200.00
G1 X31.645 Y39.542 F200.00
G1 X31.618 Y39.482 F200.00
G1 X31.618 Y39.482 F200.00
G1 X31.637 Y39.347 F200.00
G1 X31.685 Y39.263 F200.00
G0 X31.709 Y39.247
G0 X31.825 Y39.215
G0 X36.271 Y38.821
G1 X36.315 Y38.817 F200.00
G1 X36.450 Y38.817 F200.00
G1 X36.498 Y38.845 F200.00
G1 X36.554 Y38.924 F200.00
G1 X36.582 Y39.060 F200.00
G1 X36.582 Y39.060 F200.00
G1 X36.566 Y39.299 F200.00
G1 X36.518 Y39.478 F200.00
G1 X36.390 Y39.693 F200.00
G1 X36.179 Y39.932 F200.00
G1 X36.036 Y40.060 F200.00
G1 X35.725 Y40.303 F200.00
G1 X35.378 Y40.490 F200.00
G1 X35.120 Y40.586 F200.00
G1 X34.888 Y40.649 F200.00
G1 X34.618 Y40.709 F200.00
G1 X34.235 Y40.761 F200.00
G1 X33.841 Y40.773 F200.00
G1 X33.494 Y40.757 F200.00
G1 X33.116 Y40.709 F200.00
G1 X32.745 Y40.625 F200.00
G1 X32.390 Y40.518 F200.00
G1 X32.048 Y40.363 F200.00
G1 X31.769 Y40.179 F200.00
G1 X31.669 Y40.092 F200.00
G1 X31.633 Y40.036 F200.00
G1 X31.618 Y39.972 F200.00
G1 X31.618 Y39.972 F200.00
G1 X31.637 Y39.837 F200.00
G1 X31.685 Y39.753 F200.00
G0 X31.709 Y39.733
G0 X31.825 Y39.701
G0 X36.271 Y39.143
G1 X36.315 Y39.139 F200.00
G1 X36.450 Y39.135 F200.00
G1 X36.498 Y39.163 F200.00
G1 X36.554 Y39.243 F200.00
G1 X36.582 Y39.378 F200.00
G1 X36.582 Y39.378 F200.00
G1 X36.570 Y39.677 F200.00
G1 X36.522 Y39.857 F200.00
G1 X36.355 Y40.124 F200.00
G1 X36.092 Y40.398 F200.00
G1 X35.737 Y40.685 F200.00
G1 X35.394 Y40.880 F200.00
G1 X35.120 Y40.996 F200.00
G1 X34.876 Y41.072 F200.00
G1 X34.598 Y41.139 F200.00
G1 X34.235 Y41.199 F200.00
G1 X33.841 Y41.227 F200.00
G1 X33.454 Y41.223 F200.00
G1 X33.068 Y41.175 F200.00
G1 X32.757 Y41.116 F200.00
G1 X32.410 Y41.012 F200.00
G1 X32.084 Y40.880 F200.00
G1 X31.749 Y40.665 F200.00
G1 X31.649 Y40.578 F200.00
G1 X31.618 Y40.518 F200.00
G1 X31.618 Y40.518 F200.00
G1 X31.637 Y40.382 F200.00
G1 X31.685 Y40.299 F200.00
G0 X31.709 Y40.279
G0 X31.825 Y40.243
G0 X36.271 Y39.534
G1 X36.315 Y39.526 F200.00
G1 X36.450 Y39.514 F200.00
G1 X36.498 Y39.542 F200.00
G1 X36.554 Y39.622 F200.00
G1 X36.582 Y39.757 F200.00
G1 X36.582 Y39.757 F200.00
G1 X36.570 Y40.056 F200.00
G1 X36.526 Y40.235 F200.00
G1 X36.470 Y40.351 F200.00
G1 X36.195 Y40.697 F200.00
G1 X36.056 Y40.829 F200.00
G1 X35.753 Y41.080 F200.00
G1 X35.418 Y41.287 F200.00
G1 X35.116 Y41.426 F200.00
G1 X34.865 Y41.506 F200.00
G1 X34.618 Y41.570 F200.00
G1 X34.263 Y41.637 F200.00
G1 X33.869 Y41.677 F200.00
G1 X33.474 Y41.685 F200.00
G1 X33.080 Y41.645 F200.00
G1 X32.773 Y41.594 F200.00
G1 X32.414 Y41.498 F200.00
G1 X32.080 Y41.371 F200.00
G1 X31.693 Y41.116 F200.00
G1 X31.645 Y41.068 F200.00
G1 X31.618 Y41.008 F200.00
G1 X31.618 Y41.008 F200.00
G1 X31.637 Y40.873 F200.00
G1 X31.685 Y40.789 F200.00
G0 X31.709 Y40.769
G0 X31.825 Y40.729
G0 X36.271 Y39.980
G1 X36.315 Y39.972 F200.00
G1 X36.450 Y39.960 F200.00
G1 X36.498 Y39.988 F200.00
G1 X36.554 Y40.068 F200.00
G1 X36.582 Y40.203 F200.00
G1 X36.582 Y40.203 F200.00
G1 X36.570 Y40.442 F200.00
G1 X36.510 Y40.681 F200.00
G1 X36.382 Y40.892 F200.00
G1 X36.032 Y41.259 F200.00
G1 X35.733 Y41.518 F200.00
G1 X35.394 Y41.725 F200.00
G1 X35.143 Y41.841 F200.00
G1 X34.912 Y41.928 F200.00
G1 X34.602 Y42.016 F200.00
G1 X34.235 Y42.092 F200.00
G1 X33.841 Y42.135 F200.00
G1 X33.478 Y42.147 F200.00
G1 X33.100 Y42.127 F200.00
G1 X32.721 Y42.060 F200.00
G1 X32.418 Y41.984 F200.00
G1 X32.088 Y41.849 F200.00
G1 X31.853 Y41.717 F200.00
G1 X31.693 Y41.594 F200.00
G1 X31.645 Y41.546 F200.00
G1 X31.618 Y41.486 F200.00
G1 X31.618 Y41.486 F200.00
G1 X31.637 Y41.351 F200.00
G1 X31.685 Y41.267 F200.00
G0 X31.709 Y41.247
G0 X31.825 Y41.207
G0 X36.271 Y40.363
G1 X36.315 Y40.355 F200.00
G1 X36.450 Y40.343 F200.00
G1 X36.498 Y40.367 F200.00
G1 X36.554 Y40.446 F200.00
G1 X36.582 Y40.582 F200.00
G1 X36.582 Y40.582 F200.00
G1 X36.562 Y40.880 F200.00
G1 X36.514 Y41.060 F200.00
G1 X36.355 Y41.327 F200.00
G1 X36.104 Y41.614 F200.00
G1 X35.765 Y41.924 F200.00
G1 X35.434 Y42.139 F200.00
G1 X35.159 Y42.275 F200.00
G1 X34.916 Y42.367 F200.00
G1 X34.653 Y42.446 F200.00
G1 X34.271 Y42.534 F200.00
G1 X33.880 Y42.590 F200.00
G1 X33.486 Y42.602 F200.00
G1 X33.155 Y42.590 F200.00
G1 X32.777 Y42.542 F200.00
G1 X32.418 Y42.462 F200.00
G1 X32.080 Y42.331 F200.00
G1 X31.845 Y42.199 F200.00
G1 X31.685 Y42.076 F200.00
G1 X31.641 Y42.028 F200.00
G1 X31.618 Y41.968 F200.00
G1 X31.618 Y41.968 F200.00
G1 X31.637 Y41.833 F200.00
G1 X31.685 Y41.749 F200.00
G0 X31.709 Y41.729
G0 X31.825 Y41.685
G0 X36.275 Y40.749
G1 X36.319 Y40.741 F200.00
G1 X36.450 Y40.725 F200.00
G1 X36.502 Y40.749 F200.00
G1 X36.554 Y40.829 F200.00
G1 X36.582 Y40.964 F200.00
G1 X36.582 Y40.964 F200.00
G1 X36.562 Y41.323 F200.00
G1 X36.514 Y41.502 F200.00
G1 X36.458 Y41.614 F200.00
G1 X36.271 Y41.869 F200.00
G1 X36.048 Y42.096 F200.00
G1 X35.757 Y42.363 F200.00
G1 X35.426 Y42.578 F200.00
G1 X35.151 Y42.713 F200.00
G1 X34.908 Y42.809 F200.00
G1 X34.625 Y42.900 F200.00
G1 X34.239 Y42.992 F200.00
G1 X33.845 Y43.044 F200.00
G1 X33.482 Y43.068 F200.00
G1 X33.092 Y43.060 F200.00
G1 X32.709 Y43.000 F200.00
G1 X32.422 Y42.932 F200.00
G1 X32.120 Y42.829 F200.00
G1 X31.829 Y42.669 F200.00
G1 X31.673 Y42.546 F200.00
G1 X31.633 Y42.494 F200.00
G1 X31.618 Y42.430 F200.00
G1 X31.618 Y42.430 F200.00
G1 X31.637 Y42.295 F200.00
G1 X31.685 Y42.211 F200.00
G0 X31.709 Y42.191
G0 X31.825 Y42.147
G0 X36.275 Y41.191
G1 X36.319 Y41.183 F200.00
G1 X36.450 Y41.167 F200.00
G1 X36.502 Y41.191 F200.00
G1 X36.554 Y41.271 F200.00
G1 X36.582 Y41.406 F200.00
G1 X36.582 Y41.406 F200.00
G1 X36.570 Y41.705 F200.00
G1 X36.522 Y41.884 F200.00
G1 X36.402 Y42.108 F200.00
G1 X36.072 Y42.498 F200.00
G1 X35.785 Y42.769 F200.00
G1 X35.458 Y42.992 F200.00
G1 X35.187 Y43.135 F200.00
G1 X34.940 Y43.243 F200.00
G1 X34.649 Y43.339 F200.00
G1 X34.299 Y43.426 F200.00
G1 X33.908 Y43.494 F200.00
G1 X33.514 Y43.530 F200.00
G1 X33.124 Y43.518 F200.00
G1 X32.809 Y43.486 F200.00
G1 X32.450 Y43.402 F200.00
G1 X32.171 Y43.311 F200.00
G1 X31.876 Y43.175 F200.00
G1 X31.713 Y43.060 F200.00
G1 X31.665 Y43.016 F200.00
G1 X31.629 Y42.960 F200.00
G1 X31.618 Y42.896 F200.00
G1 X31.618 Y42.896 F200.00
G1 X31.637 Y42.761 F200.00
G1 X31.685 Y42.677 F200.00
G0 X31.709 Y42.657
G0 X31.825 Y42.614
G0 X36.275 Y41.578
G1 X36.319 Y41.566 F200.00
G1 X36.450 Y41.550 F200.00
G1 X36.502 Y41.574 F200.00
G1 X36.554 Y41.653 F200.00
G1 X36.582 Y41.789 F200.00
G1 X36.582 Y41.789 F200.00
G1 X36.574 Y42.088 F200.00
G1 X36.514 Y42.327 F200.00
G1 X36.359 Y42.598 F200.00
G1 X36.068 Y42.932 F200.00
G1 X35.785 Y43.207 F200.00
G1 X35.462 Y43.434 F200.00
G1 X35.179 Y43.586 F200.00
G1 X34.944 Y43.685 F200.00
G1 X34.665 Y43.781 F200.00
G1 X34.299 Y43.880 F200.00
G1 X33.908 Y43.944 F200.00
G1 X33.546 Y43.980 F200.00
G1 X33.155 Y43.980 F200.00
G1 X32.797 Y43.948 F200.00
G1 X32.434 Y43.865 F200.00
G1 X32.171 Y43.785 F200.00
G1 X31.876 Y43.641 F200.00
G1 X31.661 Y43.482 F200.00
G1 X31.625 Y43.426 F200.00
G1 X31.618 Y43.363 F200.00
G1 X31.618 Y43.363 F200.00
G1 X31.637 Y43.227 F200.00
G1 X31.685 Y43.143 F200.00
G0 X31.709 Y43.124
G0 X31.825 Y43.076
G0 X36.275 Y42.024
G1 X36.319 Y42.012 F200.00
G1 X36.450 Y41.992 F200.00
G1 X36.502 Y42.016 F200.00
G1 X36.554 Y42.100 F200.00
G1 X36.582 Y42.231 F200.00
G1 X36.582 Y42.231 F200.00
G1 X36.562 Y42.590 F200.00
G1 X36.514 Y42.769 F200.00
G1 X36.323 Y43.092 F200.00
G1 X36.072 Y43.378 F200.00
G1 X35.785 Y43.649 F200.00
G1 X35.462 Y43.876 F200.00
G1 X35.179 Y44.032 F200.00
G1 X34.932 Y44.135 F200.00
G1 X34.661 Y44.231 F200.00
G1 X34.299 Y44.335 F200.00
G1 X33.908 Y44.406 F200.00
G1 X33.514 Y44.450 F200.00
G1 X33.120 Y44.438 F200.00
G1 X32.841 Y44.414 F200.00
G1 X32.490 Y44.347 F200.00
G1 X32.163 Y44.247 F200.00
G1 X31.869 Y44.108 F200.00
G1 X31.705 Y43.992 F200.00
G1 X31.657 Y43.948 F200.00
G1 X31.622 Y43.892 F200.00
G1 X31.622 Y43.892 F200.00
G1 X31.641 Y43.757 F200.00
G1 X31.689 Y43.673 F200.00
G0 X31.713 Y43.653
G0 X31.829 Y43.606
G0 X36.275 Y42.470
G1 X36.319 Y42.458 F200.00
G1 X36.450 Y42.438 F200.00
G1 X36.502 Y42.462 F200.00
G1 X36.554 Y42.546 F200.00
G1 X36.582 Y42.677 F200.00
G1 X36.582 Y42.677 F200.00
G1 X36.562 Y43.036 F200.00
G1 X36.514 Y43.215 F200.00
G1 X36.359 Y43.486 F200.00
G1 X36.064 Y43.821 F200.00
G1 X35.785 Y44.100 F200.00
G1 X35.462 Y44.327 F200.00
G1 X35.187 Y44.478 F200.00
G1 X34.689 Y44.681 F200.00
G1 X34.311 Y44.793 F200.00
G1 X33.920 Y44.865 F200.00
G1 X33.546 Y44.904 F200.00
G1 X33.195 Y44.912 F200.00
G1 X32.809 Y44.873 F200.00
G1 X32.506 Y44.817 F200.00
G1 X32.175 Y44.713 F200.00
G1 X31.916 Y44.602 F200.00
G1 X31.697 Y44.450 F200.00
G1 X31.649 Y44.406 F200.00
G1 X31.618 Y44.351 F200.00
G1 X31.618 Y44.351 F200.00
G1 X31.637 Y44.215 F200.00
G1 X31.685 Y44.131 F200.00
G0 X31.709 Y44.112
G0 X31.825 Y44.064
G0 X36.275 Y42.912
G1 X36.319 Y42.900 F200.00
G1 X36.450 Y42.880 F200.00
G1 X36.502 Y42.904 F200.00
G1 X36.554 Y42.988 F200.00
G1 X36.582 Y43.120 F200.00
G1 X36.582 Y43.120 F200.00
G1 X36.562 Y43.478 F200.00
G1 X36.514 Y43.657 F200.00
G1 X36.323 Y43.980 F200.00
G1 X36.072 Y44.267 F200.00
G1 X35.785 Y44.538 F200.00
G1 X35.466 Y44.773 F200.00
G1 X35.163 Y44.944 F200.00
G1 X34.900 Y45.056 F200.00
G1 X34.649 Y45.147 F200.00
G1 X34.287 Y45.251 F200.00
G1 X33.896 Y45.327 F200.00
G1 X33.502 Y45.359 F200.00
G1 X33.175 Y45.367 F200.00
G1 X32.785 Y45.339 F200.00
G1 X32.414 Y45.263 F200.00
G1 X32.135 Y45.167 F200.00
G1 X31.896 Y45.052 F200.00
G1 X31.729 Y44.940 F200.00
G1 X31.677 Y44.896 F200.00
G1 X31.637 Y44.845 F200.00
G1 X31.618 Y44.781 F200.00
G1 X31.618 Y44.781 F200.00
G1 X31.637 Y44.645 F200.00
G1 X31.685 Y44.562 F200.00
G0 X31.709 Y44.542
G0 X31.825 Y44.494
G0 X36.275 Y43.359
G1 X36.319 Y43.347 F200.00
G1 X36.450 Y43.327 F200.00
G1 X36.502 Y43.351 F200.00
G1 X36.554 Y43.434 F200.00
G1 X36.582 Y43.566 F200.00
G1 X36.582 Y43.566 F200.00
G1 X36.562 Y43.924 F200.00
G1 X36.514 Y44.104 F200.00
G1 X36.359 Y44.375 F200.00
G1 X36.068 Y44.709 F200.00
G1 X35.789 Y44.988 F200.00
G1 X35.470 Y45.223 F200.00
G1 X35.175 Y45.390 F200.00
G1 X34.928 Y45.502 F200.00
G1 X34.665 Y45.602 F200.00
G1 X34.287 Y45.709 F200.00
G1 X33.896 Y45.785 F200.00
G1 X33.502 Y45.833 F200.00
G1 X33.108 Y45.825 F200.00
G1 X32.817 Y45.801 F200.00
G1 X32.466 Y45.737 F200.00
G1 X32.135 Y45.641 F200.00
G1 X31.841 Y45.498 F200.00
G1 X31.685 Y45.371 F200.00
G1 X31.641 Y45.319 F200.00
G1 X31.618 Y45.259 F200.00
G1 X31.618 Y45.259 F200.00
G1 X31.637 Y45.124 F200.00
G1 X31.685 Y45.040 F200.00
G0 X31.709 Y45.020
G0 X31.825 Y44.972
G0 X36.275 Y43.805
G1 X36.319 Y43.793 F200.00
G1 X36.450 Y43.769 F200.00
G1 X36.502 Y43.797 F200.00
G1 X36.554 Y43.876 F200.00
G1 X36.582 Y44.008 F200.00
G1 X36.582 Y44.008 F200.00
G1 X36.566 Y44.367 F200.00
G1 X36.518 Y44.546 F200.00
G1 X36.291 Y44.920 F200.00
G1 X36.036 Y45.199 F200.00
G1 X35.749 Y45.470 F200.00
G1 X35.426 Y45.701 F200.00
G1 X35.116 Y45.873 F200.00
G1 X34.853 Y45.984 F200.00
G1 X34.586 Y46.080 F200.00
G1 X34.203 Y46.187 F200.00
G1 X33.813 Y46.251 F200.00
G1 X33.458 Y46.287 F200.00
G1 X33.068 Y46.279 F200.00
G1 X32.745 Y46.247 F200.00
G1 X32.394 Y46.183 F200.00
G1 X32.056 Y46.068 F200.00
G1 X31.825 Y45.940 F200.00
G1 X31.665 Y45.817 F200.00
G1 X31.629 Y45.761 F200.00
G1 X31.618 Y45.697 F200.00
G1 X31.618 Y45.697 F200.00
G1 X31.637 Y45.562 F200.00
G1 X31.685 Y45.478 F200.00
G0 X31.709 Y45.458
G0 X31.825 Y45.410
G0 X36.275 Y44.251
G1 X36.319 Y44.239 F200.00
G1 X36.450 Y44.215 F200.00
G1 X36.502 Y44.243 F200.00
G1 X36.554 Y44.323 F200.00
G1 X36.582 Y44.454 F200.00
G1 X36.582 Y44.454 F200.00
G1 X36.562 Y44.813 F200.00
G1 X36.514 Y44.992 F200.00
G1 X36.394 Y45.215 F200.00
G1 X36.116 Y45.566 F200.00
G1 X35.797 Y45.892 F200.00
G1 X35.478 Y46.127 F200.00
G1 X35.199 Y46.287 F200.00
G1 X34.952 Y46.402 F200.00
G1 X34.669 Y46.506 F200.00
G1 X34.319 Y46.614 F200.00
G1 X33.928 Y46.689 F200.00
G1 X33.566 Y46.733 F200.00
G1 X33.175 Y46.753 F200.00
G1 X32.781 Y46.721 F200.00
G1 X32.470 Y46.657 F200.00
G1 X32.199 Y46.582 F200.00
G1 X31.900 Y46.458 F200.00
G1 X31.681 Y46.299 F200.00
G1 X31.641 Y46.247 F200.00
G1 X31.618 Y46.187 F200.00
G1 X31.618 Y46.187 F200.00
G1 X31.637 Y46.052 F200.00
G1 X31.685 Y45.968 F200.00
G0 X31.709 Y45.948
G0 X31.821 Y45.896
G0 X36.275 Y44.693
G1 X36.319 Y44.681 F200.00
G1 X36.450 Y44.657 F200.00
G1 X36.502 Y44.685 F200.00
G1 X36.554 Y44.765 F200.00
G1 X36.582 Y44.896 F200.00
G1 X36.582 Y44.896 F200.00
G1 X36.566 Y45.255 F200.00
G1 X36.502 Y45.494 F200.00
G1 X36.339 Y45.761 F200.00
G1 X36.048 Y46.096 F200.00
G1 X35.769 Y46.375 F200.00
G1 X35.446 Y46.606 F200.00
G1 X35.151 Y46.769 F200.00
G1 X34.908 Y46.876 F200.00
G1 X34.633 Y46.976 F200.00
G1 X34.271 Y47.080 F200.00
G1 X33.884 Y47.159 F200.00
G1 X33.490 Y47.211 F200.00
G1 X33.096 Y47.211 F200.00
G1 X32.789 Y47.183 F200.00
G1 X32.482 Y47.127 F200.00
G1 X32.155 Y47.032 F200.00
G1 X31.865 Y46.896 F200.00
G1 X31.657 Y46.733 F200.00
G1 X31.622 Y46.677 F200.00
G1 X31.618 Y46.614 F200.00
G1 X31.618 Y46.614 F200.00
G1 X31.637 Y46.478 F200.00
G1 X31.685 Y46.394 F200.00
G0 X31.709 Y46.375
G0 X31.821 Y46.327
G0 X36.275 Y45.135
G1 X36.319 Y45.124 F200.00
G1 X36.450 Y45.100 F200.00
G1 X36.502 Y45.127 F200.00
G1 X36.554 Y45.207 F200.00
G1 X36.582 Y45.339 F200.00
G1 X36.582 Y45.339 F200.00
G1 X36.558 Y45.757 F200.00
G1 X36.510 Y45.936 F200.00
G1 X36.315 Y46.259 F200.00
G1 X36.060 Y46.546 F200.00
G1 X35.777 Y46.821 F200.00
G1 X35.458 Y47.056 F200.00
G1 X35.167 Y47.223 F200.00
G1 X34.912 Y47.335 F200.00
G1 X34.657 Y47.430 F200.00
G1 X34.279 Y47.546 F200.00
G1 X33.888 Y47.618 F200.00
G1 X33.526 Y47.665 F200.00
G1 X33.131 Y47.665 F200.00
G1 X32.821 Y47.641 F200.00
G1 X32.466 Y47.586 F200.00
G1 X32.064 Y47.454 F200.00
G1 X31.829 Y47.327 F200.00
G1 X31.669 Y47.203 F200.00
G1 X31.629 Y47.147 F200.00
G1 X31.618 Y47.084 F200.00
G1 X31.618 Y47.084 F200.00
G1 X31.637 Y46.948 F200.00
G1 X31.685 Y46.865 F200.00
G0 X31.709 Y46.841
G0 X31.821 Y46.793
G0 X36.275 Y45.582
G1 X36.319 Y45.570 F200.00
G1 X36.450 Y45.546 F200.00
G1 X36.502 Y45.574 F200.00
G1 X36.554 Y45.653 F200.00
G1 X36.582 Y45.785 F200.00
G1 X36.582 Y45.785 F200.00
G1 X36.578 Y46.084 F200.00
G1 X36.534 Y46.323 F200.00
G1 X36.462 Y46.494 F200.00
G1 X36.203 Y46.849 F200.00
G1 X35.797 Y47.271 F200.00
G1 X35.478 Y47.506 F200.00
G1 X35.175 Y47.677 F200.00
G1 X34.924 Y47.793 F200.00
G1 X34.649 Y47.896 F200.00
G1 X34.295 Y48.004 F200.00
G1 X33.908 Y48.084 F200.00
G1 X33.514 Y48.131 F200.00
G1 X33.120 Y48.131 F200.00
G1 X32.817 Y48.112 F200.00
G1 X32.462 Y48.052 F200.00
G1 X32.131 Y47.944 F200.00
G1 X31.884 Y47.829 F200.00
G1 X31.669 Y47.669 F200.00
G1 X31.633 Y47.614 F200.00
G1 X31.618 Y47.550 F200.00
G1 X31.618 Y47.550 F200.00
G1 X31.637 Y47.414 F200.00
G1 X31.685 Y47.331 F200.00
G0 X31.709 Y47.311
G0 X31.825 Y47.263
G0 X36.275 Y46.088
G1 X36.319 Y46.076 F200.00
G1 X36.450 Y46.052 F200.00
G1 X36.502 Y46.080 F200.00
G1 X36.554 Y46.159 F200.00
G1 X36.582 Y46.291 F200.00
G1 X36.582 Y46.291 F200.00
G1 X36.562 Y46.649 F200.00
G1 X36.514 Y46.829 F200.00
G1 X36.327 Y47.151 F200.00
G1 X36.032 Y47.486 F200.00
G1 X35.753 Y47.765 F200.00
G1 X35.434 Y47.996 F200.00
G1 X35.124 Y48.167 F200.00
G1 X34.869 Y48.275 F200.00
G1 X34.618 Y48.367 F200.00
G1 X34.247 Y48.474 F200.00
G1 X33.861 Y48.550 F200.00
G1 X33.466 Y48.598 F200.00
G1 X33.072 Y48.598 F200.00
G1 X32.761 Y48.562 F200.00
G1 X32.474 Y48.506 F200.00
G1 X32.151 Y48.406 F200.00
G1 X31.865 Y48.283 F200.00
G1 X31.657 Y48.120 F200.00
G1 X31.625 Y48.064 F200.00
G1 X31.618 Y48.000 F200.00
G1 X31.618 Y48.000 F200.00
G1 X31.637 Y47.865 F200.00
G1 X31.685 Y47.781 F200.00
G0 X31.709 Y47.761
G0 X31.825 Y47.713
G0 X36.275 Y46.534
G1 X36.319 Y46.522 F200.00
G1 X36.450 Y46.498 F200.00
G1 X36.502 Y46.526 F200.00
G1 X36.554 Y46.606 F200.00
G1 X36.582 Y46.737 F200.00
G1 X36.582 Y46.737 F200.00
G1 X36.566 Y47.096 F200.00
G1 X36.518 Y47.275 F200.00
G1 X36.367 Y47.554 F200.00
G1 X36.127 Y47.853 F200.00
G1 X35.757 Y48.215 F200.00
G1 X35.438 Y48.446 F200.00
G1 X35.124 Y48.622 F200.00
G1 X34.873 Y48.733 F200.00
G1 X34.590 Y48.837 F200.00
G1 X34.219 Y48.944 F200.00
G1 X33.829 Y49.016 F200.00
G1 X33.466 Y49.056 F200.00
G1 X33.076 Y49.048 F200.00
G1 X32.777 Y49.020 F200.00
G1 X32.434 Y48.956 F200.00
G1 X32.044 Y48.833 F200.00
G1 X31.813 Y48.705 F200.00
G1 X31.657 Y48.582 F200.00
G1 X31.622 Y48.526 F200.00
G1 X31.618 Y48.462 F200.00
G1 X31.618 Y48.462 F200.00
G1 X31.637 Y48.327 F200.00
G1 X31.685 Y48.243 F200.00
G0 X31.709 Y48.223
G0 X31.821 Y48.171
G0 X36.275 Y46.976
G1 X36.319 Y46.964 F200.00
G1 X36.450 Y46.940 F200.00
G1 X36.502 Y46.968 F200.00
G1 X36.554 Y47.048 F200.00
G1 X36.582 Y47.179 F200.00
G1 X36.582 Y47.179 F200.00
G1 X36.566 Y47.538 F200.00
G1 X36.502 Y47.777 F200.00
G1 X36.339 Y48.048 F200.00
G1 X36.092 Y48.343 F200.00
G1 X35.769 Y48.669 F200.00
G1 X35.450 Y48.904 F200.00
G1 X35.151 Y49.072 F200.00
G1 X34.896 Y49.183 F200.00
G1 X34.637 Y49.279 F200.00
G1 X34.259 Y49.394 F200.00
G1 X33.869 Y49.466 F200.00
G1 X33.514 Y49.506 F200.00
G1 X33.120 Y49.506 F200.00
G1 X32.801 Y49.482 F200.00
G1 X32.450 Y49.422 F200.00
G1 X32.052 Y49.291 F200.00
G1 X31.765 Y49.127 F200.00
G1 X31.661 Y49.044 F200.00
G1 X31.625 Y48.988 F200.00
G1 X31.618 Y48.924 F200.00
G1 X31.618 Y48.924 F200.00
G1 X31.637 Y48.789 F200.00
G1 X31.685 Y48.705 F200.00
G0 X31.709 Y48.681
G0 X31.821 Y48.633
G0 X36.275 Y47.422
G1 X36.319 Y47.410 F200.00
G1 X36.450 Y47.386 F200.00
G1 X36.502 Y47.414 F200.00
G1 X36.554 Y47.494 F200.00
G1 X36.582 Y47.625 F200.00
G1 X36.582 Y47.625 F200.00
G1 X36.562 Y47.984 F200.00
G1 X36.502 Y48.223 F200.00
G1 X36.414 Y48.390 F200.00
G1 X36.151 Y48.745 F200.00
G1 X35.789 Y49.120 F200.00
G1 X35.470 Y49.355 F200.00
G1 X35.179 Y49.522 F200.00
G1 X34.928 Y49.633 F200.00
G1 X34.669 Y49.729 F200.00
G1 X34.295 Y49.841 F200.00
G1 X33.908 Y49.920 F200.00
G1 X33.514 Y49.960 F200.00
G1 X33.171 Y49.972 F200.00
G1 X32.777 Y49.940 F200.00
G1 X32.450 Y49.873 F200.00
G1 X32.175 Y49.789 F200.00
G1 X31.892 Y49.669 F200.00
G1 X31.677 Y49.514 F200.00
G1 X31.637 Y49.462 F200.00
G1 X31.618 Y49.398 F200.00
G1 X31.618 Y49.398 F200.00
G1 X31.637 Y49.263 F200.00
G1 X31.685 Y49.179 F200.00
G0 X31.709 Y49.155
G0 X31.821 Y49.108
G0 X36.275 Y47.865
G1 X36.319 Y47.853 F200.00
G1 X36.450 Y47.829 F200.00
G1 X36.502 Y47.857 F200.00
G1 X36.554 Y47.936 F200.00
G1 X36.582 Y48.068 F200.00
G1 X36.582 Y48.068 F200.00
G1 X36.558 Y48.486 F200.00
G1 X36.510 Y48.665 F200.00
G1 X36.394 Y48.888 F200.00
G1 X36.120 Y49.239 F200.00
G1 X35.753 Y49.606 F200.00
G1 X35.430 Y49.833 F200.00
G1 X35.143 Y49.996 F200.00
G1 X34.884 Y50.112 F200.00
G1 X34.602 Y50.211 F200.00
G1 X34.251 Y50.311 F200.00
G1 X33.865 Y50.386 F200.00
G1 X33.470 Y50.430 F200.00
G1 X33.076 Y50.422 F200.00
G1 X32.789 Y50.398 F200.00
G1 X32.438 Y50.335 F200.00
G1 X32.048 Y50.211 F200.00
G1 X31.817 Y50.084 F200.00
G1 X31.661 Y49.956 F200.00
G1 X31.625 Y49.900 F200.00
G1 X31.618 Y49.837 F200.00
G1 X31.618 Y49.837 F200.00
G1 X31.637 Y49.701 F200.00
G1 X31.685 Y49.618 F200.00
G0 X31.709 Y49.594
G0 X31.821 Y49.546
G0 X36.275 Y48.307
G1 X36.319 Y48.295 F200.00
G1 X36.450 Y48.271 F200.00
G1 X36.502 Y48.299 F200.00
G1 X36.554 Y48.378 F200.00
G1 X36.582 Y48.510 F200.00
G1 X36.582 Y48.510 F200.00
G1 X36.574 Y48.869 F200.00
G1 X36.538 Y49.048 F200.00
G1 X36.494 Y49.163 F200.00
G1 X36.295 Y49.486 F200.00
G1 X36.044 Y49.773 F200.00
G1 X35.761 Y50.048 F200.00
G1 X35.442 Y50.283 F200.00
G1 X35.135 Y50.458 F200.00
G1 X34.880 Y50.574 F200.00
G1 X34.598 Y50.677 F200.00
G1 X34.255 Y50.777 F200.00
G1 X33.865 Y50.845 F200.00
G1 X33.514 Y50.876 F200.00
G1 X33.143 Y50.880 F200.00
G1 X32.769 Y50.853 F200.00
G1 X32.406 Y50.793 F200.00
G1 X32.052 Y50.673 F200.00
G1 X31.821 Y50.546 F200.00
G1 X31.661 Y50.422 F200.00
G1 X31.625 Y50.367 F200.00
G1 X31.618 Y50.303 F200.00
G1 X31.618 Y50.303 F200.00
G1 X31.637 Y50.167 F200.00
G1 X31.685 Y50.084 F200.00
G0 X31.709 Y50.064
G0 X31.821 Y50.012
G0 X36.275 Y48.817
G1 X36.319 Y48.805 F200.00
G1 X36.450 Y48.781 F200.00
G1 X36.502 Y48.809 F200.00
G1 X36.554 Y48.888 F200.00
G1 X36.582 Y49.020 F200.00
G1 X36.582 Y49.020 F200.00
G1 X36.566 Y49.378 F200.00
G1 X36.522 Y49.558 F200.00
G1 X36.402 Y49.785 F200.00
G1 X36.088 Y50.183 F200.00
G1 X35.765 Y50.506 F200.00
G1 X35.446 Y50.741 F200.00
G1 X35.143 Y50.912 F200.00
G1 X34.888 Y51.024 F200.00
G1 X34.633 Y51.120 F200.00
G1 X34.259 Y51.227 F200.00
G1 X33.869 Y51.295 F200.00
G1 X33.518 Y51.331 F200.00
G1 X33.131 Y51.339 F200.00
G1 X32.745 Y51.311 F200.00
G1 X32.375 Y51.239 F200.00
G1 X32.032 Y51.120 F200.00
G1 X31.801 Y50.992 F200.00
G1 X31.693 Y50.912 F200.00
G1 X31.645 Y50.865 F200.00
G1 X31.618 Y50.805 F200.00
G1 X31.618 Y50.805 F200.00
G1 X31.637 Y50.669 F200.00
G1 X31.685 Y50.586 F200.00
G0 X31.709 Y50.562
G0 X31.821 Y50.514
G0 X36.275 Y49.259
G1 X36.319 Y49.247 F200.00
G1 X36.450 Y49.223 F200.00
G1 X36.502 Y49.251 F200.00
G1 X36.554 Y49.331 F200.00
G1 X36.582 Y49.462 F200.00
G1 X36.582 Y49.462 F200.00
G1 X36.566 Y49.821 F200.00
G1 X36.506 Y50.060 F200.00
G1 X36.347 Y50.331 F200.00
G1 X36.056 Y50.669 F200.00
G1 X35.785 Y50.956 F200.00
G1 X35.466 Y51.191 F200.00
G1 X35.199 Y51.343 F200.00
G1 X34.968 Y51.450 F200.00
G1 X34.693 Y51.554 F200.00
G1 X34.315 Y51.665 F200.00
G1 X33.924 Y51.741 F200.00
G1 X33.562 Y51.785 F200.00
G1 X33.167 Y51.801 F200.00
G1 X32.773 Y51.781 F200.00
G1 X32.394 Y51.709 F200.00
G1 X32.131 Y51.618 F200.00
G1 X31.865 Y51.494 F200.00
G1 X31.653 Y51.331 F200.00
G1 X31.622 Y51.275 F200.00
G1 X31.622 Y51.275 F200.00
G1 X31.641 Y51.139 F200.00
G1 X31.689 Y51.056 F200.00
G0 X31.713 Y51.032
G0 X31.825 Y50.984
G0 X36.275 Y49.705
G1 X36.319 Y49.693 F200.00
G1 X36.450 Y49.669 F200.00
G1 X36.502 Y49.697 F200.00
G1 X36.554 Y49.777 F200.00
G1 X36.582 Y49.908 F200.00
G1 X36.582 Y49.908 F200.00
G1 X36.578 Y50.207 F200.00
G1 X36.530 Y50.446 F200.00
G1 X36.486 Y50.562 F200.00
G1 X36.279 Y50.884 F200.00
G1 X36.068 Y51.120 F200.00
G1 X35.793 Y51.402 F200.00
G1 X35.478 Y51.637 F200.00
G1 X35.187 Y51.805 F200.00
G1 X34.948 Y51.916 F200.00
G1 X34.669 Y52.020 F200.00
G1 X34.315 Y52.127 F200.00
G1 X33.924 Y52.203 F200.00
G1 X33.570 Y52.243 F200.00
G1 X33.187 Y52.259 F200.00
G1 X32.801 Y52.239 F200.00
G1 X32.430 Y52.163 F200.00
G1 X32.175 Y52.084 F200.00
G1 X31.861 Y51.944 F200.00
G1 X31.653 Y51.785 F200.00
G1 X31.622 Y51.725 F200.00
G1 X31.622 Y51.725 F200.00
G1 X31.641 Y51.590 F200.00
G1 X31.689 Y51.506 F200.00
G0 X31.713 Y51.482
G0 X31.825 Y51.434
G0 X36.275 Y50.211
G1 X36.319 Y50.199 F200.00
G1 X36.450 Y50.175 F200.00
G1 X36.502 Y50.203 F200.00
G1 X36.554 Y50.283 F200.00
G1 X36.582 Y50.414 F200.00
G1 X36.582 Y50.414 F200.00
G1 X36.562 Y50.773 F200.00
G1 X36.514 Y50.952 F200.00
G1 X36.287 Y51.327 F200.00
G1 X36.036 Y51.614 F200.00
G1 X35.753 Y51.888 F200.00
G1 X35.434 Y52.120 F200.00
G1 X35.143 Y52.287 F200.00
G1 X34.884 Y52.402 F200.00
G1 X34.610 Y52.502 F200.00
G1 X34.247 Y52.606 F200.00
G1 X33.857 Y52.673 F200.00
G1 X33.506 Y52.709 F200.00
G1 X33.127 Y52.717 F200.00
G1 X32.749 Y52.689 F200.00
G1 X32.386 Y52.618 F200.00
G1 X32.044 Y52.498 F200.00
G1 X31.809 Y52.367 F200.00
G1 X31.653 Y52.243 F200.00
G1 X31.622 Y52.187 F200.00
G1 X31.622 Y52.187 F200.00
G1 X31.641 Y52.052 F200.00
G1 X31.689 Y51.968 F200.00
G0 X31.713 Y51.944
G0 X31.825 Y51.896
G0 X36.275 Y50.653
G1 X36.319 Y50.641 F200.00
G1 X36.450 Y50.618 F200.00
G1 X36.502 Y50.645 F200.00
G1 X36.554 Y50.725 F200.00
G1 X36.582 Y50.857 F200.00
G1 X36.582 Y50.857 F200.00
G1 X36.566 Y51.215 F200.00
G1 X36.526 Y51.394 F200.00
G1 X36.406 Y51.622 F200.00
G1 X36.088 Y52.020 F200.00
G1 X35.765 Y52.343 F200.00
G1 X35.446 Y52.578 F200.00
G1 X35.159 Y52.737 F200.00
G1 X34.912 Y52.845 F200.00
G1 X34.458 Y52.988 F200.00
G1 X33.693 Y53.112 F200.00
G1 X32.928 Y53.120 F200.00
G1 X32.482 Y53.056 F200.00
G1 X32.040 Y52.912 F200.00
G1 X31.861 Y52.825 F200.00
G1 X31.697 Y52.709 F200.00
G1 X31.649 Y52.665 F200.00
G1 X31.618 Y52.606 F200.00
G1 X31.618 Y52.606 F200.00
G1 X31.637 Y52.470 F200.00
G1 X31.685 Y52.386 F200.00
G0 X31.709 Y52.363
G0 X31.821 Y52.315
G0 X36.275 Y51.100
G1 X36.319 Y51.088 F200.00
G1 X36.450 Y51.064 F200.00
G1 X36.502 Y51.092 F200.00
G1 X36.554 Y51.171 F200.00
G1 X36.582 Y51.303 F200.00
G1 X36.582 Y51.303 F200.00
G1 X36.566 Y51.661 F200.00
G1 X36.502 Y51.900 F200.00
G1 X36.347 Y52.171 F200.00
G1 X36.060 Y52.510 F200.00
G1 X35.785 Y52.793 F200.00
G1 X35.462 Y53.020 F200.00
G1 X34.685 Y53.327 F200.00
G1 X34.303 Y53.382 F200.00
G1 X32.454 Y53.371 F200.00
G1 X32.072 Y53.307 F200.00
G1 X31.829 Y53.199 F200.00
G1 X31.669 Y53.084 F200.00
G1 X31.629 Y53.028 F200.00
G1 X31.618 Y52.964 F200.00
G1 X31.618 Y52.964 F200.00
G1 X31.637 Y52.829 F200.00
G1 X31.685 Y52.745 F200.00
G0 X31.709 Y52.725
G0 X31.825 Y52.677
G0 X36.275 Y51.538
G1 X36.319 Y51.526 F200.00
G1 X36.450 Y51.506 F200.00
G1 X36.502 Y51.530 F200.00
G1 X36.554 Y51.614 F200.00
G1 X36.582 Y51.745 F200.00
G1 X36.582 Y51.745 F200.00
G1 X36.578 Y52.044 F200.00
G1 X36.530 Y52.283 F200.00
G1 X36.386 Y52.566 F200.00
G1 X36.151 Y52.869 F200.00
G1 X35.817 Y53.159 F200.00
G1 X35.550 Y53.335 F200.00
G1 X35.426 Y53.378 F200.00
G1 X34.661 Y53.382 F200.00
G1 X34.661 Y53.382 F200.00
G1 X34.526 Y53.355 F200.00
G1 X34.470 Y53.323 F200.00
G1 X34.450 Y53.307 F200.00
G0 X34.446 Y53.287
G0 X34.514 Y53.219
G0 X36.315 Y52.100
G1 X36.351 Y52.076 F200.00
G1 X36.446 Y52.032 F200.00
G1 X36.498 Y52.048 F200.00
G1 X36.554 Y52.124 F200.00
G1 X36.582 Y52.255 F200.00
G1 X36.582 Y52.255 F200.00
G1 X36.562 Y52.614 F200.00
G1 X36.514 Y52.793 F200.00
G1 X36.343 Y53.056 F200.00
G1 X36.127 Y53.287 F200.00
G1 X36.024 Y53.359 F200.00
G1 X35.964 Y53.382 F200.00
G1 X35.837 Y53.382 F200.00
G1 X35.837 Y53.382 F200.00
G1 X35.701 Y53.355 F200.00
G1 X35.645 Y53.323 F200.00
G1 X35.625 Y53.303 F200.00
G0 X35.622 Y53.283
G0 X35.677 Y53.195
G0 X36.339 Y52.574
G1 X36.363 Y52.550 F200.00
G1 X36.434 Y52.486 F200.00
G1 X36.482 Y52.478 F200.00
G1 X36.522 Y52.510 F200.00
G1 X36.562 Y52.598 F200.00
G1 X36.582 Y52.697 F200.00
G1 X36.582 Y52.697 F200.00
G1 X36.570 Y52.936 F200.00
G1 X36.510 Y53.175 F200.00
G1 X36.482 Y53.231 F200.00
G1 X36.398 Y53.331 F200.00
G1 X36.343 Y53.367 F200.00
G1 X36.279 Y53.382 F200.00
G1 X36.151 Y53.382 F200.00
G1 X36.151 Y53.382 F200.00
G1 X36.024 Y53.351 F200.00
G1 X36.004 Y53.339 F200.00
G0 X35.996 Y53.319
G0 X36.371 Y53.000
G1 X36.394 Y52.980 F200.00
G1 X36.474 Y52.924 F200.00
G1 X36.518 Y52.920 F200.00
G1 X36.550 Y52.956 F200.00
G1 X36.582 Y53.080 F200.00
G1 X36.582 Y53.080 F200.00
G1 X36.570 Y53.259 F200.00
G1 X36.554 Y53.319 F200.00
G1 X36.518 Y53.371 F200.00
G1 X36.454 Y53.382 F200.00
G1 X36.390 Y53.382 F200.00
G1 X36.390 Y53.382 F200.00
G1 X36.255 Y53.355 F200.00
G1 X36.163 Y53.303 F200.00
G0 X36.135 Y53.283
G0 X35.761 Y52.992
G0 X35.076 Y53.024
G0 X34.096 Y52.996
G0 X32.928 Y52.976
G0 X32.653 Y53.159
G1 X32.625 Y53.183 F200.00
G1 X32.426 Y53.339 F200.00
G1 X32.271 Y53.382 F200.00
G1 X32.271 Y53.382 F200.00
G1 X31.888 Y53.378 F200.00
G1 X31.761 Y53.359 F200.00
G1 X31.697 Y53.339 F200.00
G1 X31.641 Y53.303 F200.00
G1 X31.618 Y53.239 F200.00
G1 X31.618 Y53.239 F200.00
G1 X31.622 Y53.219 F200.00
G1 X31.629 Y53.215 F200.00
G1 X31.721 Y53.327 F200.00
G1 X31.725 Y53.363 F200.00
G1 X31.701 Y53.382 F200.00
G1 X31.701 Y53.382 F200.00
G1 X31.645 Y53.343 F200.00
G1 X31.618 Y53.283 F200.00
G1 X31.618 Y53.283 F200.00
G1 X31.614 Y53.267 F200.00
G1 X31.614 Y53.263 F200.00
G1 X31.614 Y53.271 F200.00
G1 X31.622 Y53.327 F200.00
G1 X31.606 Y53.319 F200.00
G1 X31.606 Y53.319 F200.00
G1 X31.586 Y53.235 F200.00
G1 X31.594 Y31.697 F200.00
G1 X31.622 Y31.645 F200.00
G1 X31.673 Y31.606 F200.00
G1 X31.765 Y31.586 F200.00
G1 X53.315 Y31.598 F200.00
G1 X53.355 Y31.622 F200.00
G1 X53.394 Y31.677 F200.00
G1 X53.414 Y31.765 F200.00
G1 X53.402 Y36.514 F200.00
G1 X53.378 Y36.554 F200.00
G1 X53.323 Y36.594 F200.00
G1 X53.239 Y36.614 F200.00
G1 X38.088 Y36.622 F200.00
G1 X37.865 Y36.653 F200.00
G1 X37.649 Y36.717 F200.00
G1 X37.442 Y36.809 F200.00
G1 X37.255 Y36.928 F200.00
G1 X37.084 Y37.076 F200.00
G1 X36.936 Y37.243 F200.00
G1 X36.813 Y37.434 F200.00
G1 X36.717 Y37.637 F200.00
G1 X36.653 Y37.853 F200.00
G1 X36.618 Y38.072 F200.00
G1 X36.614 Y53.175 F200.00
G1 X36.606 Y53.287 F200.00
G1 X36.578 Y53.355 F200.00
G1 X36.526 Y53.394 F200.00
G1 X36.410 Y53.414 F200.00
G1 X31.685 Y53.402 F200.00
G1 X31.645 Y53.378 F200.00
G1 X31.610 Y53.339 F200.00
G1 X31.606 Y53.323 F200.00
G1 X31.606 Y53.319 F200.00
G0 Z3.000
(Helix to depth: -2.000000)
G0 Z3.000
G0 X35.270 Y35.894 Z3.000
G0 X35.270 Y35.894 Z2.000
G1 X35.270 Y35.894 Z-1.000 F200.00
G1 X35.270 Y35.894 Z-1.000 F200.00
G1 X35.050 Y35.962 Z-1.020 F200.00
G1 X34.820 Y35.986 Z-1.041 F200.00
G1 X34.590 Y35.965 Z-1.061 F200.00
G1 X34.369 Y35.899 Z-1.082 F200.00
G1 X34.165 Y35.792 Z-1.102 F200.00
G1 X33.985 Y35.646 Z-1.122 F200.00
G1 X33.838 Y35.469 Z-1.143 F200.00
G1 X33.728 Y35.266 Z-1.163 F200.00
G1 X33.660 Y35.046 Z-1.184 F200.00
G1 X33.636 Y34.816 Z-1.204 F200.00
G1 X33.657 Y34.586 Z-1.224 F200.00
G1 X33.722 Y34.365 Z-1.245 F200.00
G1 X33.830 Y34.161 Z-1.265 F200.00
G1 X33.975 Y33.981 Z-1.286 F200.00
G1 X34.153 Y33.834 Z-1.306 F200.00
G1 X34.356 Y33.724 Z-1.326 F200.00
G1 X34.576 Y33.656 Z-1.347 F200.00
G1 X34.805 Y33.632 Z-1.367 F200.00
G1 X35.035 Y33.653 Z-1.388 F200.00
G1 X35.257 Y33.718 Z-1.408 F200.00
G1 X35.461 Y33.826 Z-1.428 F200.00
G1 X35.640 Y33.971 Z-1.449 F200.00
G1 X35.788 Y34.149 Z-1.469 F200.00
G1 X35.898 Y34.352 Z-1.489 F200.00
G1 X35.966 Y34.572 Z-1.510 F200.00
G1 X35.990 Y34.801 Z-1.530 F200.00
G1 X35.969 Y35.031 Z-1.551 F200.00
G1 X35.903 Y35.253 Z-1.571 F200.00
G1 X35.796 Y35.457 Z-1.591 F200.00
G1 X35.650 Y35.636 Z-1.612 F200.00
G1 X35.473 Y35.784 Z-1.632 F200.00
G1 X35.270 Y35.894 Z-1.653 F200.00
G1 X35.050 Y35.962 Z-1.673 F200.00
G1 X34.820 Y35.986 Z-1.693 F200.00
G1 X34.590 Y35.965 Z-1.714 F200.00
G1 X34.369 Y35.899 Z-1.734 F200.00
G1 X34.165 Y35.792 Z-1.755 F200.00
G1 X33.985 Y35.646 Z-1.775 F200.00
G1 X33.838 Y35.469 Z-1.795 F200.00
G1 X33.728 Y35.266 Z-1.816 F200.00
G1 X33.660 Y35.046 Z-1.836 F200.00
G1 X33.636 Y34.816 Z-1.857 F200.00
G1 X33.657 Y34.586 Z-1.877 F200.00
G1 X33.722 Y34.365 Z-1.897 F200.00
G1 X33.830 Y34.161 Z-1.918 F200.00
G1 X33.975 Y33.981 Z-1.938 F200.00
G1 X34.153 Y33.834 Z-1.959 F200.00
G1 X34.356 Y33.724 Z-1.979 F200.00
G1 X34.576 Y33.656 Z-1.999 F200.00
G1 X34.805 Y33.632 Z-2.000 F200.00
G1 X35.035 Y33.653 Z-2.000 F200.00
G1 X35.257 Y33.718 Z-2.000 F200.00
G1 X35.461 Y33.826 Z-2.000 F200.00
G1 X35.640 Y33.971 Z-2.000 F200.00
G1 X35.788 Y34.149 Z-2.000 F200.00
G1 X35.898 Y34.352 Z-2.000 F200.00
G1 X35.966 Y34.572 Z-2.000 F200.00
G1 X35.990 Y34.801 Z-2.000 F200.00
G1 X35.969 Y35.031 Z-2.000 F200.00
G1 X35.903 Y35.253 Z-2.000 F200.00
G1 X35.796 Y35.457 Z-2.000 F200.00
G1 X35.650 Y35.636 Z-2.000 F200.00
G1 X35.473 Y35.784 Z-2.000 F200.00
G1 X35.270 Y35.894 Z-2.000 F200.00
G1 X35.050 Y35.962 Z-2.000 F200.00
G1 X34.820 Y35.986 Z-2.000 F200.00
G1 X34.590 Y35.965 Z-2.000 F200.00
G1 X34.369 Y35.899 Z-2.000 F200.00
G1 X34.165 Y35.792 Z-2.000 F200.00
G1 X33.985 Y35.646 Z-2.000 F200.00
G1 X33.838 Y35.469 Z-2.000 F200.00
G1 X33.728 Y35.266 Z-2.000 F200.00
G1 X33.660 Y35.046 Z-2.000 F200.00
G1 X33.636 Y34.816 Z-2.000 F200.00
G1 X33.657 Y34.586 Z-2.000 F200.00
G1 X33.722 Y34.365 Z-2.000 F200.00
G1 X33.830 Y34.161 Z-2.000 F200.00
G1 X33.975 Y33.981 Z-2.000 F200.00
G1 X34.153 Y33.834 Z-2.000 F200.00
G1 X34.356 Y33.724 Z-2.000 F200.00
G1 X34.576 Y33.656 Z-2.000 F200.00
(Adaptive - depth: -2.000000)
G1 X34.813 Y33.622 F200.00
G1 X34.857 Y33.574 F200.00
G1 X35.032 Y33.510 F200.00
G1 X35.211 Y33.498 F200.00
G1 X35.331 Y33.510 F200.00
G1 X35.693 Y33.657 F200.00
G1 X35.861 Y33.785 F200.00
G1 X35.960 Y33.888 F200.00
G1 X36.052 Y34.004 F200.00
G1 X36.159 Y34.191 F200.00
G1 X36.251 Y34.418 F200.00
G1 X36.295 Y34.649 F200.00
G1 X36.303 Y34.841 F200.00
G1 X36.287 Y35.032 F200.00
G1 X36.235 Y35.251 F200.00
G1 X36.151 Y35.466 F200.00
G1 X36.040 Y35.653 F200.00
G1 X35.912 Y35.813 F200.00
G1 X35.757 Y35.960 F200.00
G1 X35.566 Y36.092 F200.00
G1 X35.375 Y36.191 F200.00
G1 X35.163 Y36.263 F200.00
G1 X34.944 Y36.303 F200.00
G1 X34.725 Y36.307 F200.00
G1 X34.530 Y36.283 F200.00
G1 X34.319 Y36.223 F200.00
G1 X34.124 Y36.135 F200.00
G1 X33.944 Y36.028 F200.00
G1 X33.757 Y35.873 F200.00
G1 X33.610 Y35.709 F200.00
G1 X33.490 Y35.522 F200.00
G1 X33.406 Y35.343 F200.00
G1 X33.347 Y35.135 F200.00
G1 X33.315 Y34.928 F200.00
G1 X33.311 Y34.689 F200.00
G1 X33.347 Y34.454 F200.00
G1 X33.402 Y34.255 F200.00
G1 X33.502 Y34.048 F200.00
G1 X33.614 Y33.880 F200.00
G1 X33.753 Y33.725 F200.00
G1 X33.912 Y33.586 F200.00
G1 X34.108 Y33.450 F200.00
G1 X34.339 Y33.319 F200.00
G1 X34.685 Y33.183 F200.00
G1 X34.984 Y33.135 F200.00
G1 X35.375 Y33.175 F200.00
G1 X35.729 Y33.299 F200.00
G1 X35.896 Y33.394 F200.00
G1 X36.028 Y33.486 F200.00
G1 X36.183 Y33.633 F200.00
G1 X36.331 Y33.813 F200.00
G1 X36.458 Y34.024 F200.00
G1 X36.550 Y34.235 F200.00
G1 X36.614 Y34.462 F200.00
G1 X36.641 Y34.701 F200.00
G1 X36.645 Y34.912 F200.00
G1 X36.614 Y35.159 F200.00
G1 X36.554 Y35.386 F200.00
G1 X36.458 Y35.622 F200.00
G1 X36.335 Y35.837 F200.00
G1 X36.179 Y36.024 F200.00
G1 X36.032 Y36.167 F200.00
G1 X35.849 Y36.311 F200.00
G1 X35.618 Y36.450 F200.00
G1 X35.367 Y36.562 F200.00
G1 X35.112 Y36.622 F200.00
G1 X34.908 Y36.641 F200.00
G1 X34.701 Y36.641 F200.00
G1 X34.450 Y36.606 F200.00
G1 X34.203 Y36.538 F200.00
G1 X33.964 Y36.442 F200.00
G1 X33.749 Y36.311 F200.00
G1 X33.574 Y36.175 F200.00
G1 X33.406 Y36.004 F200.00
G1 X33.263 Y35.817 F200.00
G1 X33.135 Y35.598 F200.00
G1 X33.040 Y35.371 F200.00
G1 X32.980 Y35.131 F200.00
G1 X32.952 Y34.904 F200.00
G1 X32.948 Y34.665 F200.00
G1 X32.984 Y34.402 F200.00
G1 X33.044 Y34.167 F200.00
G1 X33.143 Y33.940 F200.00
G1 X33.255 Y33.749 F200.00
G1 X33.398 Y33.562 F200.00
G1 X33.558 Y33.386 F200.00
G1 X33.785 Y33.191 F200.00
G1 X34.032 Y33.028 F200.00
G1 X34.275 Y32.900 F200.00
G1 X34.554 Y32.817 F200.00
G1 X34.757 Y32.773 F200.00
G1 X35.004 Y32.757 F200.00
G1 X35.247 Y32.769 F200.00
G1 X35.506 Y32.817 F200.00
G1 X35.749 Y32.892 F200.00
G1 X35.976 Y33.004 F200.00
G1 X36.159 Y33.124 F200.00
G1 X36.347 Y33.275 F200.00
G1 X36.530 Y33.466 F200.00
G1 X36.701 Y33.693 F200.00
G1 X36.821 Y33.924 F200.00
G1 X36.904 Y34.127 F200.00
G1 X36.972 Y34.371 F200.00
G1 X37.012 Y34.641 F200.00
G1 X37.020 Y34.916 F200.00
G1 X36.992 Y35.183 F200.00
G1 X36.940 Y35.422 F200.00
G1 X36.853 Y35.669 F200.00
G1 X36.737 Y35.900 F200.00
G1 X36.598 Y36.112 F200.00
G1 X36.430 Y36.307 F200.00
G1 X36.239 Y36.482 F200.00
G1 X36.032 Y36.637 F200.00
G1 X35.785 Y36.777 F200.00
G1 X35.538 Y36.880 F200.00
G1 X35.275 Y36.956 F200.00
G1 X35.000 Y37.000 F200.00
G1 X34.729 Y37.012 F200.00
G1 X34.458 Y36.992 F200.00
G1 X34.191 Y36.932 F200.00
G1 X33.972 Y36.857 F200.00
G1 X33.737 Y36.749 F200.00
G1 X33.498 Y36.594 F200.00
G1 X33.299 Y36.430 F200.00
G1 X33.112 Y36.239 F200.00
G1 X32.948 Y36.024 F200.00
G1 X32.813 Y35.797 F200.00
G1 X32.705 Y35.554 F200.00
G1 X32.629 Y35.299 F200.00
G1 X32.582 Y35.036 F200.00
G1 X32.566 Y34.773 F200.00
G1 X32.578 Y34.510 F200.00
G1 X32.625 Y34.227 F200.00
G1 X32.701 Y33.964 F200.00
G1 X32.809 Y33.709 F200.00
G1 X32.944 Y33.470 F200.00
G1 X33.108 Y33.247 F200.00
G1 X33.295 Y33.044 F200.00
G1 X33.502 Y32.865 F200.00
G1 X33.729 Y32.709 F200.00
G1 X33.972 Y32.582 F200.00
G1 X34.227 Y32.482 F200.00
G1 X34.490 Y32.406 F200.00
G1 X34.805 Y32.359 F200.00
G1 X35.088 Y32.343 F200.00
G1 X35.378 Y32.375 F200.00
G1 X35.606 Y32.422 F200.00
G1 X35.861 Y32.510 F200.00
G1 X36.100 Y32.614 F200.00
G1 X36.367 Y32.773 F200.00
G1 X36.590 Y32.944 F200.00
G1 X36.785 Y33.143 F200.00
G1 X36.936 Y33.335 F200.00
G1 X37.084 Y33.558 F200.00
G1 X37.215 Y33.833 F200.00
G1 X37.307 Y34.092 F200.00
G1 X37.371 Y34.367 F200.00
G1 X37.406 Y34.649 F200.00
G1 X37.410 Y34.956 F200.00
G1 X37.382 Y35.247 F200.00
G1 X37.311 Y35.538 F200.00
G1 X37.231 Y35.769 F200.00
G1 X37.112 Y36.016 F200.00
G1 X36.968 Y36.247 F200.00
G1 X36.785 Y36.490 F200.00
G1 X36.566 Y36.721 F200.00
G1 X36.331 Y36.904 F200.00
G1 X36.116 Y37.044 F200.00
G1 X35.857 Y37.171 F200.00
G1 X35.594 Y37.271 F200.00
G1 X35.279 Y37.355 F200.00
G1 X34.984 Y37.398 F200.00
G1 X34.689 Y37.402 F200.00
G1 X34.434 Y37.378 F200.00
G1 X34.159 Y37.323 F200.00
G1 X33.892 Y37.243 F200.00
G1 X33.590 Y37.112 F200.00
G1 X33.335 Y36.968 F200.00
G1 X33.096 Y36.785 F200.00
G1 X32.912 Y36.614 F200.00
G1 X32.729 Y36.398 F200.00
G1 X32.566 Y36.171 F200.00
G1 X32.410 Y35.884 F200.00
G1 X32.299 Y35.614 F200.00
G1 X32.211 Y35.331 F200.00
G1 X32.155 Y35.032 F200.00
G1 X32.143 Y34.737 F200.00
G1 X32.155 Y34.482 F200.00
G1 X32.195 Y34.199 F200.00
G1 X32.275 Y33.884 F200.00
G1 X32.386 Y33.590 F200.00
G1 X32.510 Y33.339 F200.00
G1 X32.673 Y33.084 F200.00
G1 X32.861 Y32.853 F200.00
G1 X33.068 Y32.641 F200.00
G1 X33.299 Y32.454 F200.00
G1 X33.550 Y32.291 F200.00
G1 X33.817 Y32.155 F200.00
G1 X34.454 Y31.936 F200.00
G1 X34.932 Y31.876 F200.00
G1 X35.470 Y31.912 F200.00
G1 X36.004 Y32.064 F200.00
G1 X36.171 Y32.135 F200.00
G1 X36.514 Y32.327 F200.00
G1 X36.825 Y32.566 F200.00
G1 X37.036 Y32.769 F200.00
G1 X37.207 Y32.976 F200.00
G1 X37.367 Y33.207 F200.00
G1 X37.526 Y33.486 F200.00
G1 X37.661 Y33.801 F200.00
G1 X37.757 Y34.100 F200.00
G1 X37.817 Y34.418 F200.00
G1 X37.845 Y34.697 F200.00
G1 X37.841 Y35.000 F200.00
G1 X37.805 Y35.303 F200.00
G1 X37.741 Y35.594 F200.00
G1 X37.645 Y35.880 F200.00
G1 X37.518 Y36.155 F200.00
G1 X37.363 Y36.414 F200.00
G1 X36.841 Y36.968 F200.00
G1 X36.371 Y37.307 F200.00
G1 X35.857 Y37.590 F200.00
G1 X35.482 Y37.717 F200.00
G1 X35.159 Y37.781 F200.00
G1 X34.908 Y37.805 F200.00
G1 X34.653 Y37.805 F200.00
G1 X34.339 Y37.777 F200.00
G1 X34.004 Y37.713 F200.00
G1 X33.689 Y37.622 F200.00
G1 X33.390 Y37.482 F200.00
G1 X33.171 Y37.359 F200.00
G1 X32.928 Y37.191 F200.00
G1 X32.677 Y36.972 F200.00
G1 X32.450 Y36.733 F200.00
G1 X32.251 Y36.482 F200.00
G1 X31.940 Y35.900 F200.00
G1 X31.777 Y35.398 F200.00
G1 X31.693 Y34.888 F200.00
G1 X31.697 Y34.315 F200.00
G1 X31.781 Y33.869 F200.00
G1 X31.976 Y33.315 F200.00
G1 X32.155 Y32.972 F200.00
G1 X32.394 Y32.657 F200.00
G1 X32.665 Y32.371 F200.00
G1 X32.928 Y32.147 F200.00
G1 X33.546 Y31.737 F200.00
G1 X33.777 Y31.637 F200.00
G1 X33.837 Y31.622 F200.00
G1 X35.988 Y31.633 F200.00
G1 X36.227 Y31.681 F200.00
G1 X36.669 Y31.884 F200.00
G1 X37.024 Y32.131 F200.00
G1 X37.311 Y32.394 F200.00
G1 X37.566 Y32.689 F200.00
G1 X37.785 Y33.008 F200.00
G1 X37.928 Y33.271 F200.00
G1 X38.048 Y33.546 F200.00
G1 X38.151 Y33.853 F200.00
G1 X38.235 Y34.199 F200.00
G1 X38.287 Y34.562 F200.00
G1 X38.287 Y34.908 F200.00
G1 X38.267 Y35.179 F200.00
G1 X38.211 Y35.498 F200.00
G1 X38.127 Y35.801 F200.00
G1 X38.004 Y36.120 F200.00
G1 X37.697 Y36.594 F200.00
G1 X37.657 Y36.641 F200.00
G1 X37.554 Y36.721 F200.00
G1 X37.167 Y36.956 F200.00
G1 X36.653 Y37.518 F200.00
G1 X36.219 Y37.801 F200.00
G1 X35.749 Y38.036 F200.00
G1 X35.371 Y38.147 F200.00
G1 X35.048 Y38.199 F200.00
G1 X34.801 Y38.219 F200.00
G1 X34.526 Y38.219 F200.00
G1 X34.167 Y38.183 F200.00
G1 X33.813 Y38.112 F200.00
G1 X33.502 Y38.008 F200.00
G1 X33.247 Y37.896 F200.00
G1 X32.968 Y37.745 F200.00
G1 X32.677 Y37.550 F200.00
G1 X32.402 Y37.327 F200.00
G1 X32.163 Y37.080 F200.00
G1 X31.749 Y36.522 F200.00
G1 X31.657 Y36.343 F200.00
G1 X31.618 Y36.215 F200.00
G1 X31.618 Y35.323 F200.00
G1 X31.618 Y35.323 F200.00
G1 X31.629 Y35.303 F200.00
G0 X31.645 Y35.295
G1 X31.657 Y35.295 F200.00
G1 X31.657 Y35.303 F200.00
G1 X31.661 Y35.303 F200.00
G1 X31.645 Y35.315 F200.00
G1 X31.618 Y35.283 F200.00
G1 X31.618 Y35.283 F200.00
G1 X31.625 Y33.307 F200.00
G1 X31.681 Y32.988 F200.00
G1 X31.880 Y32.590 F200.00
G1 X32.143 Y32.223 F200.00
G1 X32.697 Y31.681 F200.00
G1 X32.805 Y31.625 F200.00
G1 X32.865 Y31.618 F200.00
G1 X32.865 Y31.618 F200.00
G1 X32.988 Y31.637 F200.00
G1 X33.044 Y31.665 F200.00
G1 X33.060 Y31.685 F200.00
G0 X33.064 Y31.705
G0 X33.016 Y31.793
G0 X31.829 Y33.151
G1 X31.801 Y33.179 F200.00
G1 X31.725 Y33.251 F200.00
G1 X31.705 Y33.255 F200.00
G1 X31.665 Y33.231 F200.00
G1 X31.622 Y33.120 F200.00
G1 X31.618 Y33.060 F200.00
G1 X31.618 Y33.060 F200.00
G1 X31.625 Y32.550 F200.00
G1 X31.669 Y32.295 F200.00
G1 X31.741 Y32.120 F200.00
G1 X31.952 Y31.797 F200.00
G1 X32.080 Y31.657 F200.00
G1 X32.135 Y31.625 F200.00
G1 X32.131 Y31.625 F200.00
G1 X32.255 Y31.645 F200.00
G1 X32.311 Y31.673 F200.00
G1 X32.327 Y31.693 F200.00
G0 X32.335 Y31.713
G0 X32.267 Y31.841
G0 X31.809 Y32.446
G1 X31.789 Y32.478 F200.00
G1 X31.721 Y32.550 F200.00
G1 X31.701 Y32.554 F200.00
G1 X31.665 Y32.534 F200.00
G1 X31.622 Y32.422 F200.00
G1 X31.618 Y32.363 F200.00
G1 X31.618 Y32.363 F200.00
G1 X31.625 Y31.916 F200.00
G1 X31.661 Y31.725 F200.00
G1 X31.685 Y31.665 F200.00
G1 X31.729 Y31.622 F200.00
G1 X31.729 Y31.622 F200.00
G1 X31.741 Y31.629 F200.00
G1 X31.745 Y31.641 F200.00
G1 X31.673 Y31.729 F200.00
G1 X31.637 Y31.745 F200.00
G1 X31.618 Y31.729 F200.00
G1 X31.618 Y31.729 F200.00
G1 X31.637 Y31.669 F200.00
G1 X31.685 Y31.629 F200.00
G1 X31.685 Y31.629 F200.00
G1 X31.904 Y31.633 F200.00
G0 X31.932 Y31.645
G0 X32.315 Y31.964
G0 X33.414 Y32.060
G0 X33.924 Y31.968
G0 X35.343 Y31.960
G0 X35.689 Y31.793
G1 X35.717 Y31.777 F200.00
G1 X35.801 Y31.729 F200.00
G1 X35.980 Y31.637 F200.00
G1 X36.116 Y31.618 F200.00
G1 X36.116 Y31.618 F200.00
G1 X36.713 Y31.625 F200.00
G1 X36.952 Y31.669 F200.00
G1 X37.068 Y31.717 F200.00
G1 X37.474 Y31.988 F200.00
G1 X37.657 Y32.155 F200.00
G1 X37.920 Y32.446 F200.00
G1 X38.151 Y32.761 F200.00
G1 X38.347 Y33.100 F200.00
G1 X38.470 Y33.386 F200.00
G1 X38.562 Y33.653 F200.00
G1 X38.649 Y33.972 F200.00
G1 X38.717 Y34.359 F200.00
G1 X38.737 Y34.749 F200.00
G1 X38.729 Y35.060 F200.00
G1 X38.689 Y35.390 F200.00
G1 X38.614 Y35.725 F200.00
G1 X38.502 Y36.036 F200.00
G1 X38.386 Y36.291 F200.00
G1 X38.199 Y36.546 F200.00
G1 X38.143 Y36.582 F200.00
G1 X38.080 Y36.590 F200.00
G1 X38.080 Y36.590 F200.00
G1 X37.944 Y36.570 F200.00
G1 X37.857 Y36.522 F200.00
G0 X37.837 Y36.498
G0 X37.789 Y36.382
G0 X36.669 Y31.900
G1 X36.657 Y31.857 F200.00
G1 X36.641 Y31.741 F200.00
G1 X36.665 Y31.689 F200.00
G1 X36.745 Y31.637 F200.00
G1 X36.876 Y31.618 F200.00
G1 X36.876 Y31.618 F200.00
G1 X37.295 Y31.625 F200.00
G1 X37.534 Y31.669 F200.00
G1 X37.645 Y31.717 F200.00
G1 X37.904 Y31.888 F200.00
G1 X38.179 Y32.135 F200.00
G1 X38.438 Y32.430 F200.00
G1 X38.657 Y32.753 F200.00
G1 X38.841 Y33.100 F200.00
G1 X38.956 Y33.378 F200.00
G1 X39.048 Y33.673 F200.00
G1 X39.124 Y33.992 F200.00
G1 X39.183 Y34.378 F200.00
G1 X39.207 Y34.769 F200.00
G1 X39.183 Y35.147 F200.00
G1 X39.143 Y35.446 F200.00
G1 X39.064 Y35.793 F200.00
G1 X38.952 Y36.116 F200.00
G1 X38.745 Y36.434 F200.00
G1 X38.661 Y36.526 F200.00
G1 X38.610 Y36.562 F200.00
G1 X38.550 Y36.586 F200.00
G1 X38.422 Y36.586 F200.00
G1 X38.422 Y36.586 F200.00
G1 X38.287 Y36.558 F200.00
G1 X38.203 Y36.502 F200.00
G0 X38.183 Y36.478
G0 X38.143 Y36.363
G0 X37.291 Y31.904
G1 X37.283 Y31.857 F200.00
G1 X37.271 Y31.745 F200.00
G1 X37.295 Y31.689 F200.00
G1 X37.378 Y31.637 F200.00
G1 X37.510 Y31.618 F200.00
G1 X37.510 Y31.618 F200.00
G1 X37.809 Y31.622 F200.00
G1 X38.048 Y31.665 F200.00
G1 X38.215 Y31.737 F200.00
G1 X38.602 Y32.036 F200.00
G1 X38.729 Y32.167 F200.00
G1 X38.976 Y32.470 F200.00
G1 X39.183 Y32.805 F200.00
G1 X39.331 Y33.112 F200.00
G1 X39.442 Y33.394 F200.00
G1 X39.538 Y33.709 F200.00
G1 X39.618 Y34.088 F200.00
G1 X39.661 Y34.470 F200.00
G1 X39.677 Y34.833 F200.00
G1 X39.661 Y35.207 F200.00
G1 X39.594 Y35.578 F200.00
G1 X39.510 Y35.861 F200.00
G1 X39.406 Y36.131 F200.00
G1 X39.235 Y36.398 F200.00
G1 X39.108 Y36.542 F200.00
G1 X39.052 Y36.574 F200.00
G1 X38.988 Y36.586 F200.00
G1 X38.606 Y36.586 F200.00
G1 X38.606 Y36.586 F200.00
G1 X38.470 Y36.558 F200.00
G1 X38.386 Y36.502 F200.00
G0 X38.367 Y36.478
G0 X38.335 Y36.363
G0 X37.781 Y31.904
G1 X37.777 Y31.857 F200.00
G1 X37.773 Y31.745 F200.00
G1 X37.801 Y31.689 F200.00
G1 X37.880 Y31.637 F200.00
G1 X38.016 Y31.618 F200.00
G1 X38.016 Y31.618 F200.00
G1 X38.375 Y31.625 F200.00
G1 X38.554 Y31.657 F200.00
G1 X38.669 Y31.701 F200.00
G1 X39.104 Y32.040 F200.00
G1 X39.191 Y32.127 F200.00
G1 X39.438 Y32.430 F200.00
G1 X39.645 Y32.761 F200.00
G1 X39.789 Y33.048 F200.00
G1 X39.904 Y33.327 F200.00
G1 X40.012 Y33.677 F200.00
G1 X40.084 Y34.040 F200.00
G1 X40.131 Y34.382 F200.00
G1 X40.147 Y34.773 F200.00
G1 X40.131 Y35.139 F200.00
G1 X40.072 Y35.506 F200.00
G1 X40.000 Y35.801 F200.00
G1 X39.876 Y36.124 F200.00
G1 X39.665 Y36.442 F200.00
G1 X39.574 Y36.534 F200.00
G1 X39.518 Y36.566 F200.00
G1 X39.458 Y36.586 F200.00
G1 X39.076 Y36.586 F200.00
G1 X39.076 Y36.586 F200.00
G1 X38.940 Y36.558 F200.00
G1 X38.857 Y36.502 F200.00
G0 X38.837 Y36.478
G0 X38.805 Y36.363
G0 X38.291 Y31.904
G1 X38.287 Y31.857 F200.00
G1 X38.283 Y31.745 F200.00
G1 X38.311 Y31.689 F200.00
G1 X38.390 Y31.637 F200.00
G1 X38.526 Y31.618 F200.00
G1 X38.526 Y31.618 F200.00
G1 X38.884 Y31.625 F200.00
G1 X39.064 Y31.661 F200.00
G1 X39.179 Y31.705 F200.00
G1 X39.526 Y31.964 F200.00
G1 X39.693 Y32.139 F200.00
G1 X39.940 Y32.446 F200.00
G1 X40.143 Y32.781 F200.00
G1 X40.291 Y33.092 F200.00
G1 X40.390 Y33.367 F200.00
G1 X40.474 Y33.653 F200.00
G1 X40.558 Y34.036 F200.00
G1 X40.602 Y34.426 F200.00
G1 X40.618 Y34.797 F200.00
G1 X40.590 Y35.187 F200.00
G1 X40.542 Y35.510 F200.00
G1 X40.442 Y35.861 F200.00
G1 X40.331 Y36.124 F200.00
G1 X40.167 Y36.390 F200.00
G1 X40.040 Y36.530 F200.00
G1 X39.984 Y36.566 F200.00
G1 X39.924 Y36.586 F200.00
G1 X39.542 Y36.586 F200.00
G1 X39.542 Y36.586 F200.00
G1 X39.406 Y36.558 F200.00
G1 X39.323 Y36.502 F200.00
G0 X39.303 Y36.478
G0 X39.271 Y36.363
G0 X38.797 Y31.904
G1 X38.793 Y31.861 F200.00
G1 X38.789 Y31.745 F200.00
G1 X38.817 Y31.689 F200.00
G1 X38.896 Y31.637 F200.00
G1 X39.032 Y31.618 F200.00
G1 X39.032 Y31.618 F200.00
G1 X39.331 Y31.622 F200.00
G1 X39.570 Y31.665 F200.00
G1 X39.685 Y31.709 F200.00
G1 X40.020 Y31.972 F200.00
G1 X40.191 Y32.147 F200.00
G1 X40.426 Y32.462 F200.00
G1 X40.629 Y32.797 F200.00
G1 X40.789 Y33.147 F200.00
G1 X40.884 Y33.434 F200.00
G1 X40.964 Y33.717 F200.00
G1 X41.040 Y34.104 F200.00
G1 X41.076 Y34.494 F200.00
G1 X41.084 Y34.857 F200.00
G1 X41.060 Y35.247 F200.00
G1 X40.984 Y35.633 F200.00
G1 X40.892 Y35.908 F200.00
G1 X40.793 Y36.147 F200.00
G1 X40.622 Y36.410 F200.00
G1 X40.494 Y36.550 F200.00
G1 X40.438 Y36.578 F200.00
G1 X39.992 Y36.586 F200.00
G1 X39.992 Y36.586 F200.00
G1 X39.857 Y36.558 F200.00
G1 X39.773 Y36.502 F200.00
G0 X39.757 Y36.478
G0 X39.725 Y36.363
G0 X39.299 Y31.904
G1 X39.295 Y31.861 F200.00
G1 X39.295 Y31.745 F200.00
G1 X39.323 Y31.689 F200.00
G1 X39.402 Y31.637 F200.00
G1 X39.538 Y31.618 F200.00
G1 X39.538 Y31.618 F200.00
G1 X39.837 Y31.622 F200.00
G1 X40.076 Y31.669 F200.00
G1 X40.331 Y31.833 F200.00
G1 X40.645 Y32.124 F200.00
G1 X40.920 Y32.482 F200.00
G1 X41.116 Y32.821 F200.00
G1 X41.267 Y33.159 F200.00
G1 X41.363 Y33.454 F200.00
G1 X41.438 Y33.741 F200.00
G1 X41.510 Y34.127 F200.00
G1 X41.554 Y34.518 F200.00
G1 X41.554 Y34.908 F200.00
G1 X41.522 Y35.235 F200.00
G1 X41.466 Y35.550 F200.00
G1 X41.367 Y35.892 F200.00
G1 X41.227 Y36.199 F200.00
G1 X41.048 Y36.454 F200.00
G1 X40.956 Y36.546 F200.00
G1 X40.900 Y36.574 F200.00
G1 X40.837 Y36.586 F200.00
G1 X40.454 Y36.586 F200.00
G1 X40.454 Y36.586 F200.00
G1 X40.319 Y36.558 F200.00
G1 X40.235 Y36.502 F200.00
G0 X40.219 Y36.478
G0 X40.187 Y36.363
G0 X39.809 Y31.904
G1 X39.805 Y31.861 F200.00
G1 X39.805 Y31.745 F200.00
G1 X39.833 Y31.689 F200.00
G1 X39.912 Y31.637 F200.00
G1 X40.048 Y31.618 F200.00
G1 X40.048 Y31.618 F200.00
G1 X40.406 Y31.637 F200.00
G1 X40.582 Y31.685 F200.00
G1 X40.789 Y31.817 F200.00
G1 X41.143 Y32.155 F200.00
G1 X41.382 Y32.466 F200.00
G1 X41.582 Y32.805 F200.00
G1 X41.725 Y33.127 F200.00
G1 X41.821 Y33.398 F200.00
G1 X41.904 Y33.701 F200.00
G1 X41.980 Y34.088 F200.00
G1 X42.020 Y34.478 F200.00
G1 X42.032 Y34.853 F200.00
G1 X41.992 Y35.243 F200.00
G1 X41.940 Y35.538 F200.00
G1 X41.833 Y35.880 F200.00
G1 X41.721 Y36.147 F200.00
G1 X41.506 Y36.458 F200.00
G1 X41.414 Y36.550 F200.00
G1 X41.355 Y36.578 F200.00
G1 X40.908 Y36.586 F200.00
G1 X40.908 Y36.586 F200.00
G1 X40.773 Y36.558 F200.00
G1 X40.689 Y36.502 F200.00
G0 X40.673 Y36.478
G0 X40.641 Y36.363
G0 X40.251 Y31.904
G1 X40.247 Y31.861 F200.00
G1 X40.247 Y31.745 F200.00
G1 X40.275 Y31.689 F200.00
G1 X40.355 Y31.637 F200.00
G1 X40.490 Y31.618 F200.00
G1 X40.490 Y31.618 F200.00
G1 X40.849 Y31.633 F200.00
G1 X41.028 Y31.677 F200.00
G1 X41.335 Y31.876 F200.00
G1 X41.598 Y32.127 F200.00
G1 X41.841 Y32.434 F200.00
G1 X42.044 Y32.769 F200.00
G1 X42.187 Y33.080 F200.00
