(Exported by FreeCAD)
(Post Processor: grbl_post)
(Output Time:2022-03-30 10:29:32.689103)
(Begin preamble)
G17 G90
G21
(Begin operation: Fixture)
(Path: Fixture)
G54
(Finish operation: Fixture)
(Begin operation: 3.175mm_ball_end001)
(Path: 3.175mm_ball_end001)
(3.175mm_ball_end001)
(Begin toolchange)
( M6 T2.0 )
M3 S1000.0
(Finish operation: 3.175mm_ball_end001)
(Begin operation: Pocket_Shape)
(Path: Pocket_Shape)
(Pocket_Shape)
G0 Z5.000
G0 X290.637 Y23.143
G0 Z3.000
G1 X290.637 Y23.143 Z-1.000 F600.000
G2 X289.931 Y21.588 Z-1.000 I-0.641 J-0.647 K0.000 F600.000
G1 X10.069 Y21.588 Z-1.000 F600.000
G1 X9.843 Y21.607 Z-1.000 F600.000
G2 X10.069 Y23.413 Z-1.000 I0.162 J0.896 K0.000 F600.000
G1 X289.931 Y23.413 Z-1.000 F600.000
G1 X290.157 Y23.393 Z-1.000 F600.000
G2 X290.637 Y23.143 Z-1.000 I-0.162 J-0.896 K0.000 F600.000
G1 X290.637 Y23.143 Z-2.000 F600.000
G2 X289.931 Y21.588 Z-2.000 I-0.641 J-0.647 K0.000 F600.000
G1 X10.069 Y21.588 Z-2.000 F600.000
G1 X9.843 Y21.607 Z-2.000 F600.000
G2 X10.069 Y23.413 Z-2.000 I0.162 J0.896 K0.000 F600.000
G1 X289.931 Y23.413 Z-2.000 F600.000
G1 X290.157 Y23.393 Z-2.000 F600.000
G2 X290.637 Y23.143 Z-2.000 I-0.162 J-0.896 K0.000 F600.000
G1 X290.637 Y23.143 Z-3.000 F600.000
G2 X289.931 Y21.588 Z-3.000 I-0.641 J-0.647 K0.000 F600.000
G1 X10.069 Y21.588 Z-3.000 F600.000
G1 X9.843 Y21.607 Z-3.000 F600.000
G2 X10.069 Y23.413 Z-3.000 I0.162 J0.896 K0.000 F600.000
G1 X289.931 Y23.413 Z-3.000 F600.000
G1 X290.157 Y23.393 Z-3.000 F600.000
G2 X290.637 Y23.143 Z-3.000 I-0.162 J-0.896 K0.000 F600.000
G1 X290.637 Y23.143 Z-4.000 F600.000
G2 X289.931 Y21.588 Z-4.000 I-0.641 J-0.647 K0.000 F600.000
G1 X10.069 Y21.588 Z-4.000 F600.000
G1 X9.843 Y21.607 Z-4.000 F600.000
G2 X10.069 Y23.413 Z-4.000 I0.162 J0.896 K0.000 F600.000
G1 X289.931 Y23.413 Z-4.000 F600.000
G1 X290.157 Y23.393 Z-4.000 F600.000
G2 X290.637 Y23.143 Z-4.000 I-0.162 J-0.896 K0.000 F600.000
G1 X290.637 Y23.143 Z-5.000 F600.000
G2 X289.931 Y21.588 Z-5.000 I-0.641 J-0.647 K0.000 F600.000
G1 X10.069 Y21.588 Z-5.000 F600.000
G1 X9.843 Y21.607 Z-5.000 F600.000
G2 X10.069 Y23.413 Z-5.000 I0.162 J0.896 K0.000 F600.000
G1 X289.931 Y23.413 Z-5.000 F600.000
G1 X290.157 Y23.393 Z-5.000 F600.000
G2 X290.637 Y23.143 Z-5.000 I-0.162 J-0.896 K0.000 F600.000
G1 X290.637 Y23.143 Z-5.000 F600.000
G2 X289.931 Y21.588 Z-5.000 I-0.641 J-0.647 K0.000 F600.000
G1 X10.069 Y21.588 Z-5.000 F600.000
G1 X9.843 Y21.607 Z-5.000 F600.000
G2 X10.069 Y23.413 Z-5.000 I0.162 J0.896 K0.000 F600.000
G1 X289.931 Y23.413 Z-5.000 F600.000
G1 X290.157 Y23.393 Z-5.000 F600.000
G2 X290.637 Y23.143 Z-5.000 I-0.162 J-0.896 K0.000 F600.000
G0 Z5.000
G0 Z5.000
G0 X290.637 Y23.143
G0 X290.038 Y35.872
G0 X290.038 Y35.872 Z3.000
G1 X290.038 Y35.872 Z-1.000 F600.000
G2 X289.931 Y35.873 Z-1.000 I-0.043 J0.910 K0.000 F600.000
G1 X10.069 Y35.873 Z-1.000 F600.000
G1 X9.843 Y35.893 Z-1.000 F600.000
G2 X10.069 Y37.698 Z-1.000 I0.162 J0.896 K0.000 F600.000
G1 X289.931 Y37.698 Z-1.000 F600.000
G1 X290.157 Y37.678 Z-1.000 F600.000
G2 X290.038 Y35.872 Z-1.000 I-0.162 J-0.896 K0.000 F600.000
G1 X290.038 Y35.872 Z-2.000 F600.000
G2 X289.931 Y35.873 Z-2.000 I-0.043 J0.910 K0.000 F600.000
G1 X10.069 Y35.873 Z-2.000 F600.000
G1 X9.843 Y35.893 Z-2.000 F600.000
G2 X10.069 Y37.698 Z-2.000 I0.162 J0.896 K0.000 F600.000
G1 X289.931 Y37.698 Z-2.000 F600.000
G1 X290.157 Y37.678 Z-2.000 F600.000
G2 X290.038 Y35.872 Z-2.000 I-0.162 J-0.896 K0.000 F600.000
G1 X290.038 Y35.872 Z-3.000 F600.000
G2 X289.931 Y35.873 Z-3.000 I-0.043 J0.910 K0.000 F600.000
G1 X10.069 Y35.873 Z-3.000 F600.000
G1 X9.843 Y35.893 Z-3.000 F600.000
G2 X10.069 Y37.698 Z-3.000 I0.162 J0.896 K0.000 F600.000
G1 X289.931 Y37.698 Z-3.000 F600.000
G1 X290.157 Y37.678 Z-3.000 F600.000
G2 X290.038 Y35.872 Z-3.000 I-0.162 J-0.896 K0.000 F600.000
G1 X290.038 Y35.872 Z-4.000 F600.000
G2 X289.931 Y35.873 Z-4.000 I-0.043 J0.910 K0.000 F600.000
G1 X10.069 Y35.873 Z-4.000 F600.000
G1 X9.843 Y35.893 Z-4.000 F600.000
G2 X10.069 Y37.698 Z-4.000 I0.162 J0.896 K0.000 F600.000
G1 X289.931 Y37.698 Z-4.000 F600.000
G1 X290.157 Y37.678 Z-4.000 F600.000
G2 X290.038 Y35.872 Z-4.000 I-0.162 J-0.896 K0.000 F600.000
G1 X290.038 Y35.872 Z-5.000 F600.000
G2 X289.931 Y35.873 Z-5.000 I-0.043 J0.910 K0.000 F600.000
G1 X10.069 Y35.873 Z-5.000 F600.000
G1 X9.843 Y35.893 Z-5.000 F600.000
G2 X10.069 Y37.698 Z-5.000 I0.162 J0.896 K0.000 F600.000
G1 X289.931 Y37.698 Z-5.000 F600.000
G1 X290.157 Y37.678 Z-5.000 F600.000
G2 X290.038 Y35.872 Z-5.000 I-0.162 J-0.896 K0.000 F600.000
G1 X290.038 Y35.872 Z-5.000 F600.000
G2 X289.931 Y35.873 Z-5.000 I-0.043 J0.910 K0.000 F600.000
G1 X10.069 Y35.873 Z-5.000 F600.000
G1 X9.843 Y35.893 Z-5.000 F600.000
G2 X10.069 Y37.698 Z-5.000 I0.162 J0.896 K0.000 F600.000
G1 X289.931 Y37.698 Z-5.000 F600.000
G1 X290.157 Y37.678 Z-5.000 F600.000
G2 X290.038 Y35.872 Z-5.000 I-0.162 J-0.896 K0.000 F600.000
G0 Z5.000
G0 Z5.000
G0 X290.038 Y35.872
G0 X289.998 Y50.157
G0 X289.998 Y50.157 Z3.000
G1 X289.998 Y50.157 Z-1.000 F600.000
G2 X289.931 Y50.159 Z-1.000 I-0.003 J0.911 K0.000 F600.000
G1 X10.069 Y50.159 Z-1.000 F600.000
G1 X9.843 Y50.179 Z-1.000 F600.000
G2 X10.069 Y51.984 Z-1.000 I0.162 J0.896 K0.000 F600.000
G1 X289.931 Y51.984 Z-1.000 F600.000
G1 X290.157 Y51.964 Z-1.000 F600.000
G2 X289.998 Y50.157 Z-1.000 I-0.162 J-0.896 K0.000 F600.000
G1 X289.998 Y50.157 Z-2.000 F600.000
G2 X289.931 Y50.159 Z-2.000 I-0.003 J0.911 K0.000 F600.000
G1 X10.069 Y50.159 Z-2.000 F600.000
G1 X9.843 Y50.179 Z-2.000 F600.000
G2 X10.069 Y51.984 Z-2.000 I0.162 J0.896 K0.000 F600.000
G1 X289.931 Y51.984 Z-2.000 F600.000
G1 X290.157 Y51.964 Z-2.000 F600.000
G2 X289.998 Y50.157 Z-2.000 I-0.162 J-0.896 K0.000 F600.000
G1 X289.998 Y50.157 Z-3.000 F600.000
G2 X289.931 Y50.159 Z-3.000 I-0.003 J0.911 K0.000 F600.000
G1 X10.069 Y50.159 Z-3.000 F600.000
G1 X9.843 Y50.179 Z-3.000 F600.000
G2 X10.069 Y51.984 Z-3.000 I0.162 J0.896 K0.000 F600.000
G1 X289.931 Y51.984 Z-3.000 F600.000
G1 X290.157 Y51.964 Z-3.000 F600.000
G2 X289.998 Y50.157 Z-3.000 I-0.162 J-0.896 K0.000 F600.000
G1 X289.998 Y50.157 Z-4.000 F600.000
G2 X289.931 Y50.159 Z-4.000 I-0.003 J0.911 K0.000 F600.000
G1 X10.069 Y50.159 Z-4.000 F600.000
G1 X9.843 Y50.179 Z-4.000 F600.000
G2 X10.069 Y51.984 Z-4.000 I0.162 J0.896 K0.000 F600.000
G1 X289.931 Y51.984 Z-4.000 F600.000
G1 X290.157 Y51.964 Z-4.000 F600.000
G2 X289.998 Y50.157 Z-4.000 I-0.162 J-0.896 K0.000 F600.000
G1 X289.998 Y50.157 Z-5.000 F600.000
G2 X289.931 Y50.159 Z-5.000 I-0.003 J0.911 K0.000 F600.000
G1 X10.069 Y50.159 Z-5.000 F600.000
G1 X9.843 Y50.179 Z-5.000 F600.000
G2 X10.069 Y51.984 Z-5.000 I0.162 J0.896 K0.000 F600.000
G1 X289.931 Y51.984 Z-5.000 F600.000
G1 X290.157 Y51.964 Z-5.000 F600.000
G2 X289.998 Y50.157 Z-5.000 I-0.162 J-0.896 K0.000 F600.000
G1 X289.998 Y50.157 Z-5.000 F600.000
G2 X289.931 Y50.159 Z-5.000 I-0.003 J0.911 K0.000 F600.000
G1 X10.069 Y50.159 Z-5.000 F600.000
G1 X9.843 Y50.179 Z-5.000 F600.000
G2 X10.069 Y51.984 Z-5.000 I0.162 J0.896 K0.000 F600.000
G1 X289.931 Y51.984 Z-5.000 F600.000
G1 X290.157 Y51.964 Z-5.000 F600.000
G2 X289.998 Y50.157 Z-5.000 I-0.162 J-0.896 K0.000 F600.000
G0 Z5.000
G0 Z5.000
G0 X289.998 Y50.157
G0 X289.996 Y64.442
G0 X289.996 Y64.442 Z3.000
G1 X289.996 Y64.442 Z-1.000 F600.000
G2 X289.931 Y64.445 Z-1.000 I-0.000 J0.911 K0.000 F600.000
G1 X10.069 Y64.445 Z-1.000 F600.000
G1 X9.843 Y64.464 Z-1.000 F600.000
G2 X10.069 Y66.270 Z-1.000 I0.162 J0.896 K0.000 F600.000
G1 X289.931 Y66.270 Z-1.000 F600.000
G1 X290.157 Y66.250 Z-1.000 F600.000
G2 X289.996 Y64.442 Z-1.000 I-0.162 J-0.896 K0.000 F600.000
G1 X289.996 Y64.442 Z-2.000 F600.000
G2 X289.931 Y64.445 Z-2.000 I-0.000 J0.911 K0.000 F600.000
G1 X10.069 Y64.445 Z-2.000 F600.000
G1 X9.843 Y64.464 Z-2.000 F600.000
G2 X10.069 Y66.270 Z-2.000 I0.162 J0.896 K0.000 F600.000
G1 X289.931 Y66.270 Z-2.000 F600.000
G1 X290.157 Y66.250 Z-2.000 F600.000
G2 X289.996 Y64.442 Z-2.000 I-0.162 J-0.896 K0.000 F600.000
G1 X289.996 Y64.442 Z-3.000 F600.000
G2 X289.931 Y64.445 Z-3.000 I-0.000 J0.911 K0.000 F600.000
G1 X10.069 Y64.445 Z-3.000 F600.000
G1 X9.843 Y64.464 Z-3.000 F600.000
G2 X10.069 Y66.270 Z-3.000 I0.162 J0.896 K0.000 F600.000
G1 X289.931 Y66.270 Z-3.000 F600.000
G1 X290.157 Y66.250 Z-3.000 F600.000
G2 X289.996 Y64.442 Z-3.000 I-0.162 J-0.896 K0.000 F600.000
G1 X289.996 Y64.442 Z-4.000 F600.000
G2 X289.931 Y64.445 Z-4.000 I-0.000 J0.911 K0.000 F600.000
G1 X10.069 Y64.445 Z-4.000 F600.000
G1 X9.843 Y64.464 Z-4.000 F600.000
G2 X10.069 Y66.270 Z-4.000 I0.162 J0.896 K0.000 F600.000
G1 X289.931 Y66.270 Z-4.000 F600.000
G1 X290.157 Y66.250 Z-4.000 F600.000
G2 X289.996 Y64.442 Z-4.000 I-0.162 J-0.896 K0.000 F600.000
G1 X289.996 Y64.442 Z-5.000 F600.000
G2 X289.931 Y64.445 Z-5.000 I-0.000 J0.911 K0.000 F600.000
G1 X10.069 Y64.445 Z-5.000 F600.000
G1 X9.843 Y64.464 Z-5.000 F600.000
G2 X10.069 Y66.270 Z-5.000 I0.162 J0.896 K0.000 F600.000
G1 X289.931 Y66.270 Z-5.000 F600.000
G1 X290.157 Y66.250 Z-5.000 F600.000
G2 X289.996 Y64.442 Z-5.000 I-0.162 J-0.896 K0.000 F600.000
G1 X289.996 Y64.442 Z-5.000 F600.000
G2 X289.931 Y64.445 Z-5.000 I-0.000 J0.911 K0.000 F600.000
G1 X10.069 Y64.445 Z-5.000 F600.000
G1 X9.843 Y64.464 Z-5.000 F600.000
G2 X10.069 Y66.270 Z-5.000 I0.162 J0.896 K0.000 F600.000
G1 X289.931 Y66.270 Z-5.000 F600.000
G1 X290.157 Y66.250 Z-5.000 F600.000
G2 X289.996 Y64.442 Z-5.000 I-0.162 J-0.896 K0.000 F600.000
G0 Z5.000
G0 Z5.000
G0 X289.996 Y64.442
G0 X289.995 Y78.728
G0 X289.995 Y78.728 Z3.000
G1 X289.995 Y78.728 Z-1.000 F600.000
G2 X289.931 Y78.730 Z-1.000 I-0.000 J0.911 K0.000 F600.000
G1 X10.069 Y78.730 Z-1.000 F600.000
G1 X9.843 Y78.750 Z-1.000 F600.000
G2 X10.069 Y80.555 Z-1.000 I0.162 J0.896 K0.000 F600.000
G1 X289.931 Y80.555 Z-1.000 F600.000
G1 X290.157 Y80.536 Z-1.000 F600.000
G2 X289.995 Y78.728 Z-1.000 I-0.162 J-0.896 K0.000 F600.000
G1 X289.995 Y78.728 Z-2.000 F600.000
G2 X289.931 Y78.730 Z-2.000 I-0.000 J0.911 K0.000 F600.000
G1 X10.069 Y78.730 Z-2.000 F600.000
G1 X9.843 Y78.750 Z-2.000 F600.000
G2 X10.069 Y80.555 Z-2.000 I0.162 J0.896 K0.000 F600.000
G1 X289.931 Y80.555 Z-2.000 F600.000
G1 X290.157 Y80.536 Z-2.000 F600.000
G2 X289.995 Y78.728 Z-2.000 I-0.162 J-0.896 K0.000 F600.000
G1 X289.995 Y78.728 Z-3.000 F600.000
G2 X289.931 Y78.730 Z-3.000 I-0.000 J0.911 K0.000 F600.000
G1 X10.069 Y78.730 Z-3.000 F600.000
G1 X9.843 Y78.750 Z-3.000 F600.000
G2 X10.069 Y80.555 Z-3.000 I0.162 J0.896 K0.000 F600.000
G1 X289.931 Y80.555 Z-3.000 F600.000
G1 X290.157 Y80.536 Z-3.000 F600.000
G2 X289.995 Y78.728 Z-3.000 I-0.162 J-0.896 K0.000 F600.000
G1 X289.995 Y78.728 Z-4.000 F600.000
G2 X289.931 Y78.730 Z-4.000 I-0.000 J0.911 K0.000 F600.000
G1 X10.069 Y78.730 Z-4.000 F600.000
G1 X9.843 Y78.750 Z-4.000 F600.000
G2 X10.069 Y80.555 Z-4.000 I0.162 J0.896 K0.000 F600.000
G1 X289.931 Y80.555 Z-4.000 F600.000
G1 X290.157 Y80.536 Z-4.000 F600.000
G2 X289.995 Y78.728 Z-4.000 I-0.162 J-0.896 K0.000 F600.000
G1 X289.995 Y78.728 Z-5.000 F600.000
G2 X289.931 Y78.730 Z-5.000 I-0.000 J0.911 K0.000 F600.000
G1 X10.069 Y78.730 Z-5.000 F600.000
G1 X9.843 Y78.750 Z-5.000 F600.000
G2 X10.069 Y80.555 Z-5.000 I0.162 J0.896 K0.000 F600.000
G1 X289.931 Y80.555 Z-5.000 F600.000
G1 X290.157 Y80.536 Z-5.000 F600.000
G2 X289.995 Y78.728 Z-5.000 I-0.162 J-0.896 K0.000 F600.000
G1 X289.995 Y78.728 Z-5.000 F600.000
G2 X289.931 Y78.730 Z-5.000 I-0.000 J0.911 K0.000 F600.000
G1 X10.069 Y78.730 Z-5.000 F600.000
G1 X9.843 Y78.750 Z-5.000 F600.000
G2 X10.069 Y80.555 Z-5.000 I0.162 J0.896 K0.000 F600.000
G1 X289.931 Y80.555 Z-5.000 F600.000
G1 X290.157 Y80.536 Z-5.000 F600.000
G2 X289.995 Y78.728 Z-5.000 I-0.162 J-0.896 K0.000 F600.000
G0 Z5.000
G0 Z5.000
G0 X289.995 Y78.728
G0 X289.995 Y93.014
G0 X289.995 Y93.014 Z3.000
G1 X289.995 Y93.014 Z-1.000 F600.000
G2 X289.931 Y93.016 Z-1.000 I-0.000 J0.911 K0.000 F600.000
G1 X10.069 Y93.016 Z-1.000 F600.000
G1 X9.843 Y93.036 Z-1.000 F600.000
G2 X10.069 Y94.841 Z-1.000 I0.162 J0.896 K0.000 F600.000
G1 X289.931 Y94.841 Z-1.000 F600.000
G1 X290.157 Y94.821 Z-1.000 F600.000
G2 X289.995 Y93.014 Z-1.000 I-0.162 J-0.896 K0.000 F600.000
G1 X289.995 Y93.014 Z-2.000 F600.000
G2 X289.931 Y93.016 Z-2.000 I-0.000 J0.911 K0.000 F600.000
G1 X10.069 Y93.016 Z-2.000 F600.000
G1 X9.843 Y93.036 Z-2.000 F600.000
G2 X10.069 Y94.841 Z-2.000 I0.162 J0.896 K0.000 F600.000
G1 X289.931 Y94.841 Z-2.000 F600.000
G1 X290.157 Y94.821 Z-2.000 F600.000
G2 X289.995 Y93.014 Z-2.000 I-0.162 J-0.896 K0.000 F600.000
G1 X289.995 Y93.014 Z-3.000 F600.000
G2 X289.931 Y93.016 Z-3.000 I-0.000 J0.911 K0.000 F600.000
G1 X10.069 Y93.016 Z-3.000 F600.000
G1 X9.843 Y93.036 Z-3.000 F600.000
G2 X10.069 Y94.841 Z-3.000 I0.162 J0.896 K0.000 F600.000
G1 X289.931 Y94.841 Z-3.000 F600.000
G1 X290.157 Y94.821 Z-3.000 F600.000
G2 X289.995 Y93.014 Z-3.000 I-0.162 J-0.896 K0.000 F600.000
G1 X289.995 Y93.014 Z-4.000 F600.000
G2 X289.931 Y93.016 Z-4.000 I-0.000 J0.911 K0.000 F600.000
G1 X10.069 Y93.016 Z-4.000 F600.000
G1 X9.843 Y93.036 Z-4.000 F600.000
G2 X10.069 Y94.841 Z-4.000 I0.162 J0.896 K0.000 F600.000
G1 X289.931 Y94.841 Z-4.000 F600.000
G1 X290.157 Y94.821 Z-4.000 F600.000
G2 X289.995 Y93.014 Z-4.000 I-0.162 J-0.896 K0.000 F600.000
G1 X289.995 Y93.014 Z-5.000 F600.000
G2 X289.931 Y93.016 Z-5.000 I-0.000 J0.911 K0.000 F600.000
G1 X10.069 Y93.016 Z-5.000 F600.000
G1 X9.843 Y93.036 Z-5.000 F600.000
G2 X10.069 Y94.841 Z-5.000 I0.162 J0.896 K0.000 F600.000
G1 X289.931 Y94.841 Z-5.000 F600.000
G1 X290.157 Y94.821 Z-5.000 F600.000
G2 X289.995 Y93.014 Z-5.000 I-0.162 J-0.896 K0.000 F600.000
G1 X289.995 Y93.014 Z-5.000 F600.000
G2 X289.931 Y93.016 Z-5.000 I-0.000 J0.911 K0.000 F600.000
G1 X10.069 Y93.016 Z-5.000 F600.000
G1 X9.843 Y93.036 Z-5.000 F600.000
G2 X10.069 Y94.841 Z-5.000 I0.162 J0.896 K0.000 F600.000
G1 X289.931 Y94.841 Z-5.000 F600.000
G1 X290.157 Y94.821 Z-5.000 F600.000
G2 X289.995 Y93.014 Z-5.000 I-0.162 J-0.896 K0.000 F600.000
G0 Z5.000
G0 Z5.000
G0 X289.995 Y93.014
G0 X289.988 Y107.300
G0 X289.988 Y107.300 Z3.000
G1 X289.988 Y107.300 Z-1.000 F600.000
G2 X289.931 Y107.302 Z-1.000 I-0.000 J0.919 K0.000 F600.000
G1 X10.069 Y107.302 Z-1.000 F600.000
G1 X9.843 Y107.322 Z-1.000 F600.000
G2 X10.069 Y109.127 Z-1.000 I0.162 J0.896 K0.000 F600.000
G1 X289.931 Y109.127 Z-1.000 F600.000
G2 X290.906 Y108.214 Z-1.000 I0.055 J-0.919 K0.000 F600.000
G2 X289.988 Y107.300 Z-1.000 I-0.919 J0.004 K0.000 F600.000
G1 X289.988 Y107.300 Z-2.000 F600.000
G2 X289.931 Y107.302 Z-2.000 I-0.000 J0.919 K0.000 F600.000
G1 X10.069 Y107.302 Z-2.000 F600.000
G1 X9.843 Y107.322 Z-2.000 F600.000
G2 X10.069 Y109.127 Z-2.000 I0.162 J0.896 K0.000 F600.000
G1 X289.931 Y109.127 Z-2.000 F600.000
G2 X290.906 Y108.214 Z-2.000 I0.055 J-0.919 K0.000 F600.000
G2 X289.988 Y107.300 Z-2.000 I-0.919 J0.004 K0.000 F600.000
G1 X289.988 Y107.300 Z-3.000 F600.000
G2 X289.931 Y107.302 Z-3.000 I-0.000 J0.919 K0.000 F600.000
G1 X10.069 Y107.302 Z-3.000 F600.000
G1 X9.843 Y107.322 Z-3.000 F600.000
G2 X10.069 Y109.127 Z-3.000 I0.162 J0.896 K0.000 F600.000
G1 X289.931 Y109.127 Z-3.000 F600.000
G2 X290.906 Y108.214 Z-3.000 I0.055 J-0.919 K0.000 F600.000
G2 X289.988 Y107.300 Z-3.000 I-0.919 J0.004 K0.000 F600.000
G1 X289.988 Y107.300 Z-4.000 F600.000
G2 X289.931 Y107.302 Z-4.000 I-0.000 J0.919 K0.000 F600.000
G1 X10.069 Y107.302 Z-4.000 F600.000
G1 X9.843 Y107.322 Z-4.000 F600.000
G2 X10.069 Y109.127 Z-4.000 I0.162 J0.896 K0.000 F600.000
G1 X289.931 Y109.127 Z-4.000 F600.000
G2 X290.906 Y108.214 Z-4.000 I0.055 J-0.919 K0.000 F600.000
G2 X289.988 Y107.300 Z-4.000 I-0.919 J0.004 K0.000 F600.000
G1 X289.988 Y107.300 Z-5.000 F600.000
G2 X289.931 Y107.302 Z-5.000 I-0.000 J0.919 K0.000 F600.000
G1 X10.069 Y107.302 Z-5.000 F600.000
G1 X9.843 Y107.322 Z-5.000 F600.000
G2 X10.069 Y109.127 Z-5.000 I0.162 J0.896 K0.000 F600.000
G1 X289.931 Y109.127 Z-5.000 F600.000
G2 X290.906 Y108.214 Z-5.000 I0.055 J-0.919 K0.000 F600.000
G2 X289.988 Y107.300 Z-5.000 I-0.919 J0.004 K0.000 F600.000
G1 X289.988 Y107.300 Z-5.000 F600.000
G2 X289.931 Y107.302 Z-5.000 I-0.000 J0.919 K0.000 F600.000
G1 X10.069 Y107.302 Z-5.000 F600.000
G1 X9.843 Y107.322 Z-5.000 F600.000
G2 X10.069 Y109.127 Z-5.000 I0.162 J0.896 K0.000 F600.000
G1 X289.931 Y109.127 Z-5.000 F600.000
G2 X290.906 Y108.214 Z-5.000 I0.055 J-0.919 K0.000 F600.000
G2 X289.988 Y107.300 Z-5.000 I-0.919 J0.004 K0.000 F600.000
G0 Z5.000
G0 Z5.000
G0 X289.988 Y107.300
G0 X289.988 Y121.586
G0 X289.988 Y121.586 Z3.000
G1 X289.988 Y121.586 Z-1.000 F600.000
G2 X289.931 Y121.588 Z-1.000 I-0.000 J0.919 K0.000 F600.000
G1 X10.069 Y121.588 Z-1.000 F600.000
G1 X9.843 Y121.607 Z-1.000 F600.000
G2 X10.069 Y123.412 Z-1.000 I0.162 J0.896 K0.000 F600.000
G1 X289.931 Y123.412 Z-1.000 F600.000
G2 X290.906 Y122.500 Z-1.000 I0.055 J-0.919 K0.000 F600.000
G2 X289.988 Y121.586 Z-1.000 I-0.919 J0.004 K0.000 F600.000
G1 X289.988 Y121.586 Z-2.000 F600.000
G2 X289.931 Y121.588 Z-2.000 I-0.000 J0.919 K0.000 F600.000
G1 X10.069 Y121.588 Z-2.000 F600.000
G1 X9.843 Y121.607 Z-2.000 F600.000
G2 X10.069 Y123.412 Z-2.000 I0.162 J0.896 K0.000 F600.000
G1 X289.931 Y123.412 Z-2.000 F600.000
G2 X290.906 Y122.500 Z-2.000 I0.055 J-0.919 K0.000 F600.000
G2 X289.988 Y121.586 Z-2.000 I-0.919 J0.004 K0.000 F600.000
G1 X289.988 Y121.586 Z-3.000 F600.000
G2 X289.931 Y121.588 Z-3.000 I-0.000 J0.919 K0.000 F600.000
G1 X10.069 Y121.588 Z-3.000 F600.000
G1 X9.843 Y121.607 Z-3.000 F600.000
G2 X10.069 Y123.412 Z-3.000 I0.162 J0.896 K0.000 F600.000
G1 X289.931 Y123.412 Z-3.000 F600.000
G2 X290.906 Y122.500 Z-3.000 I0.055 J-0.919 K0.000 F600.000
G2 X289.988 Y121.586 Z-3.000 I-0.919 J0.004 K0.000 F600.000
G1 X289.988 Y121.586 Z-4.000 F600.000
G2 X289.931 Y121.588 Z-4.000 I-0.000 J0.919 K0.000 F600.000
G1 X10.069 Y121.588 Z-4.000 F600.000
G1 X9.843 Y121.607 Z-4.000 F600.000
G2 X10.069 Y123.412 Z-4.000 I0.162 J0.896 K0.000 F600.000
G1 X289.931 Y123.412 Z-4.000 F600.000
G2 X290.906 Y122.500 Z-4.000 I0.055 J-0.919 K0.000 F600.000
G2 X289.988 Y121.586 Z-4.000 I-0.919 J0.004 K0.000 F600.000
G1 X289.988 Y121.586 Z-5.000 F600.000
G2 X289.931 Y121.588 Z-5.000 I-0.000 J0.919 K0.000 F600.000
G1 X10.069 Y121.588 Z-5.000 F600.000
G1 X9.843 Y121.607 Z-5.000 F600.000
G2 X10.069 Y123.412 Z-5.000 I0.162 J0.896 K0.000 F600.000
G1 X289.931 Y123.412 Z-5.000 F600.000
G2 X290.906 Y122.500 Z-5.000 I0.055 J-0.919 K0.000 F600.000
G2 X289.988 Y121.586 Z-5.000 I-0.919 J0.004 K0.000 F600.000
G1 X289.988 Y121.586 Z-5.000 F600.000
G2 X289.931 Y121.588 Z-5.000 I-0.000 J0.919 K0.000 F600.000
G1 X10.069 Y121.588 Z-5.000 F600.000
G1 X9.843 Y121.607 Z-5.000 F600.000
G2 X10.069 Y123.412 Z-5.000 I0.162 J0.896 K0.000 F600.000
G1 X289.931 Y123.412 Z-5.000 F600.000
G2 X290.906 Y122.500 Z-5.000 I0.055 J-0.919 K0.000 F600.000
G2 X289.988 Y121.586 Z-5.000 I-0.919 J0.004 K0.000 F600.000
G0 Z5.000
G0 Z5.000
G0 X289.988 Y121.586
G0 X289.995 Y135.871
G0 X289.995 Y135.871 Z3.000
G1 X289.995 Y135.871 Z-1.000 F600.000
G2 X289.931 Y135.873 Z-1.000 I0.000 J0.911 K0.000 F600.000
G1 X10.069 Y135.873 Z-1.000 F600.000
G1 X9.843 Y135.893 Z-1.000 F600.000
G2 X10.069 Y137.698 Z-1.000 I0.162 J0.896 K0.000 F600.000
G1 X289.931 Y137.698 Z-1.000 F600.000
G1 X290.157 Y137.678 Z-1.000 F600.000
G2 X289.995 Y135.871 Z-1.000 I-0.162 J-0.896 K0.000 F600.000
G1 X289.995 Y135.871 Z-2.000 F600.000
G2 X289.931 Y135.873 Z-2.000 I0.000 J0.911 K0.000 F600.000
G1 X10.069 Y135.873 Z-2.000 F600.000
G1 X9.843 Y135.893 Z-2.000 F600.000
G2 X10.069 Y137.698 Z-2.000 I0.162 J0.896 K0.000 F600.000
G1 X289.931 Y137.698 Z-2.000 F600.000
G1 X290.157 Y137.678 Z-2.000 F600.000
G2 X289.995 Y135.871 Z-2.000 I-0.162 J-0.896 K0.000 F600.000
G1 X289.995 Y135.871 Z-3.000 F600.000
G2 X289.931 Y135.873 Z-3.000 I0.000 J0.911 K0.000 F600.000
G1 X10.069 Y135.873 Z-3.000 F600.000
G1 X9.843 Y135.893 Z-3.000 F600.000
G2 X10.069 Y137.698 Z-3.000 I0.162 J0.896 K0.000 F600.000
G1 X289.931 Y137.698 Z-3.000 F600.000
G1 X290.157 Y137.678 Z-3.000 F600.000
G2 X289.995 Y135.871 Z-3.000 I-0.162 J-0.896 K0.000 F600.000
G1 X289.995 Y135.871 Z-4.000 F600.000
G2 X289.931 Y135.873 Z-4.000 I0.000 J0.911 K0.000 F600.000
G1 X10.069 Y135.873 Z-4.000 F600.000
G1 X9.843 Y135.893 Z-4.000 F600.000
G2 X10.069 Y137.698 Z-4.000 I0.162 J0.896 K0.000 F600.000
G1 X289.931 Y137.698 Z-4.000 F600.000
G1 X290.157 Y137.678 Z-4.000 F600.000
G2 X289.995 Y135.871 Z-4.000 I-0.162 J-0.896 K0.000 F600.000
G1 X289.995 Y135.871 Z-5.000 F600.000
G2 X289.931 Y135.873 Z-5.000 I0.000 J0.911 K0.000 F600.000
G1 X10.069 Y135.873 Z-5.000 F600.000
G1 X9.843 Y135.893 Z-5.000 F600.000
G2 X10.069 Y137.698 Z-5.000 I0.162 J0.896 K0.000 F600.000
G1 X289.931 Y137.698 Z-5.000 F600.000
G1 X290.157 Y137.678 Z-5.000 F600.000
G2 X289.995 Y135.871 Z-5.000 I-0.162 J-0.896 K0.000 F600.000
G1 X289.995 Y135.871 Z-5.000 F600.000
G2 X289.931 Y135.873 Z-5.000 I0.000 J0.911 K0.000 F600.000
G1 X10.069 Y135.873 Z-5.000 F600.000
G1 X9.843 Y135.893 Z-5.000 F600.000
G2 X10.069 Y137.698 Z-5.000 I0.162 J0.896 K0.000 F600.000
G1 X289.931 Y137.698 Z-5.000 F600.000
G1 X290.157 Y137.678 Z-5.000 F600.000
G2 X289.995 Y135.871 Z-5.000 I-0.162 J-0.896 K0.000 F600.000
G0 Z5.000
G0 Z5.000
G0 X289.995 Y135.871
G0 X289.995 Y150.157
G0 X289.995 Y150.157 Z3.000
G1 X289.995 Y150.157 Z-1.000 F600.000
G2 X289.931 Y150.159 Z-1.000 I0.000 J0.911 K0.000 F600.000
G1 X10.069 Y150.159 Z-1.000 F600.000
G1 X9.843 Y150.179 Z-1.000 F600.000
G2 X10.069 Y151.984 Z-1.000 I0.162 J0.896 K0.000 F600.000
G1 X289.931 Y151.984 Z-1.000 F600.000
G1 X290.157 Y151.964 Z-1.000 F600.000
G2 X289.995 Y150.157 Z-1.000 I-0.162 J-0.896 K0.000 F600.000
G1 X289.995 Y150.157 Z-2.000 F600.000
G2 X289.931 Y150.159 Z-2.000 I0.000 J0.911 K0.000 F600.000
G1 X10.069 Y150.159 Z-2.000 F600.000
G1 X9.843 Y150.179 Z-2.000 F600.000
G2 X10.069 Y151.984 Z-2.000 I0.162 J0.896 K0.000 F600.000
G1 X289.931 Y151.984 Z-2.000 F600.000
G1 X290.157 Y151.964 Z-2.000 F600.000
G2 X289.995 Y150.157 Z-2.000 I-0.162 J-0.896 K0.000 F600.000
G1 X289.995 Y150.157 Z-3.000 F600.000
G2 X289.931 Y150.159 Z-3.000 I0.000 J0.911 K0.000 F600.000
G1 X10.069 Y150.159 Z-3.000 F600.000
G1 X9.843 Y150.179 Z-3.000 F600.000
G2 X10.069 Y151.984 Z-3.000 I0.162 J0.896 K0.000 F600.000
G1 X289.931 Y151.984 Z-3.000 F600.000
G1 X290.157 Y151.964 Z-3.000 F600.000
G2 X289.995 Y150.157 Z-3.000 I-0.162 J-0.896 K0.000 F600.000
G1 X289.995 Y150.157 Z-4.000 F600.000
G2 X289.931 Y150.159 Z-4.000 I0.000 J0.911 K0.000 F600.000
G1 X10.069 Y150.159 Z-4.000 F600.000
G1 X9.843 Y150.179 Z-4.000 F600.000
G2 X10.069 Y151.984 Z-4.000 I0.162 J0.896 K0.000 F600.000
G1 X289.931 Y151.984 Z-4.000 F600.000
G1 X290.157 Y151.964 Z-4.000 F600.000
G2 X289.995 Y150.157 Z-4.000 I-0.162 J-0.896 K0.000 F600.000
G1 X289.995 Y150.157 Z-5.000 F600.000
G2 X289.931 Y150.159 Z-5.000 I0.000 J0.911 K0.000 F600.000
G1 X10.069 Y150.159 Z-5.000 F600.000
G1 X9.843 Y150.179 Z-5.000 F600.000
G2 X10.069 Y151.984 Z-5.000 I0.162 J0.896 K0.000 F600.000
G1 X289.931 Y151.984 Z-5.000 F600.000
G1 X290.157 Y151.964 Z-5.000 F600.000
G2 X289.995 Y150.157 Z-5.000 I-0.162 J-0.896 K0.000 F600.000
G1 X289.995 Y150.157 Z-5.000 F600.000
G2 X289.931 Y150.159 Z-5.000 I0.000 J0.911 K0.000 F600.000
G1 X10.069 Y150.159 Z-5.000 F600.000
G1 X9.843 Y150.179 Z-5.000 F600.000
G2 X10.069 Y151.984 Z-5.000 I0.162 J0.896 K0.000 F600.000
G1 X289.931 Y151.984 Z-5.000 F600.000
G1 X290.157 Y151.964 Z-5.000 F600.000
G2 X289.995 Y150.157 Z-5.000 I-0.162 J-0.896 K0.000 F600.000
G0 Z5.000
G0 Z5.000
G0 X289.995 Y150.157
G0 X289.995 Y164.442
G0 X289.995 Y164.442 Z3.000
G1 X289.995 Y164.442 Z-1.000 F600.000
G2 X289.931 Y164.445 Z-1.000 I0.000 J0.911 K0.000 F600.000
G1 X10.069 Y164.445 Z-1.000 F600.000
G1 X9.843 Y164.464 Z-1.000 F600.000
G2 X10.069 Y166.270 Z-1.000 I0.162 J0.896 K0.000 F600.000
G1 X289.931 Y166.270 Z-1.000 F600.000
G1 X290.157 Y166.250 Z-1.000 F600.000
G2 X289.995 Y164.442 Z-1.000 I-0.162 J-0.896 K0.000 F600.000
G1 X289.995 Y164.442 Z-2.000 F600.000
G2 X289.931 Y164.445 Z-2.000 I0.000 J0.911 K0.000 F600.000
G1 X10.069 Y164.445 Z-2.000 F600.000
G1 X9.843 Y164.464 Z-2.000 F600.000
G2 X10.069 Y166.270 Z-2.000 I0.162 J0.896 K0.000 F600.000
G1 X289.931 Y166.270 Z-2.000 F600.000
G1 X290.157 Y166.250 Z-2.000 F600.000
G2 X289.995 Y164.442 Z-2.000 I-0.162 J-0.896 K0.000 F600.000
G1 X289.995 Y164.442 Z-3.000 F600.000
G2 X289.931 Y164.445 Z-3.000 I0.000 J0.911 K0.000 F600.000
G1 X10.069 Y164.445 Z-3.000 F600.000
G1 X9.843 Y164.464 Z-3.000 F600.000
G2 X10.069 Y166.270 Z-3.000 I0.162 J0.896 K0.000 F600.000
G1 X289.931 Y166.270 Z-3.000 F600.000
G1 X290.157 Y166.250 Z-3.000 F600.000
G2 X289.995 Y164.442 Z-3.000 I-0.162 J-0.896 K0.000 F600.000
G1 X289.995 Y164.442 Z-4.000 F600.000
G2 X289.931 Y164.445 Z-4.000 I0.000 J0.911 K0.000 F600.000
G1 X10.069 Y164.445 Z-4.000 F600.000
G1 X9.843 Y164.464 Z-4.000 F600.000
G2 X10.069 Y166.270 Z-4.000 I0.162 J0.896 K0.000 F600.000
G1 X289.931 Y166.270 Z-4.000 F600.000
G1 X290.157 Y166.250 Z-4.000 F600.000
G2 X289.995 Y164.442 Z-4.000 I-0.162 J-0.896 K0.000 F600.000
G1 X289.995 Y164.442 Z-5.000 F600.000
G2 X289.931 Y164.445 Z-5.000 I0.000 J0.911 K0.000 F600.000
G1 X10.069 Y164.445 Z-5.000 F600.000
G1 X9.843 Y164.464 Z-5.000 F600.000
G2 X10.069 Y166.270 Z-5.000 I0.162 J0.896 K0.000 F600.000
G1 X289.931 Y166.270 Z-5.000 F600.000
G1 X290.157 Y166.250 Z-5.000 F600.000
G2 X289.995 Y164.442 Z-5.000 I-0.162 J-0.896 K0.000 F600.000
G1 X289.995 Y164.442 Z-5.000 F600.000
G2 X289.931 Y164.445 Z-5.000 I0.000 J0.911 K0.000 F600.000
G1 X10.069 Y164.445 Z-5.000 F600.000
G1 X9.843 Y164.464 Z-5.000 F600.000
G2 X10.069 Y166.270 Z-5.000 I0.162 J0.896 K0.000 F600.000
G1 X289.931 Y166.270 Z-5.000 F600.000
G1 X290.157 Y166.250 Z-5.000 F600.000
G2 X289.995 Y164.442 Z-5.000 I-0.162 J-0.896 K0.000 F600.000
G0 Z5.000
G0 Z5.000
G0 X289.995 Y164.442
G0 X289.995 Y178.728
G0 X289.995 Y178.728 Z3.000
G1 X289.995 Y178.728 Z-1.000 F600.000
G2 X289.931 Y178.730 Z-1.000 I0.000 J0.911 K0.000 F600.000
G1 X10.069 Y178.730 Z-1.000 F600.000
G1 X9.843 Y178.750 Z-1.000 F600.000
G2 X10.069 Y180.555 Z-1.000 I0.162 J0.896 K0.000 F600.000
G1 X289.931 Y180.555 Z-1.000 F600.000
G1 X290.157 Y180.536 Z-1.000 F600.000
G2 X289.995 Y178.728 Z-1.000 I-0.162 J-0.896 K0.000 F600.000
G1 X289.995 Y178.728 Z-2.000 F600.000
G2 X289.931 Y178.730 Z-2.000 I0.000 J0.911 K0.000 F600.000
G1 X10.069 Y178.730 Z-2.000 F600.000
G1 X9.843 Y178.750 Z-2.000 F600.000
G2 X10.069 Y180.555 Z-2.000 I0.162 J0.896 K0.000 F600.000
G1 X289.931 Y180.555 Z-2.000 F600.000
G1 X290.157 Y180.536 Z-2.000 F600.000
G2 X289.995 Y178.728 Z-2.000 I-0.162 J-0.896 K0.000 F600.000
G1 X289.995 Y178.728 Z-3.000 F600.000
G2 X289.931 Y178.730 Z-3.000 I0.000 J0.911 K0.000 F600.000
G1 X10.069 Y178.730 Z-3.000 F600.000
G1 X9.843 Y178.750 Z-3.000 F600.000
G2 X10.069 Y180.555 Z-3.000 I0.162 J0.896 K0.000 F600.000
G1 X289.931 Y180.555 Z-3.000 F600.000
G1 X290.157 Y180.536 Z-3.000 F600.000
G2 X289.995 Y178.728 Z-3.000 I-0.162 J-0.896 K0.000 F600.000
G1 X289.995 Y178.728 Z-4.000 F600.000
G2 X289.931 Y178.730 Z-4.000 I0.000 J0.911 K0.000 F600.000
G1 X10.069 Y178.730 Z-4.000 F600.000
G1 X9.843 Y178.750 Z-4.000 F600.000
G2 X10.069 Y180.555 Z-4.000 I0.162 J0.896 K0.000 F600.000
G1 X289.931 Y180.555 Z-4.000 F600.000
G1 X290.157 Y180.536 Z-4.000 F600.000
G2 X289.995 Y178.728 Z-4.000 I-0.162 J-0.896 K0.000 F600.000
G1 X289.995 Y178.728 Z-5.000 F600.000
G2 X289.931 Y178.730 Z-5.000 I0.000 J0.911 K0.000 F600.000
G1 X10.069 Y178.730 Z-5.000 F600.000
G1 X9.843 Y178.750 Z-5.000 F600.000
G2 X10.069 Y180.555 Z-5.000 I0.162 J0.896 K0.000 F600.000
G1 X289.931 Y180.555 Z-5.000 F600.000
G1 X290.157 Y180.536 Z-5.000 F600.000
G2 X289.995 Y178.728 Z-5.000 I-0.162 J-0.896 K0.000 F600.000
G1 X289.995 Y178.728 Z-5.000 F600.000
G2 X289.931 Y178.730 Z-5.000 I0.000 J0.911 K0.000 F600.000
G1 X10.069 Y178.730 Z-5.000 F600.000
G1 X9.843 Y178.750 Z-5.000 F600.000
G2 X10.069 Y180.555 Z-5.000 I0.162 J0.896 K0.000 F600.000
G1 X289.931 Y180.555 Z-5.000 F600.000
G1 X290.157 Y180.536 Z-5.000 F600.000
G2 X289.995 Y178.728 Z-5.000 I-0.162 J-0.896 K0.000 F600.000
G0 Z5.000
G0 Z5.000
G0 X289.995 Y178.728
G0 Y193.014
G0 Y193.014 Z3.000
G1 X289.995 Y193.014 Z-1.000 F600.000
G2 X289.931 Y193.016 Z-1.000 I0.000 J0.911 K0.000 F600.000
G1 X10.069 Y193.016 Z-1.000 F600.000
G1 X9.843 Y193.036 Z-1.000 F600.000
G2 X10.069 Y194.841 Z-1.000 I0.162 J0.896 K0.000 F600.000
G1 X289.931 Y194.841 Z-1.000 F600.000
G1 X290.157 Y194.821 Z-1.000 F600.000
G2 X289.995 Y193.014 Z-1.000 I-0.162 J-0.896 K0.000 F600.000
G1 X289.995 Y193.014 Z-2.000 F600.000
G2 X289.931 Y193.016 Z-2.000 I0.000 J0.911 K0.000 F600.000
G1 X10.069 Y193.016 Z-2.000 F600.000
G1 X9.843 Y193.036 Z-2.000 F600.000
G2 X10.069 Y194.841 Z-2.000 I0.162 J0.896 K0.000 F600.000
G1 X289.931 Y194.841 Z-2.000 F600.000
G1 X290.157 Y194.821 Z-2.000 F600.000
G2 X289.995 Y193.014 Z-2.000 I-0.162 J-0.896 K0.000 F600.000
G1 X289.995 Y193.014 Z-3.000 F600.000
G2 X289.931 Y193.016 Z-3.000 I0.000 J0.911 K0.000 F600.000
G1 X10.069 Y193.016 Z-3.000 F600.000
G1 X9.843 Y193.036 Z-3.000 F600.000
G2 X10.069 Y194.841 Z-3.000 I0.162 J0.896 K0.000 F600.000
G1 X289.931 Y194.841 Z-3.000 F600.000
G1 X290.157 Y194.821 Z-3.000 F600.000
G2 X289.995 Y193.014 Z-3.000 I-0.162 J-0.896 K0.000 F600.000
G1 X289.995 Y193.014 Z-4.000 F600.000
G2 X289.931 Y193.016 Z-4.000 I0.000 J0.911 K0.000 F600.000
G1 X10.069 Y193.016 Z-4.000 F600.000
G1 X9.843 Y193.036 Z-4.000 F600.000
G2 X10.069 Y194.841 Z-4.000 I0.162 J0.896 K0.000 F600.000
G1 X289.931 Y194.841 Z-4.000 F600.000
G1 X290.157 Y194.821 Z-4.000 F600.000
G2 X289.995 Y193.014 Z-4.000 I-0.162 J-0.896 K0.000 F600.000
G1 X289.995 Y193.014 Z-5.000 F600.000
G2 X289.931 Y193.016 Z-5.000 I0.000 J0.911 K0.000 F600.000
G1 X10.069 Y193.016 Z-5.000 F600.000
G1 X9.843 Y193.036 Z-5.000 F600.000
G2 X10.069 Y194.841 Z-5.000 I0.162 J0.896 K0.000 F600.000
G1 X289.931 Y194.841 Z-5.000 F600.000
G1 X290.157 Y194.821 Z-5.000 F600.000
G2 X289.995 Y193.014 Z-5.000 I-0.162 J-0.896 K0.000 F600.000
G1 X289.995 Y193.014 Z-5.000 F600.000
G2 X289.931 Y193.016 Z-5.000 I0.000 J0.911 K0.000 F600.000
G1 X10.069 Y193.016 Z-5.000 F600.000
G1 X9.843 Y193.036 Z-5.000 F600.000
G2 X10.069 Y194.841 Z-5.000 I0.162 J0.896 K0.000 F600.000
G1 X289.931 Y194.841 Z-5.000 F600.000
G1 X290.157 Y194.821 Z-5.000 F600.000
G2 X289.995 Y193.014 Z-5.000 I-0.162 J-0.896 K0.000 F600.000
G0 Z5.000
G0 Z5.000
G0 X289.995 Y193.014
G0 Y207.299
G0 Y207.299 Z3.000
G1 X289.995 Y207.299 Z-1.000 F600.000
G2 X289.931 Y207.302 Z-1.000 I0.000 J0.911 K0.000 F600.000
G1 X10.069 Y207.302 Z-1.000 F600.000
G1 X9.843 Y207.322 Z-1.000 F600.000
G2 X10.069 Y209.127 Z-1.000 I0.162 J0.896 K0.000 F600.000
G1 X289.931 Y209.127 Z-1.000 F600.000
G1 X290.157 Y209.107 Z-1.000 F600.000
G2 X289.995 Y207.299 Z-1.000 I-0.162 J-0.896 K0.000 F600.000
G1 X289.995 Y207.299 Z-2.000 F600.000
G2 X289.931 Y207.302 Z-2.000 I0.000 J0.911 K0.000 F600.000
G1 X10.069 Y207.302 Z-2.000 F600.000
G1 X9.843 Y207.322 Z-2.000 F600.000
G2 X10.069 Y209.127 Z-2.000 I0.162 J0.896 K0.000 F600.000
G1 X289.931 Y209.127 Z-2.000 F600.000
G1 X290.157 Y209.107 Z-2.000 F600.000
G2 X289.995 Y207.299 Z-2.000 I-0.162 J-0.896 K0.000 F600.000
G1 X289.995 Y207.299 Z-3.000 F600.000
G2 X289.931 Y207.302 Z-3.000 I0.000 J0.911 K0.000 F600.000
G1 X10.069 Y207.302 Z-3.000 F600.000
G1 X9.843 Y207.322 Z-3.000 F600.000
G2 X10.069 Y209.127 Z-3.000 I0.162 J0.896 K0.000 F600.000
G1 X289.931 Y209.127 Z-3.000 F600.000
G1 X290.157 Y209.107 Z-3.000 F600.000
G2 X289.995 Y207.299 Z-3.000 I-0.162 J-0.896 K0.000 F600.000
G1 X289.995 Y207.299 Z-4.000 F600.000
G2 X289.931 Y207.302 Z-4.000 I0.000 J0.911 K0.000 F600.000
G1 X10.069 Y207.302 Z-4.000 F600.000
G1 X9.843 Y207.322 Z-4.000 F600.000
G2 X10.069 Y209.127 Z-4.000 I0.162 J0.896 K0.000 F600.000
G1 X289.931 Y209.127 Z-4.000 F600.000
G1 X290.157 Y209.107 Z-4.000 F600.000
G2 X289.995 Y207.299 Z-4.000 I-0.162 J-0.896 K0.000 F600.000
G1 X289.995 Y207.299 Z-5.000 F600.000
G2 X289.931 Y207.302 Z-5.000 I0.000 J0.911 K0.000 F600.000
G1 X10.069 Y207.302 Z-5.000 F600.000
G1 X9.843 Y207.322 Z-5.000 F600.000
G2 X10.069 Y209.127 Z-5.000 I0.162 J0.896 K0.000 F600.000
G1 X289.931 Y209.127 Z-5.000 F600.000
G1 X290.157 Y209.107 Z-5.000 F600.000
G2 X289.995 Y207.299 Z-5.000 I-0.162 J-0.896 K0.000 F600.000
G1 X289.995 Y207.299 Z-5.000 F600.000
G2 X289.931 Y207.302 Z-5.000 I0.000 J0.911 K0.000 F600.000
G1 X10.069 Y207.302 Z-5.000 F600.000
G1 X9.843 Y207.322 Z-5.000 F600.000
G2 X10.069 Y209.127 Z-5.000 I0.162 J0.896 K0.000 F600.000
G1 X289.931 Y209.127 Z-5.000 F600.000
G1 X290.157 Y209.107 Z-5.000 F600.000
G2 X289.995 Y207.299 Z-5.000 I-0.162 J-0.896 K0.000 F600.000
G0 Z5.000
G0 Z5.000
G0 X289.995 Y207.299
G0 Y221.585
G0 Y221.585 Z3.000
G1 X289.995 Y221.585 Z-1.000 F600.000
G2 X289.931 Y221.588 Z-1.000 I-0.000 J0.911 K0.000 F600.000
G1 X10.069 Y221.588 Z-1.000 F600.000
G1 X9.843 Y221.607 Z-1.000 F600.000
G2 X10.069 Y223.413 Z-1.000 I0.162 J0.896 K0.000 F600.000
G1 X289.931 Y223.412 Z-1.000 F600.000
G1 X290.157 Y223.393 Z-1.000 F600.000
G2 X289.995 Y221.585 Z-1.000 I-0.162 J-0.896 K0.000 F600.000
G1 X289.995 Y221.585 Z-2.000 F600.000
G2 X289.931 Y221.588 Z-2.000 I-0.000 J0.911 K0.000 F600.000
G1 X10.069 Y221.588 Z-2.000 F600.000
G1 X9.843 Y221.607 Z-2.000 F600.000
G2 X10.069 Y223.413 Z-2.000 I0.162 J0.896 K0.000 F600.000
G1 X289.931 Y223.412 Z-2.000 F600.000
G1 X290.157 Y223.393 Z-2.000 F600.000
G2 X289.995 Y221.585 Z-2.000 I-0.162 J-0.896 K0.000 F600.000
G1 X289.995 Y221.585 Z-3.000 F600.000
G2 X289.931 Y221.588 Z-3.000 I-0.000 J0.911 K0.000 F600.000
G1 X10.069 Y221.588 Z-3.000 F600.000
G1 X9.843 Y221.607 Z-3.000 F600.000
G2 X10.069 Y223.413 Z-3.000 I0.162 J0.896 K0.000 F600.000
G1 X289.931 Y223.412 Z-3.000 F600.000
G1 X290.157 Y223.393 Z-3.000 F600.000
G2 X289.995 Y221.585 Z-3.000 I-0.162 J-0.896 K0.000 F600.000
G1 X289.995 Y221.585 Z-4.000 F600.000
G2 X289.931 Y221.588 Z-4.000 I-0.000 J0.911 K0.000 F600.000
G1 X10.069 Y221.588 Z-4.000 F600.000
G1 X9.843 Y221.607 Z-4.000 F600.000
G2 X10.069 Y223.413 Z-4.000 I0.162 J0.896 K0.000 F600.000
G1 X289.931 Y223.412 Z-4.000 F600.000
G1 X290.157 Y223.393 Z-4.000 F600.000
G2 X289.995 Y221.585 Z-4.000 I-0.162 J-0.896 K0.000 F600.000
G1 X289.995 Y221.585 Z-5.000 F600.000
G2 X289.931 Y221.588 Z-5.000 I-0.000 J0.911 K0.000 F600.000
G1 X10.069 Y221.588 Z-5.000 F600.000
G1 X9.843 Y221.607 Z-5.000 F600.000
G2 X10.069 Y223.413 Z-5.000 I0.162 J0.896 K0.000 F600.000
G1 X289.931 Y223.412 Z-5.000 F600.000
G1 X290.157 Y223.393 Z-5.000 F600.000
G2 X289.995 Y221.585 Z-5.000 I-0.162 J-0.896 K0.000 F600.000
G1 X289.995 Y221.585 Z-5.000 F600.000
G2 X289.931 Y221.588 Z-5.000 I-0.000 J0.911 K0.000 F600.000
G1 X10.069 Y221.588 Z-5.000 F600.000
G1 X9.843 Y221.607 Z-5.000 F600.000
G2 X10.069 Y223.413 Z-5.000 I0.162 J0.896 K0.000 F600.000
G1 X289.931 Y223.412 Z-5.000 F600.000
G1 X290.157 Y223.393 Z-5.000 F600.000
G2 X289.995 Y221.585 Z-5.000 I-0.162 J-0.896 K0.000 F600.000
G0 Z5.000
G0 Z5.000
(Finish operation: Pocket_Shape)
(Begin postamble)
M5
G17 G90
M2
