(Exported by FreeCAD)
(Post Processor: grbl_post)
(Output Time:2022-03-25 15:58:43.363210)
(Begin preamble)
G17 G90
G21
(Begin operation: Fixture)
(Path: Fixture)
G54
(Finish operation: Fixture)
(Begin operation: 3.175mm_ball_end001)
(Path: 3.175mm_ball_end001)
(3.175mm_ball_end001)
(Begin toolchange)
( M6 T1.0 )
M3 S1000.0
(Finish operation: 3.175mm_ball_end001)
(Begin operation: Helix)
(Path: Helix)
(Helix)
(helix cut operation)
G0 Z5.000
G0 X30.515 Y25.000
G0 Z3.000
G1 Z0.000 F100.00
G2 X29.485 Y25.000 Z-0.500 I-0.515 J0.000 F100.00
G2 X30.515 Y25.000 Z-1.000 I0.515 J0.000 F100.00
G2 X29.485 Y25.000 Z-1.500 I-0.515 J0.000 F100.00
G2 X30.515 Y25.000 Z-2.000 I0.515 J0.000 F100.00
G2 X29.485 Y25.000 Z-2.500 I-0.515 J0.000 F100.00
G2 X30.515 Y25.000 Z-3.000 I0.515 J0.000 F100.00
G2 X29.485 Y25.000 Z-3.500 I-0.515 J0.000 F100.00
G2 X30.515 Y25.000 Z-4.000 I0.515 J0.000 F100.00
G2 X29.485 Y25.000 Z-4.500 I-0.515 J0.000 F100.00
G2 X30.515 Y25.000 Z-5.000 I0.515 J0.000 F100.00
G2 X29.485 Y25.000 Z-5.500 I-0.515 J0.000 F100.00
G2 X30.515 Y25.000 Z-6.000 I0.515 J0.000 F100.00
G2 X29.485 Y25.000 Z-6.500 I-0.515 J0.000 F100.00
G2 X30.515 Y25.000 Z-7.000 I0.515 J0.000 F100.00
G2 X29.485 Y25.000 Z-7.500 I-0.515 J0.000 F100.00
G2 X30.515 Y25.000 Z-8.000 I0.515 J0.000 F100.00
G2 X29.485 Y25.000 Z-8.500 I-0.515 J0.000 F100.00
G2 X30.515 Y25.000 Z-9.000 I0.515 J0.000 F100.00
G2 X29.485 Y25.000 Z-9.500 I-0.515 J0.000 F100.00
G2 X30.515 Y25.000 Z-10.000 I0.515 J0.000 F100.00
G2 X29.485 Y25.000 Z-10.000 I-0.515 J0.000 F100.00
G2 X30.515 Y25.000 Z-10.000 I0.515 J0.000 F100.00
G0 Z3.000
G0 X28.615 Y60.000
G0 Z3.000
G1 Z0.000 F100.00
G2 X25.585 Y60.000 Z-0.500 I-1.515 J0.000 F100.00
G2 X28.615 Y60.000 Z-1.000 I1.515 J0.000 F100.00
G2 X25.585 Y60.000 Z-1.500 I-1.515 J0.000 F100.00
G2 X28.615 Y60.000 Z-2.000 I1.515 J0.000 F100.00
G2 X25.585 Y60.000 Z-2.500 I-1.515 J0.000 F100.00
G2 X28.615 Y60.000 Z-3.000 I1.515 J0.000 F100.00
G2 X25.585 Y60.000 Z-3.500 I-1.515 J0.000 F100.00
G2 X28.615 Y60.000 Z-4.000 I1.515 J0.000 F100.00
G2 X25.585 Y60.000 Z-4.500 I-1.515 J0.000 F100.00
G2 X28.615 Y60.000 Z-5.000 I1.515 J0.000 F100.00
G2 X25.585 Y60.000 Z-5.500 I-1.515 J0.000 F100.00
G2 X28.615 Y60.000 Z-6.000 I1.515 J0.000 F100.00
G2 X25.585 Y60.000 Z-6.500 I-1.515 J0.000 F100.00
G2 X28.615 Y60.000 Z-7.000 I1.515 J0.000 F100.00
G2 X25.585 Y60.000 Z-7.500 I-1.515 J0.000 F100.00
G2 X28.615 Y60.000 Z-8.000 I1.515 J0.000 F100.00
G2 X25.585 Y60.000 Z-8.500 I-1.515 J0.000 F100.00
G2 X28.615 Y60.000 Z-9.000 I1.515 J0.000 F100.00
G2 X25.585 Y60.000 Z-9.500 I-1.515 J0.000 F100.00
G2 X28.615 Y60.000 Z-10.000 I1.515 J0.000 F100.00
G2 X25.585 Y60.000 Z-10.000 I-1.515 J0.000 F100.00
G2 X28.615 Y60.000 Z-10.000 I1.515 J0.000 F100.00
G0 Z3.000
G0 X30.515 Y75.000
G0 Z3.000
G1 Z0.000 F100.00
G2 X29.485 Y75.000 Z-0.500 I-0.515 J0.000 F100.00
G2 X30.515 Y75.000 Z-1.000 I0.515 J0.000 F100.00
G2 X29.485 Y75.000 Z-1.500 I-0.515 J0.000 F100.00
G2 X30.515 Y75.000 Z-2.000 I0.515 J0.000 F100.00
G2 X29.485 Y75.000 Z-2.500 I-0.515 J0.000 F100.00
G2 X30.515 Y75.000 Z-3.000 I0.515 J0.000 F100.00
G2 X29.485 Y75.000 Z-3.500 I-0.515 J0.000 F100.00
G2 X30.515 Y75.000 Z-4.000 I0.515 J0.000 F100.00
G2 X29.485 Y75.000 Z-4.500 I-0.515 J0.000 F100.00
G2 X30.515 Y75.000 Z-5.000 I0.515 J0.000 F100.00
G2 X29.485 Y75.000 Z-5.500 I-0.515 J0.000 F100.00
G2 X30.515 Y75.000 Z-6.000 I0.515 J0.000 F100.00
G2 X29.485 Y75.000 Z-6.500 I-0.515 J0.000 F100.00
G2 X30.515 Y75.000 Z-7.000 I0.515 J0.000 F100.00
G2 X29.485 Y75.000 Z-7.500 I-0.515 J0.000 F100.00
G2 X30.515 Y75.000 Z-8.000 I0.515 J0.000 F100.00
G2 X29.485 Y75.000 Z-8.500 I-0.515 J0.000 F100.00
G2 X30.515 Y75.000 Z-9.000 I0.515 J0.000 F100.00
G2 X29.485 Y75.000 Z-9.500 I-0.515 J0.000 F100.00
G2 X30.515 Y75.000 Z-10.000 I0.515 J0.000 F100.00
G2 X29.485 Y75.000 Z-10.000 I-0.515 J0.000 F100.00
G2 X30.515 Y75.000 Z-10.000 I0.515 J0.000 F100.00
G0 Z3.000
G0 X28.615 Y160.000
G0 Z3.000
G1 Z0.000 F100.00
G2 X25.585 Y160.000 Z-0.500 I-1.515 J0.000 F100.00
G2 X28.615 Y160.000 Z-1.000 I1.515 J0.000 F100.00
G2 X25.585 Y160.000 Z-1.500 I-1.515 J0.000 F100.00
G2 X28.615 Y160.000 Z-2.000 I1.515 J0.000 F100.00
G2 X25.585 Y160.000 Z-2.500 I-1.515 J0.000 F100.00
G2 X28.615 Y160.000 Z-3.000 I1.515 J0.000 F100.00
G2 X25.585 Y160.000 Z-3.500 I-1.515 J0.000 F100.00
G2 X28.615 Y160.000 Z-4.000 I1.515 J0.000 F100.00
G2 X25.585 Y160.000 Z-4.500 I-1.515 J0.000 F100.00
G2 X28.615 Y160.000 Z-5.000 I1.515 J0.000 F100.00
G2 X25.585 Y160.000 Z-5.500 I-1.515 J0.000 F100.00
G2 X28.615 Y160.000 Z-6.000 I1.515 J0.000 F100.00
G2 X25.585 Y160.000 Z-6.500 I-1.515 J0.000 F100.00
G2 X28.615 Y160.000 Z-7.000 I1.515 J0.000 F100.00
G2 X25.585 Y160.000 Z-7.500 I-1.515 J0.000 F100.00
G2 X28.615 Y160.000 Z-8.000 I1.515 J0.000 F100.00
G2 X25.585 Y160.000 Z-8.500 I-1.515 J0.000 F100.00
G2 X28.615 Y160.000 Z-9.000 I1.515 J0.000 F100.00
G2 X25.585 Y160.000 Z-9.500 I-1.515 J0.000 F100.00
G2 X28.615 Y160.000 Z-10.000 I1.515 J0.000 F100.00
G2 X25.585 Y160.000 Z-10.000 I-1.515 J0.000 F100.00
G2 X28.615 Y160.000 Z-10.000 I1.515 J0.000 F100.00
G0 Z3.000
G0 Z5.000
(Finish operation: Helix)
(Begin postamble)
M5
G17 G90
M2
